;FLAVOR:Marlin
;TIME:5865
;Filament used: 10.8835m
;Layer height: 0.4
;MINX:0.902
;MINY:13.507
;MINZ:0.25
;MAXX:234.108
;MAXY:227.229
;MAXZ:9.85
;Generated with Cura_SteamEngine 4.8.0
M140 S50
M105
M190 S50
M104 S200
M105
M109 S200
M82 ;absolute extrusion mode
G28 ;home
G92 E0 ;Reset Extruder
G1 Z4.0 F3000 ;Move Z Axis up
G92 E0 ;Reset Extruder
G1 X1.1 Y20 Z0.28 F5000.0 ;Move to start position
G1 X1.1 Y200.0 Z0.28 F1500.0 E15 ;Draw the first line
G1 X1.4 Y200.0 Z0.28 F5000.0 ;Move to side a little
G1 X1.4 Y20 Z0.28 F1500.0 E30 ;Draw the second line
G92 E0 ;Reset Extruder
G1 Z2.0 F3000 ;Move Z Axis up
G92 E0
G92 E0
;LAYER_COUNT:25
;LAYER:0
M107
G0 F1400 X27.972 Y35.09 Z0.25
;TYPE:SKIRT
G1 F1200 X28.193 Y34.93 E0.01134
G1 X28.889 Y34.471 E0.04601
G1 X29.778 Y33.908 E0.08975
G1 X30.777 Y33.287 E0.13866
G1 X31.091 Y33.095 E0.15396
G1 X31.739 Y32.709 E0.18532
G1 X31.988 Y32.575 E0.19707
G1 X32.607 Y32.277 E0.22564
G1 X33.959 Y31.646 E0.28767
G1 X36.409 Y30.418 E0.4016
G1 X38.825 Y29.12 E0.51563
G1 X41.208 Y27.751 E0.62989
G1 X42.557 Y26.923 E0.69569
G1 X43.215 Y26.532 E0.72752
G1 X43.449 Y26.406 E0.73857
G1 X44.069 Y26.105 E0.76722
G1 X44.867 Y25.732 E0.80384
G1 X46.113 Y25.166 E0.86074
G1 X46.598 Y24.951 E0.88279
G1 X47.218 Y24.685 E0.91084
G1 X47.473 Y24.589 E0.92217
G1 X48.244 Y24.333 E0.95595
G1 X49.532 Y23.928 E1.01208
G1 X52.128 Y23.029 E1.1263
G1 X54.641 Y22.079 E1.23799
G1 X57.209 Y21.025 E1.3534
G1 X58.682 Y20.369 E1.42044
G1 X59.399 Y20.06 E1.4529
G1 X59.655 Y19.963 E1.46428
G1 X60.331 Y19.738 E1.4939
G1 X60.766 Y19.599 E1.51289
G1 X61.983 Y19.224 E1.56583
G1 X62.952 Y18.935 E1.60787
G1 X63.646 Y18.741 E1.63783
G1 X63.908 Y18.68 E1.64902
G1 X64.729 Y18.524 E1.68376
G1 X66.052 Y18.291 E1.73961
G1 X68.735 Y17.739 E1.85349
G1 X71.373 Y17.119 E1.96616
G1 X74.05 Y16.409 E2.0813
G1 X75.642 Y15.937 E2.15034
G1 X76.333 Y15.743 E2.18018
G1 X76.594 Y15.682 E2.19132
G1 X77.241 Y15.558 E2.21871
G1 X78.215 Y15.386 E2.25983
G1 X79.047 Y15.247 E2.2949
G1 X79.968 Y15.099 E2.33368
G1 X80.692 Y14.996 E2.36408
G1 X80.961 Y14.969 E2.37532
G1 X81.743 Y14.925 E2.40789
G1 X83.042 Y14.869 E2.46194
G1 X85.783 Y14.675 E2.57619
G1 X88.488 Y14.405 E2.68921
G1 X91.196 Y14.058 E2.80271
G1 X92.868 Y13.794 E2.87309
G1 X93.607 Y13.686 E2.90414
G1 X93.875 Y13.658 E2.91534
G1 X94.654 Y13.611 E2.94779
G1 X95.636 Y13.569 E2.98865
G1 X96.857 Y13.528 E3.03944
G1 X97.38 Y13.515 E3.06119
G1 X98.065 Y13.507 E3.08967
G1 X98.337 Y13.516 E3.10099
G1 X99.075 Y13.57 E3.13175
G1 X100.528 Y13.697 E3.19239
G1 X103.24 Y13.856 E3.30534
G1 X105.958 Y13.94 E3.41839
G1 X108.71 Y13.947 E3.53281
G1 X110.342 Y13.904 E3.60068
G1 X111.068 Y13.894 E3.63087
G1 X111.337 Y13.902 E3.64206
G1 X112.061 Y13.953 E3.67223
G1 X112.488 Y13.989 E3.69005
G1 X113.078 Y14.043 E3.71468
G1 X114.379 Y14.171 E3.76903
G1 X114.792 Y14.215 E3.7863
G1 X115.494 Y14.299 E3.81569
G1 X115.761 Y14.342 E3.82693
G1 X116.494 Y14.494 E3.85806
G1 X117.905 Y14.807 E3.91815
G1 X120.636 Y15.331 E4.03376
G1 X123.301 Y15.765 E4.14602
G1 X126.027 Y16.13 E4.26036
G1 X127.587 Y16.293 E4.32557
G1 X128.337 Y16.381 E4.35697
G1 X128.603 Y16.423 E4.36816
G1 X129.342 Y16.575 E4.39953
G1 X130.249 Y16.777 E4.43816
G1 X130.956 Y16.939 E4.46832
G1 X131.991 Y17.184 E4.51254
G1 X132.704 Y17.369 E4.54316
G1 X132.955 Y17.445 E4.55407
G1 X133.734 Y17.717 E4.58837
G1 X134.983 Y18.172 E4.64364
G1 X137.59 Y19.038 E4.75785
G1 X140.199 Y19.825 E4.87114
G1 X142.846 Y20.541 E4.98515
G1 X144.376 Y20.908 E5.05056
G1 X145.149 Y21.105 E5.08373
G1 X145.405 Y21.182 E5.09484
G1 X146.138 Y21.436 E5.12709
G1 X147.03 Y21.762 E5.16658
G1 X147.832 Y22.061 E5.20216
G1 X148.655 Y22.376 E5.2388
G1 X149.337 Y22.65 E5.26936
G1 X149.585 Y22.762 E5.28067
G1 X150.195 Y23.07 E5.30908
G1 X151.524 Y23.762 E5.37138
G1 X153.975 Y24.95 E5.48462
G1 X156.464 Y26.07 E5.59809
G1 X159.005 Y27.129 E5.71254
G1 X160.485 Y27.698 E5.77846
G1 X161.2 Y27.984 E5.81048
G1 X161.443 Y28.093 E5.82155
G1 X162.112 Y28.428 E5.85266
G1 X162.918 Y28.85 E5.89048
G1 X163.621 Y29.223 E5.92357
G1 X164.497 Y29.696 E5.96496
G1 X165.128 Y30.052 E5.99508
G1 X165.354 Y30.192 E6.00613
G1 X165.92 Y30.577 E6.03459
G1 X167.064 Y31.379 E6.09268
G1 X169.371 Y32.902 E6.20761
G1 X171.698 Y34.344 E6.32142
G1 X174.048 Y35.711 E6.43445
G1 X175.538 Y36.52 E6.50494
G1 X176.178 Y36.878 E6.53543
G1 X176.41 Y37.021 E6.54676
G1 X177.055 Y37.458 E6.57915
G1 X177.372 Y37.678 E6.59519
G1 X178.403 Y38.411 E6.64778
G1 X179.254 Y39.025 E6.69141
G1 X179.822 Y39.452 E6.72096
G1 X180.025 Y39.618 E6.73186
G1 X180.505 Y40.046 E6.7586
G1 X181.57 Y41.025 E6.81874
G1 X183.656 Y42.831 E6.93345
G1 X185.757 Y44.551 E7.04634
G1 X187.948 Y46.243 E7.16143
G1 X189.244 Y47.184 E7.22802
G1 X189.911 Y47.683 E7.26265
G1 X190.117 Y47.85 E7.27367
G1 X190.624 Y48.3 E7.30186
G1 X191.229 Y48.856 E7.33602
G1 X191.993 Y49.566 E7.37938
G1 X192.655 Y50.193 E7.41729
G1 X193.153 Y50.68 E7.44625
G1 X193.336 Y50.875 E7.45737
G1 X193.857 Y51.478 E7.4905
G1 X194.666 Y52.445 E7.54291
G1 X196.47 Y54.481 E7.65601
G1 X198.367 Y56.504 E7.77131
G1 X200.294 Y58.445 E7.88502
G1 X201.444 Y59.535 E7.9509
G1 X202.08 Y60.154 E7.98779
G1 X202.266 Y60.35 E7.99903
G1 X202.734 Y60.891 E8.02877
G1 X203.408 Y61.698 E8.07248
G1 X203.879 Y62.268 E8.10322
G1 X204.483 Y63.012 E8.14307
G1 X204.94 Y63.595 E8.17386
G1 X205.093 Y63.807 E8.18473
G1 X205.443 Y64.339 E8.21121
G1 X206.201 Y65.532 E8.26997
G1 X207.744 Y67.813 E8.38447
G1 X209.345 Y70.042 E8.49856
G1 X211.019 Y72.24 E8.61343
G1 X212.021 Y73.476 E8.67958
G1 X212.523 Y74.112 E8.71327
G1 X212.68 Y74.33 E8.72444
G1 X213.14 Y75.026 E8.75912
G1 X213.54 Y75.654 E8.79008
G1 X214.116 Y76.574 E8.83521
G1 X214.541 Y77.265 E8.86893
G1 X214.912 Y77.893 E8.89926
G1 X215.037 Y78.126 E8.91025
G1 X215.323 Y78.717 E8.93755
G1 X215.961 Y80.084 E9.00027
G1 X217.196 Y82.55 E9.11493
G1 X218.486 Y84.951 E9.22825
G1 X219.85 Y87.326 E9.34211
G1 X220.675 Y88.672 E9.40775
G1 X221.075 Y89.342 E9.44019
G1 X221.206 Y89.585 E9.45167
G1 X221.521 Y90.234 E9.48166
G1 X221.9 Y91.049 E9.51903
G1 X222.294 Y91.91 E9.55839
G1 X222.663 Y92.738 E9.59608
G1 X222.929 Y93.357 E9.62409
G1 X223.027 Y93.614 E9.63553
G1 X223.282 Y94.385 E9.66929
G1 X223.687 Y95.673 E9.72542
G1 X224.586 Y98.27 E9.83968
G1 X225.536 Y100.784 E9.95141
G1 X226.59 Y103.351 E10.06678
G1 X227.246 Y104.824 E10.13382
G1 X227.555 Y105.541 E10.16628
G1 X227.652 Y105.797 E10.17766
G1 X227.876 Y106.468 E10.20707
G1 X227.982 Y106.802 E10.22164
G1 X228.39 Y108.122 E10.27908
G1 X228.67 Y109.057 E10.31966
G1 X228.873 Y109.784 E10.35104
G1 X228.934 Y110.045 E10.36219
G1 X229.084 Y110.832 E10.3955
G1 X229.308 Y112.111 E10.44948
G1 X229.856 Y114.788 E10.56308
G1 X230.468 Y117.409 E10.67498
G1 X231.184 Y120.113 E10.79128
G1 X231.672 Y121.761 E10.86273
G1 X231.872 Y122.477 E10.89364
G1 X231.932 Y122.73 E10.90445
G1 X232.057 Y123.376 E10.93181
G1 X232.199 Y124.178 E10.96567
G1 X232.362 Y125.151 E11.00669
G1 X232.513 Y126.089 E11.04619
G1 X232.619 Y126.834 E11.07747
G1 X232.646 Y127.103 E11.08871
G1 X232.69 Y127.884 E11.12123
G1 X232.746 Y129.184 E11.17533
G1 X232.94 Y131.925 E11.28957
G1 X233.21 Y134.63 E11.40259
G1 X233.557 Y137.338 E11.5161
G1 X233.821 Y139.01 E11.58647
G1 X233.929 Y139.749 E11.61752
G1 X233.957 Y140.017 E11.62873
G1 X234.005 Y140.813 E11.66188
G1 X234.042 Y141.68 E11.69796
G1 X234.085 Y142.933 E11.75008
G1 X234.1 Y143.52 E11.7745
G1 X234.108 Y144.211 E11.80323
G1 X234.099 Y144.483 E11.81454
G1 X234.045 Y145.219 E11.84522
G1 X233.918 Y146.672 E11.90586
G1 X233.759 Y149.384 E12.01881
G1 X233.675 Y152.102 E12.13186
G1 X233.668 Y154.851 E12.24615
G1 X233.711 Y156.461 E12.31311
G1 X233.721 Y157.214 E12.34442
G1 X233.713 Y157.479 E12.35544
G1 X233.664 Y158.184 E12.38483
G1 X233.626 Y158.63 E12.40344
G1 X233.501 Y159.955 E12.45877
G1 X233.404 Y160.89 E12.49785
G1 X233.312 Y161.66 E12.53009
G1 X233.269 Y161.927 E12.54133
G1 X233.134 Y162.577 E12.56893
G1 X232.806 Y164.056 E12.63192
G1 X232.287 Y166.763 E12.74651
G1 X231.846 Y169.479 E12.86091
G1 X231.486 Y172.173 E12.97391
G1 X231.325 Y173.709 E13.03812
G1 X231.234 Y174.481 E13.07043
G1 X231.192 Y174.745 E13.08155
G1 X231.042 Y175.476 E13.11257
G1 X230.921 Y176.025 E13.13595
G1 X230.664 Y177.148 E13.18384
G1 X230.543 Y177.664 E13.20588
G1 X230.418 Y178.177 E13.22783
G1 X230.251 Y178.827 E13.25573
G1 X230.174 Y179.082 E13.2668
G1 X229.944 Y179.745 E13.29598
G1 X229.434 Y181.149 E13.35808
G1 X228.567 Y183.758 E13.47239
G1 X227.785 Y186.357 E13.58522
G1 X227.072 Y188.994 E13.6988
G1 X226.688 Y190.594 E13.7672
G1 X226.505 Y191.308 E13.79785
G1 X226.429 Y191.56 E13.80879
G1 X226.193 Y192.242 E13.8388
G1 X225.872 Y193.122 E13.87774
G1 X225.574 Y193.923 E13.91327
G1 X225.226 Y194.833 E13.95378
G1 X224.972 Y195.463 E13.98202
G1 X224.864 Y195.701 E13.99288
G1 X224.524 Y196.378 E14.02438
G1 X223.876 Y197.623 E14.08273
G1 X222.679 Y200.087 E14.19662
G1 X221.55 Y202.594 E14.31093
G1 X220.505 Y205.099 E14.42378
G1 X219.922 Y206.614 E14.49127
G1 X219.645 Y207.31 E14.52241
G1 X219.536 Y207.554 E14.53352
G1 X219.206 Y208.215 E14.56424
G1 X218.836 Y208.926 E14.59756
G1 X218.172 Y210.173 E14.6563
G1 X217.948 Y210.585 E14.67579
G1 X217.57 Y211.258 E14.70788
G1 X217.429 Y211.487 E14.71906
G1 X217.025 Y212.082 E14.74897
G1 X216.167 Y213.308 E14.81118
G1 X214.684 Y215.56 E14.92328
G1 X213.233 Y217.904 E15.0379
G1 X211.869 Y220.254 E15.15086
G1 X211.109 Y221.657 E15.2172
G1 X210.742 Y222.314 E15.24849
G1 X210.598 Y222.547 E15.25988
G1 X210.16 Y223.194 E15.29236
G1 X209.642 Y223.931 E15.32981
G1 X208.899 Y224.97 E15.38292
G1 X208.573 Y225.417 E15.40592
G1 X208.171 Y225.952 E15.43374
G1 X207.837 Y226.331 E15.45474
G1 X207.446 Y226.653 E15.4758
G1 X207.01 Y226.909 E15.49682
G1 X206.54 Y227.093 E15.51781
G1 X206.046 Y227.201 E15.53883
G1 X205.541 Y227.229 E15.55986
G1 X204.968 Y227.164 E15.58383
G1 X204.218 Y227.01 E15.61567
G1 X202.701 Y226.675 E15.68025
G1 X200.008 Y226.119 E15.79458
G1 X197.332 Y225.645 E15.90756
G1 X194.569 Y225.236 E16.02369
G1 X192.153 Y224.94 E16.12488
G1 X191.696 Y224.852 E16.14423
G1 X191.221 Y224.678 E16.16527
G1 X190.779 Y224.432 E16.1863
G1 X190.254 Y224.004 E16.21446
G1 X188.146 Y222.156 E16.33101
G1 X186.065 Y220.434 E16.4433
G1 X183.198 Y218.217 E16.59398
G1 X182.338 Y217.574 E16.63862
G1 X181.686 Y217.058 E16.67319
G1 X177.124 Y213.343 E16.91779
G1 X176.569 Y212.879 E16.94787
G1 X176.208 Y212.525 E16.96889
G1 X175.908 Y212.119 E16.98988
G1 X175.675 Y211.67 E17.01091
G1 X175.515 Y211.19 E17.03194
G1 X175.433 Y210.691 E17.05297
G1 X175.431 Y210.186 E17.07396
G1 X175.508 Y209.686 E17.095
G1 X175.663 Y209.205 E17.11601
G1 X175.892 Y208.754 E17.13704
G1 X176.093 Y208.464 E17.1517
G1 X177.301 Y206.905 E17.2337
G1 X178.1 Y205.887 E17.2875
G1 X179.734 Y203.68 E17.40167
G1 X181.702 Y200.838 E17.54539
G1 X183.19 Y198.537 E17.65932
G1 X184.62 Y196.179 E17.77397
G1 X186.15 Y193.478 E17.90303
G1 X186.414 Y192.99 E17.9261
G1 X187.679 Y190.561 E18.03996
G1 X188.873 Y188.099 E18.15372
G1 X189.845 Y185.951 E18.25174
G1 X190.939 Y183.359 E18.36871
G1 X191.905 Y180.869 E18.47975
G1 X192.833 Y178.266 E18.59464
G1 X193.731 Y175.465 E18.71693
G1 X193.928 Y174.849 E18.74382
G1 X194.221 Y173.82 E18.7883
G1 X194.499 Y172.869 E18.82949
G1 X194.679 Y172.207 E18.85801
G1 X194.896 Y171.354 E18.89461
G1 X195.21 Y170.155 E18.94613
G1 X195.363 Y169.517 E18.97341
G1 X195.432 Y169.207 E18.98662
G1 X195.723 Y167.964 E19.03969
G1 X195.876 Y167.228 E19.07094
G1 X196.045 Y166.414 E19.10551
G1 X196.286 Y165.252 E19.15485
G1 X196.429 Y164.44 E19.18913
G1 X196.531 Y163.87 E19.2132
G1 X196.757 Y162.593 E19.26712
G1 X196.873 Y161.801 E19.30039
G1 X196.922 Y161.507 E19.31279
G1 X197.027 Y160.74 E19.34497
G1 X197.254 Y159.176 E19.41068
G1 X197.562 Y156.458 E19.5244
G1 X197.794 Y153.722 E19.63856
G1 X197.938 Y151.229 E19.74238
G1 X198.021 Y148.548 E19.8539
G1 X198.036 Y146.889 E19.92287
G1 X197.997 Y144.132 E20.03751
G1 X197.856 Y140.973 E20.16897
G1 X197.653 Y138.256 E20.28225
G1 X197.303 Y134.969 E20.41968
G1 X196.937 Y132.297 E20.5318
G1 X196.483 Y129.566 E20.6469
G1 X195.955 Y126.864 E20.76136
G1 X195.361 Y124.217 E20.87415
G1 X194.666 Y121.493 E20.99103
G1 X193.741 Y118.291 E21.1296
G1 X192.816 Y115.442 E21.25413
G1 X191.908 Y112.895 E21.36655
G1 X190.603 Y109.583 E21.51455
G1 X189.521 Y107.077 E21.62803
G1 X188.357 Y104.574 E21.7428
G1 X187.145 Y102.15 E21.85547
G1 X186.275 Y100.507 E21.93277
G1 X186.001 Y100.005 E21.95654
G1 X184.622 Y97.58 E22.07252
G1 X183.199 Y95.234 E22.1866
G1 X181.725 Y92.953 E22.29951
G1 X180.552 Y91.233 E22.38607
G1 X178.955 Y89.008 E22.49993
G1 X177.286 Y86.818 E22.61441
G1 X176.037 Y85.26 E22.69743
G1 X174.267 Y83.158 E22.81167
G1 X172.414 Y81.08 E22.92743
G1 X171.378 Y79.97 E22.99055
G1 X169.437 Y77.978 E23.10619
G1 X167.466 Y76.066 E23.22035
G1 X165.46 Y74.228 E23.33347
G1 X163.363 Y72.413 E23.44877
G1 X161.531 Y70.911 E23.54726
G1 X159.344 Y69.212 E23.6624
G1 X158.07 Y68.267 E23.72835
G1 X155.788 Y66.652 E23.84458
G1 X153.528 Y65.146 E23.95749
G1 X151.197 Y63.688 E24.0718
G1 X148.815 Y62.289 E24.18665
G1 X147.431 Y61.517 E24.25253
G1 X147.325 Y61.468 E24.25739
G1 X146.573 Y61.053 E24.2931
G1 X144.175 Y59.814 E24.40531
G1 X141.682 Y58.627 E24.52011
G1 X141.078 Y58.339 E24.54793
G1 X141.021 Y58.32 E24.55043
G1 X139.177 Y57.495 E24.63442
G1 X136.642 Y56.444 E24.74851
G1 X133.359 Y55.213 E24.89428
G1 X130.718 Y54.315 E25.01025
G1 X128.073 Y53.499 E25.12533
G1 X125.462 Y52.773 E25.238
G1 X123.28 Y52.228 E25.33151
G1 X120.544 Y51.615 E25.44808
G1 X117.51 Y51.037 E25.57649
G1 X114.779 Y50.599 E25.69148
G1 X112.045 Y50.239 E25.80613
G1 X109.327 Y49.959 E25.91972
G1 X107.237 Y49.797 E26.00688
G1 X106.569 Y49.756 E26.0347
G1 X103.797 Y49.628 E26.15007
G1 X101.047 Y49.581 E26.26442
G1 X98.299 Y49.61 E26.37867
G1 X96.533 Y49.67 E26.45214
G1 X93.74 Y49.831 E26.56845
G1 X91.281 Y50.041 E26.67106
G1 X88.565 Y50.344 E26.78468
G1 X85.836 Y50.728 E26.89925
G1 X83.821 Y51.07 E26.98422
G1 X83.149 Y51.183 E27.01255
G1 X81.719 Y51.458 E27.0731
G1 X81.201 Y51.562 E27.09506
G1 X78.539 Y52.145 E27.20836
G1 X75.88 Y52.807 E27.32228
G1 X73.225 Y53.549 E27.43689
G1 X70.642 Y54.35 E27.54933
G1 X70.006 Y54.567 E27.57726
G1 X69.921 Y54.589 E27.58092
G1 X69.064 Y54.888 E27.61865
G1 X68.035 Y55.24 E27.66387
G1 X67.532 Y55.423 E27.68612
G1 X67.367 Y55.481 E27.69339
G1 X66.667 Y55.74 E27.72442
G1 X66.613 Y55.766 E27.72691
G1 X65.454 Y56.203 E27.77841
G1 X62.9 Y57.237 E27.89297
G1 X60.395 Y58.337 E28.00671
G1 X57.233 Y59.847 E28.15239
G1 X54.756 Y61.13 E28.26837
G1 X52.38 Y62.446 E28.38129
G1 X50.658 Y63.475 E28.46469
G1 X50.509 Y63.549 E28.47161
G1 X49.869 Y63.945 E28.5029
G1 X49.357 Y64.263 E28.52796
G1 X48.317 Y64.907 E28.57881
G1 X46.041 Y66.407 E28.69214
G1 X43.783 Y67.99 E28.80679
G1 X41.622 Y69.596 E28.91873
G1 X39.458 Y71.3 E29.03324
G1 X37.367 Y73.045 E29.14647
G1 X35.304 Y74.867 E29.2609
G1 X33.142 Y76.893 E29.38408
G1 X31.222 Y78.8 E29.49659
G1 X28.89 Y81.265 E29.63767
G1 X28.192 Y82.045 E29.68118
G1 X27.253 Y83.087 E29.7395
G1 X26.886 Y83.435 E29.76053
G1 X26.469 Y83.72 E29.78153
G1 X26.012 Y83.937 E29.80256
G1 X25.527 Y84.078 E29.82356
G1 X25.025 Y84.142 E29.8446
G1 X24.52 Y84.125 E29.86561
G1 X24.035 Y84.032 E29.88614
G1 X22.761 Y83.685 E29.94103
G1 X22.66 Y83.666 E29.94531
G1 X21.565 Y83.364 E29.99253
G1 X18.836 Y82.695 E30.10935
G1 X16.913 Y82.275 E30.19118
G1 X16.429 Y82.129 E30.2122
G1 X15.975 Y81.908 E30.23319
G1 X15.624 Y81.669 E30.25085
G1 X15.058 Y81.224 E30.28078
G1 X14.806 Y81.011 E30.2945
G1 X14.149 Y80.429 E30.33099
G1 X13.258 Y79.617 E30.38111
G1 X11.178 Y77.825 E30.49525
