; generated by PrusaSlicer 2.5.0+win64 on 2023-02-08 at 01:02:45 UTC


;
;

;
;
; 

; external perimeters extrusion width = 0.45mm
; perimeters extrusion width = 0.45mm
; infill extrusion width = 0.45mm
; solid infill extrusion width = 0.45mm
; top infill extrusion width = 0.40mm
; support material extrusion width = 0.38mm
; first layer extrusion width = 0.42mm

M107
;TYPE:Custom
G90 ; use absolute coordinates
M83 ; extruder relative mode
M104 S120 ; set temporary nozzle temp to prevent oozing during homing and auto bed leveling
M140 S50 ; set final bed temp
G4 S10 ; allow partial nozzle warmup
G28 ; home all axis
G1 Z50 F240
G1 X2 Y10 F3000
M104 S210 ; set final nozzle temp
M190 S50 ; wait for bed temp to stabilize
M109 S210 ; wait for nozzle temp to stabilize
G1 Z0.28 F240
G92 E0
G1 Y140 E10 F1500 ; prime the nozzle
G1 X2.3 F5000
G92 E0
G1 Y10 E10 F1200 ; prime the nozzle
G92 E0
G21 ; set units to millimeters
G90 ; use absolute coordinates
M83 ; use relative distances for extrusion
; Filament gcode
M107
;LAYER_CHANGE
;Z:0.4
;HEIGHT:0.4
;BEFORE_LAYER_CHANGE
G92 E0
;0.4


G1 E-5 F3600
G1 Z.4 F9000
;AFTER_LAYER_CHANGE
;0.4
G1 X87.529 Y91.427
G1 E5 F2400
;TYPE:Skirt/Brim
;WIDTH:0.42
G1 F1200
G1 X93.418 Y85.928 E.44774
G1 X94.813 Y84.9 E.09631
G1 X95.671 Y84.337 E.05701
G1 X102.825 Y80.631 E.44774
G1 X105.424 Y79.707 E.15327
G1 X113.312 Y78.068 E.44774
G1 X116.064 Y77.88 E.15327
G1 X124.102 Y78.429 E.44774
G1 X125.113 Y78.604 E.05701
G1 X126.803 Y78.991 E.09632
G1 X134.395 Y81.689 E.44774
G1 X136.843 Y82.958 E.15327
G1 X143.426 Y87.604 E.44774
G1 X145.256 Y89.284 E.13807
G1 X150.526 Y95.736 E.46296
G1 X151.089 Y96.594 E.05701
G1 X151.959 Y98.093 E.09632
G1 X155.169 Y105.483 E.44774
G1 X155.913 Y108.139 E.15327
G1 X157.01 Y116.121 E.44774
G1 X157.046 Y117.854 E.09632
G1 X157.01 Y118.879 E.05701
G1 X155.913 Y126.861 E.44774
G1 X155.169 Y129.517 E.15327
G1 X151.959 Y136.907 E.44774
G1 X151.066 Y138.443 E.09877
G1 X150.526 Y139.264 E.05455
G1 X145.442 Y145.513 E.44774
G1 X144.716 Y146.239 E.057
G1 X143.426 Y147.396 E.09632
G1 X136.843 Y152.042 E.44774
G1 X134.395 Y153.311 E.15327
G1 X126.803 Y156.009 E.44774
G1 X125.113 Y156.396 E.09632
G1 X124.102 Y156.571 E.05701
G1 X115.79 Y157.123 E.46296
G1 X113.312 Y156.932 E.13807
G1 X105.424 Y155.293 E.44774
G1 X102.825 Y154.369 E.15327
G1 X95.671 Y150.663 E.44774
G1 X94.235 Y149.692 E.09632
G1 X93.418 Y149.072 E.05701
G1 X87.34 Y143.374 E.46296
G1 X85.789 Y141.433 E.13807
G1 X81.603 Y134.549 E.44774
G1 X80.504 Y132.019 E.15327
G1 X78.33 Y124.261 E.44774
G1 X78.154 Y123.236 E.05779
G1 X77.954 Y121.529 E.09553
G1 X77.954 Y113.471 E.44774
G1 X78.33 Y110.739 E.15327
G1 X80.504 Y102.981 E.44774
G1 X80.886 Y102.013 E.05779
G1 X81.603 Y100.451 E.09553
G1 X85.789 Y93.567 E.44774
G1 X87.492 Y91.474 E.14994
G1 E-3.5 F3600
;WIPE_START
G1 F7200
G1 X89.682 Y89.424 E-1.425
;WIPE_END
G1 E-.075 F3600
G1 X125.54 Y146.436 F9000
G1 E5 F2400
;TYPE:Perimeter
;WIDTH:0.42
G1 F1200
G1 X125.434 Y146.59 E.0104
G1 X125.429 Y146.891 E.0167
G1 X125.929 Y148.577 E.09774
G1 X126.017 Y149.143 E.03185
G1 X126.042 Y149.735 E.0329
G1 X125.963 Y151.012 E.07111
G1 X125.745 Y152.311 E.07318
G1 X125.498 Y153.262 E.05463
G1 X124.205 Y153.531 E.07339
G1 X123.599 Y152.756 E.05463
G1 X122.881 Y151.653 E.07318
G1 X122.3 Y150.512 E.07111
G1 X122.087 Y149.96 E.0329
G1 X121.943 Y149.405 E.03185
G1 X121.729 Y147.66 E.09774
G1 X121.605 Y147.386 E.0167
G1 X121.408 Y147.252 E.01323
G1 X121.183 Y147.222 E.01263
G1 X119.968 Y147.348 E.0679
G1 X118.904 Y147.421 E.05926
G1 X117.687 Y147.461 E.06769
G1 X117.501 Y147.503 E.01058
G1 X117.288 Y147.681 E.01545
G1 X117.202 Y147.969 E.0167
G1 X117.228 Y149.728 E.09774
G1 X117.16 Y150.297 E.03184
G1 X117.024 Y150.873 E.0329
G1 X116.604 Y152.082 E.07111
G1 X116.043 Y153.273 E.07318
G1 X115.549 Y154.123 E.05463
G1 X114.231 Y154.033 E.07339
G1 X113.857 Y153.124 E.05463
G1 X113.463 Y151.867 E.07318
G1 X113.212 Y150.612 E.07111
G1 X113.156 Y150.023 E.0329
G1 X113.166 Y149.45 E.03185
G1 X113.431 Y147.711 E.09774
G1 X113.385 Y147.414 E.0167
G1 X113.233 Y147.232 E.01323
G1 X113.024 Y147.142 E.01263
G1 X111.819 Y146.936 E.0679
G1 X110.775 Y146.719 E.05926
G1 X109.592 Y146.429 E.06769
G1 X109.402 Y146.42 E.01058
G1 X109.149 Y146.534 E.01545
G1 X108.988 Y146.788 E.0167
G1 X108.539 Y148.489 E.09773
G1 X108.32 Y149.018 E.03185
G1 X108.034 Y149.536 E.0329
G1 X107.303 Y150.587 E.07111
G1 X106.442 Y151.583 E.07318
G1 X105.736 Y152.268 E.05463
G1 X104.492 Y151.825 E.07339
G1 X104.377 Y150.849 E.05463
G1 X104.337 Y149.533 E.07318
G1 X104.433 Y148.257 E.07111
G1 X104.538 Y147.674 E.0329
G1 X104.702 Y147.125 E.03185
G1 X105.427 Y145.523 E.09773
G1 X105.463 Y145.224 E.0167
G1 X105.365 Y145.007 E.01323
G1 X105.188 Y144.865 E.01263
G1 X104.084 Y144.341 E.0679
G1 X103.137 Y143.851 E.05926
G1 X102.076 Y143.252 E.06769
G1 X101.896 Y143.192 E.01058
G1 X101.621 Y143.233 E.01545
G1 X101.398 Y143.435 E.0167
G1 X100.507 Y144.951 E.09773
G1 X100.153 Y145.402 E.03185
G1 X99.738 Y145.824 E.0329
G1 X98.751 Y146.638 E.07111
G1 X97.652 Y147.365 E.07318
G1 X96.788 Y147.834 E.05463
G1 X95.709 Y147.072 E.07339
G1 X95.862 Y146.101 E.05463
G1 X96.179 Y144.823 E.07318
G1 X96.616 Y143.62 E.07111
G1 X96.874 Y143.087 E.0329
G1 X97.18 Y142.603 E.03185
G1 X98.31 Y141.255 E.09774
G1 X98.426 Y140.978 E.0167
G1 X98.39 Y140.742 E.01323
G1 X98.258 Y140.557 E.01263
G1 X97.336 Y139.756 E.0679
G1 X96.557 Y139.028 E.05926
G1 X95.697 Y138.165 E.06769
G1 X95.539 Y138.058 E.01058
G1 X95.263 Y138.024 E.01545
G1 X94.994 Y138.158 E.0167
G1 X93.727 Y139.377 E.09773
G1 X93.264 Y139.716 E.03185
G1 X92.751 Y140.01 E.0329
G1 X91.58 Y140.528 E.07111
G1 X90.327 Y140.931 E.07318
G1 X89.368 Y141.15 E.05463
G1 X88.535 Y140.125 E.07339
G1 X88.944 Y139.232 E.05463
G1 X89.594 Y138.086 E.07318
G1 X90.339 Y137.046 E.07111
G1 X90.731 Y136.603 E.0329
G1 X91.157 Y136.219 E.03185
G1 X92.609 Y135.226 E.09773
G1 X92.795 Y134.99 E.0167
G1 X92.824 Y134.754 E.01323
G1 X92.747 Y134.54 E.01263
G1 X92.075 Y133.519 E.0679
G1 X91.521 Y132.608 E.05925
G1 X90.926 Y131.546 E.0677
G1 X90.803 Y131.4 E.01058
G1 X90.546 Y131.293 E.01545
G1 X90.251 Y131.349 E.0167
G1 X88.702 Y132.181 E.09774
G1 X88.165 Y132.383 E.03184
G1 X87.591 Y132.527 E.0329
G1 X86.325 Y132.711 E.07111
G1 X85.009 Y132.761 E.07318
G1 X84.027 Y132.712 E.05463
G1 X83.501 Y131.501 E.07339
G1 X84.136 Y130.751 E.05463
G1 X85.07 Y129.823 E.07318
G1 X86.069 Y129.022 E.07111
G1 X86.566 Y128.701 E.0329
G1 X87.08 Y128.447 E.03185
G1 X88.745 Y127.883 E.09773
G1 X88.988 Y127.705 E.0167
G1 X89.08 Y127.486 E.01323
G1 X89.063 Y127.259 E.01263
G1 X88.692 Y126.095 E.0679
G1 X88.404 Y125.068 E.05926
G1 X88.118 Y123.884 E.06769
G1 X88.038 Y123.711 E.01058
G1 X87.82 Y123.538 E.01545
G1 X87.521 Y123.513 E.0167
G1 X85.805 Y123.897 E.09773
G1 X85.234 Y123.946 E.03185
G1 X84.642 Y123.93 E.0329
G1 X83.373 Y123.765 E.07111
G1 X82.092 Y123.458 E.07318
G1 X81.16 Y123.147 E.05463
G1 X80.98 Y121.838 E.07339
G1 X81.794 Y121.287 E.05463
G1 X82.944 Y120.646 E.07318
G1 X84.122 Y120.144 E.07111
G1 X84.687 Y119.969 E.0329
G1 X85.25 Y119.863 E.03185
G1 X87.006 Y119.769 E.09773
G1 X87.288 Y119.664 E.0167
G1 X87.436 Y119.477 E.01323
G1 X87.481 Y119.256 E.01252
G1 X87.437 Y118.033 E.06801
G1 X87.437 Y116.967 E.05925
G1 X87.474 Y115.65 E.0732
G1 X87.365 Y115.411 E.01463
G1 X87.166 Y115.266 E.01367
G1 X87.006 Y115.231 E.00906
G1 X85.25 Y115.137 E.09773
G1 X84.687 Y115.031 E.03185
G1 X84.122 Y114.856 E.0329
G1 X82.944 Y114.354 E.07111
G1 X81.794 Y113.713 E.07318
G1 X80.98 Y113.162 E.05463
G1 X81.16 Y111.853 E.07339
G1 X82.092 Y111.542 E.05463
G1 X83.373 Y111.235 E.07318
G1 X84.642 Y111.07 E.07111
G1 X85.234 Y111.054 E.0329
G1 X85.805 Y111.103 E.03185
G1 X87.521 Y111.487 E.09773
G1 X87.606 Y111.498 E.00474
G1 X87.82 Y111.462 E.01211
G1 X88.013 Y111.322 E.01323
G1 X88.117 Y111.119 E.01263
G1 X88.404 Y109.932 E.06789
G1 X88.692 Y108.905 E.05926
G1 X89.083 Y107.647 E.0732
G1 X89.042 Y107.387 E.01463
G1 X88.889 Y107.194 E.01367
G1 X88.745 Y107.117 E.00906
G1 X87.08 Y106.553 E.09773
G1 X86.566 Y106.299 E.03185
G1 X86.069 Y105.978 E.0329
G1 X85.07 Y105.177 E.07111
G1 X84.136 Y104.249 E.07318
G1 X83.501 Y103.499 E.05463
G1 X84.027 Y102.288 E.07339
G1 X85.009 Y102.239 E.05463
G1 X86.325 Y102.289 E.07318
G1 X87.591 Y102.473 E.07111
G1 X88.165 Y102.617 E.0329
G1 X88.702 Y102.819 E.03184
G1 X90.329 Y103.685 E.10246
G1 X90.546 Y103.707 E.01211
G1 X90.769 Y103.624 E.01323
G1 X90.924 Y103.458 E.01263
G1 X91.521 Y102.392 E.0679
G1 X92.065 Y101.498 E.05815
G1 X92.791 Y100.374 E.07435
G1 X92.821 Y100.112 E.01467
G1 X92.726 Y99.886 E.01363
G1 X92.609 Y99.774 E.00901
G1 X91.157 Y98.781 E.09773
G1 X90.731 Y98.397 E.03185
G1 X90.339 Y97.954 E.0329
G1 X89.594 Y96.914 E.07111
G1 X88.944 Y95.768 E.07318
G1 X88.535 Y94.875 E.05463
G1 X89.368 Y93.85 E.07339
G1 X90.327 Y94.069 E.05463
G1 X91.581 Y94.472 E.07318
G1 X92.751 Y94.99 E.07111
G1 X93.264 Y95.284 E.0329
G1 X93.727 Y95.623 E.03185
G1 X95.06 Y96.896 E.10246
G1 X95.262 Y96.976 E.01203
G1 X95.499 Y96.957 E.01323
G1 X95.694 Y96.837 E.01269
G1 X96.557 Y95.972 E.06791
G1 X97.321 Y95.258 E.05815
G1 X98.324 Y94.372 E.07435
G1 X98.424 Y94.127 E.01467
G1 X98.393 Y93.884 E.01363
G1 X98.31 Y93.745 E.00901
G1 X97.18 Y92.397 E.09773
G1 X96.874 Y91.913 E.03185
G1 X96.616 Y91.38 E.0329
G1 X96.179 Y90.177 E.07111
G1 X95.862 Y88.899 E.07318
G1 X95.709 Y87.928 E.05463
G1 X96.788 Y87.166 E.07339
G1 X97.652 Y87.635 E.05463
G1 X98.751 Y88.362 E.07318
G1 X99.738 Y89.176 E.07111
G1 X100.153 Y89.598 E.0329
G1 X100.507 Y90.049 E.03185
G1 X101.398 Y91.565 E.09773
G1 X101.447 Y91.635 E.00474
G1 X101.62 Y91.766 E.01203
G1 X101.853 Y91.812 E.01323
G1 X102.073 Y91.75 E.01269
G1 X103.137 Y91.149 E.06792
G1 X104.067 Y90.668 E.05815
G1 X105.271 Y90.085 E.07435
G1 X105.433 Y89.877 E.01467
G1 X105.469 Y89.634 E.01363
G1 X105.427 Y89.477 E.00901
G1 X104.702 Y87.875 E.09773
G1 X104.538 Y87.326 E.03185
G1 X104.433 Y86.743 E.0329
G1 X104.337 Y85.467 E.07111
G1 X104.377 Y84.151 E.07318
G1 X104.492 Y83.175 E.05463
G1 X105.736 Y82.732 E.07339
G1 X106.442 Y83.417 E.05463
G1 X107.303 Y84.413 E.07318
G1 X108.034 Y85.464 E.07111
G1 X108.32 Y85.982 E.0329
G1 X108.539 Y86.511 E.03185
G1 X109.017 Y88.292 E.10246
G1 X109.147 Y88.465 E.01203
G1 X109.36 Y88.572 E.01323
G1 X109.588 Y88.572 E.01269
G1 X110.775 Y88.281 E.06791
G1 X111.8 Y88.068 E.05816
G1 X113.117 Y87.832 E.07435
G1 X113.329 Y87.675 E.01467
G1 X113.429 Y87.451 E.01363
G1 X113.431 Y87.289 E.00901
G1 X113.166 Y85.55 E.09773
G1 X113.156 Y84.977 E.03185
G1 X113.212 Y84.388 E.0329
G1 X113.463 Y83.133 E.07111
G1 X113.857 Y81.876 E.07318
G1 X114.231 Y80.967 E.05463
G1 X115.549 Y80.877 E.07339
G1 X116.043 Y81.727 E.05463
G1 X116.604 Y82.918 E.07318
G1 X117.024 Y84.127 E.07111
G1 X117.16 Y84.703 E.0329
G1 X117.228 Y85.272 E.03184
G1 X117.208 Y87.116 E.10246
G1 X117.287 Y87.317 E.01203
G1 X117.463 Y87.478 E.01323
G1 X117.683 Y87.539 E.01269
G1 X118.904 Y87.579 E.06791
G1 X119.968 Y87.652 E.05926
G1 X121.279 Y87.778 E.0732
G1 X121.525 Y87.686 E.01463
G1 X121.683 Y87.497 E.01367
G1 X121.729 Y87.34 E.00906
G1 X121.943 Y85.595 E.09774
G1 X122.087 Y85.04 E.03185
G1 X122.3 Y84.488 E.0329
G1 X122.881 Y83.347 E.07111
G1 X123.599 Y82.244 E.07318
G1 X124.205 Y81.469 E.05463
G1 X125.498 Y81.738 E.07339
G1 X125.745 Y82.689 E.05463
G1 X125.963 Y83.988 E.07318
G1 X126.042 Y85.265 E.07111
G1 X126.017 Y85.857 E.0329
G1 X125.929 Y86.423 E.03185
G1 X125.429 Y88.109 E.09774
G1 X125.412 Y88.193 E.00474
G1 X125.434 Y88.41 E.01211
G1 X125.561 Y88.611 E.01323
G1 X125.756 Y88.729 E.01263
G1 X126.921 Y89.097 E.0679
G1 X127.925 Y89.454 E.05925
G1 X129.154 Y89.929 E.0732
G1 X129.416 Y89.906 E.01463
G1 X129.619 Y89.767 E.01367
G1 X129.705 Y89.629 E.00906
G1 X130.382 Y88.006 E.09773
G1 X130.671 Y87.511 E.03184
G1 X131.025 Y87.036 E.0329
G1 X131.892 Y86.095 E.07111
G1 X132.881 Y85.226 E.07318
G1 X133.673 Y84.643 E.05463
G1 X134.846 Y85.251 E.07339
G1 X134.827 Y86.234 E.05463
G1 X134.687 Y87.543 E.07318
G1 X134.418 Y88.794 E.07111
G1 X134.235 Y89.357 E.0329
G1 X133.997 Y89.879 E.03184
G1 X133.022 Y91.444 E.10246
G1 X132.984 Y91.658 E.01211
G1 X133.052 Y91.887 E.01323
G1 X133.206 Y92.051 E.01252
G1 X134.23 Y92.721 E.06801
G1 X135.102 Y93.336 E.05926
G1 X136.156 Y94.125 E.0732
G1 X136.415 Y94.174 E.01463
G1 X136.648 Y94.094 E.01367
G1 X136.768 Y93.985 E.00906
G1 X137.858 Y92.604 E.09773
G1 X138.269 Y92.205 E.03185
G1 X138.738 Y91.844 E.0329
G1 X139.827 Y91.172 E.07111
G1 X141.014 Y90.601 E.07318
G1 X141.937 Y90.253 E.05482
G1 X142.901 Y91.149 E.07313
G1 X142.616 Y92.097 E.05502
G1 X142.128 Y93.32 E.07318
G1 X141.531 Y94.452 E.07111
G1 X141.203 Y94.945 E.0329
G1 X140.833 Y95.383 E.03185
G1 X139.53 Y96.564 E.09774
G1 X139.472 Y96.627 E.00474
G1 X139.378 Y96.823 E.01211
G1 X139.382 Y97.061 E.01323
G1 X139.487 Y97.263 E.01263
G1 X140.291 Y98.182 E.0679
G1 X140.964 Y99.01 E.05926
G1 X141.767 Y100.054 E.0732
G1 X142.003 Y100.171 E.01463
G1 X142.248 Y100.157 E.01367
G1 X142.394 Y100.084 E.00906
G1 X143.815 Y99.049 E.09774
G1 X144.32 Y98.776 E.03184
G1 X144.869 Y98.555 E.0329
G1 X146.098 Y98.201 E.07111
G1 X147.395 Y97.972 E.07318
G1 X148.375 Y97.886 E.05463
G1 X149.061 Y99.015 E.07339
G1 X148.534 Y99.844 E.05463
G1 X147.734 Y100.891 E.07318
G1 X146.854 Y101.82 E.07111
G1 X146.405 Y102.206 E.0329
G1 X145.931 Y102.528 E.03185
G1 X144.358 Y103.313 E.09773
G1 X144.285 Y103.358 E.00474
G1 X144.141 Y103.522 E.01211
G1 X144.08 Y103.752 E.01323
G1 X144.128 Y103.974 E.01263
G1 X144.654 Y105.077 E.0679
G1 X145.079 Y106.055 E.05926
G1 X145.569 Y107.278 E.0732
G1 X145.765 Y107.454 E.01463
G1 X146.006 Y107.507 E.01367
G1 X146.166 Y107.476 E.00906
G1 X147.814 Y106.862 E.09774
G1 X148.373 Y106.735 E.03184
G1 X148.961 Y106.671 E.0329
G1 X150.241 Y106.661 E.07111
G1 X151.551 Y106.791 E.07318
G1 X152.517 Y106.973 E.05463
G1 X152.874 Y108.244 E.07339
G1 X152.142 Y108.901 E.05463
G1 X151.09 Y109.693 E.07318
G1 X149.992 Y110.35 E.07111
G1 X149.456 Y110.6 E.0329
G1 X148.912 Y110.783 E.03185
G1 X147.103 Y111.138 E.10246
G1 X146.921 Y111.257 E.01211
G1 X146.8 Y111.462 E.01323
G1 X146.785 Y111.689 E.01263
G1 X146.995 Y112.893 E.06789
G1 X147.137 Y113.93 E.05816
G1 X147.261 Y115.148 E.06803
G1 X147.318 Y115.345 E.0114
G1 X147.511 Y115.545 E.01546
G1 X147.803 Y115.61 E.01662
G1 X149.556 Y115.464 E.09773
G1 X150.128 Y115.493 E.03184
G1 X150.712 Y115.589 E.0329
G1 X151.947 Y115.926 E.07111
G1 X153.174 Y116.404 E.07318
G1 X154.058 Y116.841 E.05482
G1 X154.061 Y118.157 E.07313
G1 X153.174 Y118.596 E.05502
G1 X151.947 Y119.074 E.07318
G1 X150.712 Y119.411 E.07111
G1 X150.128 Y119.507 E.0329
G1 X149.556 Y119.536 E.03185
G1 X147.803 Y119.39 E.09773
G1 X147.511 Y119.455 E.01662
G1 X147.339 Y119.619 E.01323
G1 X147.263 Y119.835 E.01269
G1 X147.14 Y121.051 E.06791
G1 X146.995 Y122.107 E.05926
G1 X146.786 Y123.307 E.06769
G1 X146.79 Y123.497 E.01058
G1 X146.921 Y123.743 E.01545
G1 X147.185 Y123.885 E.0167
G1 X148.912 Y124.217 E.09773
G1 X149.456 Y124.4 E.03185
G1 X149.992 Y124.65 E.0329
G1 X151.09 Y125.307 E.07111
G1 X152.142 Y126.099 E.07318
G1 X152.874 Y126.756 E.05463
G1 X152.517 Y128.027 E.07339
G1 X151.551 Y128.209 E.05463
G1 X150.241 Y128.339 E.07318
G1 X148.961 Y128.329 E.07111
G1 X148.373 Y128.265 E.0329
G1 X147.814 Y128.138 E.03184
G1 X146.166 Y127.524 E.09774
G1 X145.865 Y127.509 E.0167
G1 X145.656 Y127.621 E.01323
G1 X145.526 Y127.806 E.01252
G1 X145.079 Y128.945 E.06801
G1 X144.654 Y129.923 E.05926
G1 X144.129 Y131.022 E.06769
G1 X144.081 Y131.206 E.01058
G1 X144.141 Y131.478 E.01545
G1 X144.358 Y131.687 E.0167
G1 X145.931 Y132.472 E.09773
G1 X146.405 Y132.794 E.03184
G1 X146.854 Y133.18 E.0329
G1 X147.734 Y134.109 E.07111
G1 X148.534 Y135.156 E.07318
G1 X149.061 Y135.985 E.05463
G1 X148.375 Y137.114 E.07339
G1 X147.395 Y137.028 E.05463
G1 X146.098 Y136.799 E.07318
G1 X144.869 Y136.445 E.07111
G1 X144.32 Y136.224 E.0329
G1 X143.815 Y135.951 E.03185
G1 X142.394 Y134.916 E.09773
G1 X142.109 Y134.82 E.0167
G1 X141.877 Y134.872 E.01323
G1 X141.701 Y135.016 E.01263
G1 X140.964 Y135.99 E.06789
G1 X140.304 Y136.802 E.05816
G1 X139.499 Y137.724 E.06802
