; generated by PrusaSlicer 2.5.0+win64 on 2023-02-08 at 01:03:36 UTC


;
;

;
;
; 

; external perimeters extrusion width = 0.45mm
; perimeters extrusion width = 0.45mm
; infill extrusion width = 0.45mm
; solid infill extrusion width = 0.45mm
; top infill extrusion width = 0.40mm
; support material extrusion width = 0.38mm
; first layer extrusion width = 0.42mm

M107
;TYPE:Custom
G90 ; use absolute coordinates
M83 ; extruder relative mode
M104 S120 ; set temporary nozzle temp to prevent oozing during homing and auto bed leveling
M140 S50 ; set final bed temp
G4 S10 ; allow partial nozzle warmup
G28 ; home all axis
G1 Z50 F240
G1 X2 Y10 F3000
M104 S210 ; set final nozzle temp
M190 S50 ; wait for bed temp to stabilize
M109 S210 ; wait for nozzle temp to stabilize
G1 Z0.28 F240
G92 E0
G1 Y140 E10 F1500 ; prime the nozzle
G1 X2.3 F5000
G92 E0
G1 Y10 E10 F1200 ; prime the nozzle
G92 E0
G21 ; set units to millimeters
G90 ; use absolute coordinates
M83 ; use relative distances for extrusion
; Filament gcode
M107
;LAYER_CHANGE
;Z:0.4
;HEIGHT:0.4
;BEFORE_LAYER_CHANGE
G92 E0
;0.4


G1 E-5 F3600
G1 Z.4 F9000
;AFTER_LAYER_CHANGE
;0.4
G1 X89.558 Y89.487
G1 E5 F2400
;TYPE:Skirt/Brim
;WIDTH:0.42
G1 F1200
G1 X90.294 Y88.751 E.05779
G1 X91.574 Y87.604 E.09553
G1 X98.157 Y82.958 E.44774
G1 X100.605 Y81.689 E.15327
G1 X108.197 Y78.991 E.44774
G1 X109.93 Y78.595 E.09877
G1 X110.898 Y78.429 E.05455
G1 X118.936 Y77.88 E.44774
G1 X119.917 Y77.912 E.05455
G1 X121.688 Y78.068 E.09877
G1 X129.576 Y79.707 E.44774
G1 X132.175 Y80.631 E.15327
G1 X139.329 Y84.337 E.44774
G1 X140.765 Y85.308 E.09632
G1 X141.582 Y85.928 E.05701
G1 X147.66 Y91.626 E.46296
G1 X149.211 Y93.567 E.13807
G1 X153.397 Y100.451 E.44774
G1 X154.496 Y102.981 E.15327
G1 X156.67 Y110.739 E.44774
G1 X156.846 Y111.764 E.05779
G1 X157.046 Y113.471 E.09554
G1 X157.046 Y121.529 E.44774
G1 X156.67 Y124.261 E.15327
G1 X154.496 Y132.019 E.44774
G1 X153.838 Y133.623 E.09631
G1 X153.397 Y134.549 E.05701
G1 X149.211 Y141.433 E.44774
G1 X147.471 Y143.573 E.15327
G1 X141.582 Y149.072 E.44774
G1 X140.765 Y149.692 E.05701
G1 X139.329 Y150.663 E.09631
G1 X132.175 Y154.369 E.44774
G1 X129.576 Y155.293 E.15327
G1 X121.688 Y156.932 E.44774
G1 X118.936 Y157.12 E.15327
G1 X110.898 Y156.571 E.44774
G1 X109.873 Y156.394 E.05779
G1 X108.197 Y156.009 E.09553
G1 X100.605 Y153.311 E.44774
G1 X98.157 Y152.042 E.15327
G1 X91.574 Y147.396 E.44774
G1 X89.744 Y145.716 E.13807
G1 X84.474 Y139.264 E.46296
G1 X83.911 Y138.406 E.05701
G1 X83.041 Y136.907 E.09632
G1 X79.831 Y129.517 E.44774
G1 X79.087 Y126.861 E.15327
G1 X77.99 Y118.879 E.44774
G1 X77.955 Y117.102 E.09877
G1 X77.99 Y116.121 E.05455
G1 X79.087 Y108.139 E.44774
G1 X79.318 Y107.185 E.05455
G1 X79.831 Y105.483 E.09877
G1 X83.041 Y98.093 E.44774
G1 X84.474 Y95.736 E.15327
G1 X89.521 Y89.533 E.4444
G1 E-3.5 F3600
;WIPE_START
G1 F7200
G1 X90.294 Y88.751 E-.52232
G1 X91.574 Y87.604 E-.81659
G1 X91.722 Y87.499 E-.08609
;WIPE_END
G1 E-.075 F3600
G1 X142.19 Y134.802 F9000
G1 E5 F2400
;TYPE:Perimeter
;WIDTH:0.42
G1 F1200
G1 X142.205 Y134.988 E.01037
G1 X142.391 Y135.226 E.0168
G1 X143.843 Y136.219 E.09773
G1 X144.269 Y136.603 E.03185
G1 X144.667 Y137.053 E.03345
G1 X145.048 Y137.552 E.03483
G1 X145.401 Y138.078 E.03523
G1 X146.056 Y139.232 E.07372
G1 X146.465 Y140.125 E.05463
G1 X145.632 Y141.15 E.07339
G1 X144.673 Y140.931 E.05463
G1 X143.41 Y140.525 E.07372
G1 X142.823 Y140.286 E.03523
G1 X142.258 Y140.015 E.03483
G1 X141.736 Y139.716 E.03345
G1 X141.273 Y139.377 E.03185
G1 X140.006 Y138.158 E.09773
G1 X139.735 Y138.024 E.0168
G1 X139.498 Y138.044 E.01322
G1 X139.307 Y138.162 E.01243
G1 X138.443 Y139.028 E.06799
G1 X137.679 Y139.742 E.05815
G1 X136.745 Y140.555 E.06881
G1 X136.628 Y140.703 E.01047
G1 X136.574 Y140.976 E.01544
G1 X136.69 Y141.255 E.0168
G1 X137.82 Y142.603 E.09773
G1 X138.126 Y143.087 E.03185
G1 X138.389 Y143.629 E.03345
G1 X138.621 Y144.211 E.03483
G1 X138.819 Y144.813 E.03523
G1 X139.138 Y146.101 E.07372
G1 X139.291 Y147.072 E.05463
G1 X138.212 Y147.834 E.07339
G1 X137.348 Y147.365 E.05463
G1 X136.241 Y146.633 E.07372
G1 X135.74 Y146.244 E.03523
G1 X135.269 Y145.831 E.03483
G1 X134.847 Y145.402 E.03345
G1 X134.493 Y144.951 E.03185
G1 X133.602 Y143.435 E.09773
G1 X133.377 Y143.233 E.0168
G1 X133.143 Y143.188 E.01322
G1 X132.924 Y143.252 E.01272
G1 X131.863 Y143.851 E.0677
G1 X130.933 Y144.332 E.05815
G1 X129.815 Y144.863 E.06881
G1 X129.663 Y144.974 E.01047
G1 X129.537 Y145.222 E.01544
G1 X129.573 Y145.523 E.0168
G1 X130.298 Y147.125 E.09773
G1 X130.462 Y147.674 E.03185
G1 X130.569 Y148.266 E.03344
G1 X130.635 Y148.89 E.03484
G1 X130.663 Y149.523 E.03523
G1 X130.623 Y150.849 E.07372
G1 X130.508 Y151.825 E.05463
G1 X129.264 Y152.268 E.07339
G1 X128.558 Y151.583 E.05463
G1 X127.69 Y150.58 E.07372
G1 X127.313 Y150.07 E.03523
G1 X126.971 Y149.545 E.03483
G1 X126.68 Y149.018 E.03345
G1 X126.461 Y148.489 E.03184
G1 X126.012 Y146.788 E.09773
G1 X125.85 Y146.533 E.01681
G1 X125.637 Y146.427 E.01322
G1 X125.408 Y146.429 E.01272
G1 X124.225 Y146.719 E.06769
G1 X123.2 Y146.932 E.05816
G1 X121.98 Y147.142 E.06881
G1 X121.803 Y147.208 E.01046
G1 X121.615 Y147.413 E.01544
G1 X121.569 Y147.711 E.01681
G1 X121.834 Y149.45 E.09773
G1 X121.844 Y150.023 E.03185
G1 X121.787 Y150.622 E.03344
G1 X121.683 Y151.24 E.03483
G1 X121.54 Y151.858 E.03523
G1 X121.143 Y153.124 E.07372
G1 X120.769 Y154.033 E.05463
G1 X119.451 Y154.123 E.07339
G1 X118.957 Y153.273 E.05463
G1 X118.392 Y152.073 E.07372
G1 X118.166 Y151.481 E.03523
G1 X117.978 Y150.883 E.03483
G1 X117.84 Y150.297 E.03345
G1 X117.772 Y149.728 E.03184
G1 X117.798 Y147.969 E.09773
G1 X117.711 Y147.68 E.01681
G1 X117.535 Y147.52 E.01322
G1 X117.315 Y147.461 E.01262
G1 X116.096 Y147.421 E.0678
G1 X115.032 Y147.348 E.05926
G1 X114.045 Y147.245 E.05514
G1 X113.633 Y147.238 E.02293
G1 X113.397 Y147.384 E.01544
G1 X113.271 Y147.66 E.01681
G1 X113.057 Y149.405 E.09774
G1 X112.913 Y149.96 E.03185
G1 X112.696 Y150.521 E.03345
G1 X112.429 Y151.088 E.03483
G1 X112.124 Y151.644 E.03523
G1 X111.401 Y152.756 E.07372
G1 X110.795 Y153.531 E.05463
G1 X109.502 Y153.262 E.07339
G1 X109.255 Y152.311 E.05463
G1 X109.035 Y151.002 E.07372
G1 X108.977 Y150.371 E.03523
G1 X108.958 Y149.745 E.03483
G1 X108.983 Y149.143 E.03344
G1 X109.071 Y148.577 E.03185
G1 X109.571 Y146.891 E.09774
G1 X109.565 Y146.588 E.01681
G1 X109.438 Y146.387 E.01322
G1 X109.241 Y146.27 E.01272
G1 X108.079 Y145.903 E.0677
G1 X107.075 Y145.546 E.05925
G1 X105.942 Y145.098 E.0677
G1 X105.757 Y145.063 E.01047
G1 X105.49 Y145.14 E.01544
G1 X105.295 Y145.371 E.01681
G1 X104.618 Y146.994 E.09773
G1 X104.329 Y147.489 E.03185
G1 X103.969 Y147.972 E.03345
G1 X103.559 Y148.445 E.03483
G1 X103.116 Y148.899 E.03523
G1 X102.119 Y149.774 E.07372
G1 X101.327 Y150.357 E.05463
G1 X100.154 Y149.749 E.07339
G1 X100.173 Y148.766 E.05463
G1 X100.314 Y147.447 E.07372
G1 X100.429 Y146.824 E.03523
G1 X100.579 Y146.215 E.03483
G1 X100.765 Y145.643 E.03345
G1 X101.003 Y145.121 E.03184
G1 X101.939 Y143.632 E.09773
G1 X102.015 Y143.34 E.01681
G1 X101.947 Y143.112 E.01322
G1 X101.789 Y142.946 E.01271
G1 X100.77 Y142.279 E.0677
G1 X99.898 Y141.664 E.05926
G1 X98.929 Y140.927 E.0677
G1 X98.76 Y140.843 E.01047
G1 X98.482 Y140.846 E.01544
G1 X98.232 Y141.015 E.01681
G1 X97.142 Y142.396 E.09774
G1 X96.731 Y142.795 E.03185
G1 X96.254 Y143.162 E.03344
G1 X95.731 Y143.507 E.03484
G1 X95.182 Y143.824 E.03523
G1 X93.986 Y144.399 E.07372
G1 X93.063 Y144.747 E.05482
G1 X92.099 Y143.851 E.07313
G1 X92.384 Y142.903 E.05502
G1 X92.876 Y141.671 E.07372
G1 X93.154 Y141.101 E.03523
G1 X93.463 Y140.556 E.03483
G1 X93.797 Y140.055 E.03345
G1 X94.167 Y139.617 E.03185
G1 X95.47 Y138.436 E.09773
G1 X95.622 Y138.175 E.01681
G1 X95.618 Y137.937 E.01322
G1 X95.511 Y137.734 E.01272
G1 X94.709 Y136.818 E.06769
G1 X94.036 Y135.99 E.05926
G1 X93.301 Y135.019 E.06769
G1 X93.161 Y134.892 E.01048
G1 X92.893 Y134.82 E.01544
G1 X92.606 Y134.916 E.01681
G1 X91.184 Y135.951 E.09774
G1 X90.68 Y136.224 E.03185
G1 X90.122 Y136.449 E.03345
G1 X89.525 Y136.641 E.03483
G1 X88.911 Y136.797 E.03523
G1 X87.605 Y137.028 E.07372
G1 X86.625 Y137.114 E.05463
G1 X85.939 Y135.985 E.07339
G1 X86.466 Y135.156 E.05463
G1 X87.272 Y134.102 E.07372
G1 X87.694 Y133.628 E.03523
G1 X88.138 Y133.187 E.03483
G1 X88.595 Y132.794 E.03345
G1 X89.069 Y132.472 E.03184
G1 X90.642 Y131.687 E.09774
G1 X90.86 Y131.476 E.01681
G1 X90.92 Y131.246 E.01322
G1 X90.871 Y131.022 E.01272
G1 X90.346 Y129.923 E.0677
G1 X89.921 Y128.945 E.05926
G1 X89.539 Y127.971 E.05812
G1 X89.375 Y127.652 E.01997
G1 X89.136 Y127.509 E.01544
G1 X88.834 Y127.524 E.0168
G1 X87.186 Y128.138 E.09774
G1 X86.627 Y128.265 E.03184
G1 X86.029 Y128.331 E.03345
G1 X85.403 Y128.354 E.03483
G1 X84.769 Y128.34 E.03523
G1 X83.449 Y128.209 E.07372
G1 X82.483 Y128.027 E.05463
G1 X82.126 Y126.756 E.07339
G1 X82.858 Y126.099 E.05463
G1 X83.918 Y125.301 E.07372
G1 X84.452 Y124.959 E.03523
G1 X84.999 Y124.654 E.03484
G1 X85.544 Y124.4 E.03345
G1 X86.088 Y124.217 E.03185
G1 X87.815 Y123.885 E.09773
G1 X88.081 Y123.741 E.0168
G1 X88.201 Y123.536 E.01322
G1 X88.214 Y123.307 E.01272
G1 X88.005 Y122.107 E.06769
G1 X87.863 Y121.07 E.05816
G1 X87.721 Y119.755 E.07352
G1 X87.578 Y119.52 E.01528
G1 X87.361 Y119.403 E.01372
G1 X87.197 Y119.39 E.00913
G1 X85.444 Y119.536 E.09773
G1 X84.872 Y119.507 E.03184
G1 X84.278 Y119.409 E.03345
G1 X83.669 Y119.263 E.03483
G1 X83.062 Y119.078 E.03523
G1 X81.826 Y118.596 E.07372
G1 X80.942 Y118.159 E.05482
G1 X80.939 Y116.843 E.07313
G1 X81.826 Y116.404 E.05502
G1 X83.062 Y115.922 E.07372
G1 X83.669 Y115.737 E.03523
G1 X84.278 Y115.591 E.03483
G1 X84.872 Y115.493 E.03345
G1 X85.444 Y115.464 E.03185
G1 X87.282 Y115.61 E.10246
G1 X87.492 Y115.543 E.01222
G1 X87.663 Y115.378 E.01322
G1 X87.737 Y115.161 E.01272
G1 X87.86 Y113.949 E.06769
G1 X87.979 Y113.081 E.04872
G1 X88.221 Y111.608 E.08295
G1 X88.146 Y111.343 E.01528
G1 X87.969 Y111.172 E.01372
G1 X87.815 Y111.115 E.00913
G1 X86.088 Y110.783 E.09774
G1 X85.544 Y110.6 E.03184
G1 X84.999 Y110.346 E.03345
G1 X84.452 Y110.041 E.03483
G1 X83.918 Y109.699 E.03523
G1 X82.858 Y108.901 E.07372
G1 X82.126 Y108.244 E.05463
G1 X82.483 Y106.973 E.07339
G1 X83.449 Y106.791 E.05463
G1 X84.769 Y106.66 E.07372
G1 X85.403 Y106.646 E.03523
G1 X86.029 Y106.669 E.03483
G1 X86.627 Y106.735 E.03345
G1 X87.186 Y106.862 E.03184
G1 X88.834 Y107.476 E.09774
G1 X88.917 Y107.498 E.00474
G1 X89.136 Y107.491 E.01222
G1 X89.346 Y107.377 E.01322
G1 X89.476 Y107.189 E.01272
G1 X90.052 Y105.753 E.08596
G1 X90.901 Y103.898 E.11338
G1 X90.9 Y103.623 E.01528
G1 X90.775 Y103.41 E.01372
G1 X90.642 Y103.313 E.00913
G1 X89.069 Y102.528 E.09774
G1 X88.595 Y102.206 E.03184
G1 X88.138 Y101.813 E.03345
G1 X87.694 Y101.372 E.03483
G1 X87.272 Y100.898 E.03523
G1 X86.466 Y99.844 E.07372
G1 X85.939 Y99.015 E.05463
G1 X86.625 Y97.886 E.07339
G1 X87.605 Y97.972 E.05463
G1 X88.911 Y98.202 E.07372
G1 X89.525 Y98.359 E.03523
G1 X90.122 Y98.551 E.03483
G1 X90.68 Y98.776 E.03345
G1 X91.185 Y99.049 E.03185
G1 X92.679 Y100.128 E.10246
G1 X92.893 Y100.18 E.01222
G1 X93.125 Y100.128 E.01322
G1 X93.301 Y99.981 E.01272
G1 X94.036 Y99.01 E.06769
G1 X94.696 Y98.198 E.05816
G1 X95.561 Y97.197 E.07351
G1 X95.634 Y96.932 E.01528
G1 X95.572 Y96.693 E.01372
G1 X95.47 Y96.564 E.00913
G1 X94.167 Y95.383 E.09773
G1 X93.797 Y94.945 E.03185
G1 X93.463 Y94.444 E.03345
G1 X93.154 Y93.899 E.03483
G1 X92.876 Y93.329 E.03523
G1 X92.384 Y92.097 E.07372
G1 X92.099 Y91.149 E.05502
G1 X93.063 Y90.253 E.07313
G1 X93.986 Y90.601 E.05482
G1 X95.182 Y91.176 E.07372
G1 X95.731 Y91.493 E.03523
G1 X96.254 Y91.838 E.03483
G1 X96.731 Y92.205 E.03345
G1 X97.142 Y92.604 E.03184
G1 X98.29 Y94.047 E.10246
G1 X98.482 Y94.154 E.01223
G1 X98.72 Y94.166 E.01322
G1 X98.929 Y94.073 E.01272
G1 X99.898 Y93.336 E.0677
G1 X100.615 Y92.83 E.04871
G1 X101.856 Y92.001 E.08296
G1 X101.999 Y91.766 E.01528
G1 X102.003 Y91.519 E.01373
G1 X101.939 Y91.368 E.00913
G1 X101.003 Y89.879 E.09773
G1 X100.765 Y89.357 E.03184
G1 X100.579 Y88.785 E.03345
G1 X100.429 Y88.177 E.03483
G1 X100.314 Y87.553 E.03523
G1 X100.173 Y86.234 E.07372
G1 X100.154 Y85.251 E.05463
G1 X101.327 Y84.643 E.07339
G1 X102.119 Y85.226 E.05463
G1 X103.116 Y86.101 E.07372
G1 X103.559 Y86.555 E.03523
G1 X103.969 Y87.028 E.03483
G1 X104.329 Y87.511 E.03345
G1 X104.618 Y88.006 E.03184
G1 X105.295 Y89.629 E.09773
G1 X105.334 Y89.705 E.00474
G1 X105.49 Y89.86 E.01223
G1 X105.716 Y89.936 E.01322
G1 X105.942 Y89.902 E.01271
G1 X107.075 Y89.454 E.0677
G1 X108.061 Y89.103 E.05815
G1 X109.32 Y88.697 E.07352
G1 X109.52 Y88.509 E.01528
G1 X109.591 Y88.272 E.01372
G1 X109.571 Y88.109 E.00913
G1 X109.071 Y86.423 E.09773
G1 X108.983 Y85.857 E.03185
G1 X108.958 Y85.255 E.03344
G1 X108.977 Y84.629 E.03483
G1 X109.035 Y83.998 E.03523
G1 X109.255 Y82.689 E.07372
G1 X109.502 Y81.738 E.05463
G1 X110.795 Y81.469 E.07339
G1 X111.401 Y82.244 E.05463
G1 X112.124 Y83.356 E.07372
G1 X112.429 Y83.912 E.03523
G1 X112.696 Y84.479 E.03483
G1 X112.913 Y85.04 E.03345
G1 X113.057 Y85.595 E.03185
G1 X113.289 Y87.424 E.10246
G1 X113.397 Y87.616 E.01223
G1 X113.593 Y87.749 E.01322
G1 X113.821 Y87.778 E.01272
G1 X115.032 Y87.652 E.0677
G1 X116.096 Y87.579 E.05926
G1 X117.398 Y87.529 E.07241
G1 X117.642 Y87.402 E.01528
G1 X117.774 Y87.193 E.01372
G1 X117.798 Y87.031 E.00913
G1 X117.772 Y85.272 E.09774
G1 X117.84 Y84.703 E.03184
G1 X117.978 Y84.117 E.03345
G1 X118.166 Y83.519 E.03483
G1 X118.392 Y82.927 E.03523
G1 X118.957 Y81.727 E.07372
G1 X119.454 Y80.872 E.05497
G1 X120.769 Y80.966 E.07321
G1 X121.143 Y81.876 E.0547
G1 X121.54 Y83.142 E.07372
G1 X121.683 Y83.76 E.03523
G1 X121.787 Y84.378 E.03483
G1 X121.844 Y84.977 E.03344
G1 X121.834 Y85.55 E.03185
G1 X121.563 Y87.374 E.10246
G1 X121.615 Y87.587 E.01222
G1 X121.769 Y87.769 E.01322
G1 X121.979 Y87.858 E.01269
G1 X123.181 Y88.064 E.06772
G1 X124.039 Y88.242 E.04872
G1 X125.492 Y88.584 E.08295
G1 X125.761 Y88.527 E.01528
G1 X125.944 Y88.362 E.01372
G1 X126.012 Y88.212 E.00913
G1 X126.461 Y86.511 E.09773
G1 X126.68 Y85.982 E.03184
G1 X126.971 Y85.455 E.03345
G1 X127.313 Y84.93 E.03483
G1 X127.69 Y84.42 E.03523
G1 X128.558 Y83.417 E.07372
G1 X129.264 Y82.732 E.05463
G1 X130.508 Y83.175 E.07339
G1 X130.623 Y84.151 E.05463
G1 X130.663 Y85.477 E.07372
G1 X130.635 Y86.11 E.03523
G1 X130.569 Y86.734 E.03484
G1 X130.462 Y87.326 E.03344
G1 X130.298 Y87.875 E.03185
G1 X129.573 Y89.477 E.09773
G1 X129.544 Y89.558 E.00474
G1 X129.537 Y89.778 E.01222
G1 X129.636 Y89.994 E.01322
G1 X129.815 Y90.137 E.01272
G1 X130.916 Y90.659 E.0677
G1 X131.863 Y91.149 E.05926
G1 X133.001 Y91.783 E.07242
G1 X133.276 Y91.801 E.01528
G1 X133.497 Y91.691 E.01372
G1 X133.602 Y91.565 E.00913
G1 X134.493 Y90.049 E.09773
G1 X134.847 Y89.598 E.03185
G1 X135.269 Y89.169 E.03345
G1 X135.74 Y88.756 E.03483
G1 X136.241 Y88.367 E.03523
G1 X137.348 Y87.635 E.07372
G1 X138.212 Y87.166 E.05463
G1 X139.291 Y87.928 E.07339
G1 X139.138 Y88.899 E.05463
G1 X138.819 Y90.187 E.07372
G1 X138.621 Y90.789 E.03523
G1 X138.389 Y91.371 E.03483
G1 X138.126 Y91.913 E.03344
G1 X137.82 Y92.397 E.03185
G1 X136.64 Y93.814 E.10246
G1 X136.574 Y94.024 E.01222
G1 X136.611 Y94.259 E.01322
G1 X136.745 Y94.445 E.01272
G1 X137.971 Y95.531 E.091
G1 X139.369 Y96.89 E.10834
G1 X139.628 Y96.981 E.01528
G1 X139.871 Y96.935 E.01372
G1 X140.006 Y96.842 E.00913
G1 X141.273 Y95.623 E.09773
G1 X141.736 Y95.284 E.03185
G1 X142.258 Y94.985 E.03345
G1 X142.823 Y94.714 E.03483
G1 X143.41 Y94.475 E.03523
G1 X144.673 Y94.069 E.07372
G1 X145.632 Y93.85 E.05463
G1 X146.465 Y94.875 E.07339
G1 X146.056 Y95.768 E.05463
G1 X145.402 Y96.922 E.07372
G1 X145.048 Y97.448 E.03523
G1 X144.667 Y97.947 E.03483
G1 X144.269 Y98.397 E.03345
G1 X143.843 Y98.781 E.03185
G1 X142.391 Y99.774 E.09773
G1 X142.325 Y99.828 E.00474
G1 X142.205 Y100.012 E.01222
G1 X142.176 Y100.248 E.01322
G1 X142.255 Y100.463 E.01272
G1 X142.925 Y101.481 E.0677
G1 X143.56 Y102.538 E.06852
G1 X144.122 Y103.525 E.06314
G1 X144.347 Y103.683 E.01528
G1 X144.593 Y103.704 E.01372
G1 X144.749 Y103.651 E.00913
G1 X146.298 Y102.819 E.09773
G1 X146.835 Y102.617 E.03185
