; generated by PrusaSlicer 2.5.0+win64 on 2023-02-08 at 01:00:51 UTC


;
;

;
;
; 

; external perimeters extrusion width = 0.45mm
; perimeters extrusion width = 0.45mm
; infill extrusion width = 0.45mm
; solid infill extrusion width = 0.45mm
; top infill extrusion width = 0.40mm
; first layer extrusion width = 0.42mm

M107
;TYPE:Custom
G90 ; use absolute coordinates
M83 ; extruder relative mode
M104 S120 ; set temporary nozzle temp to prevent oozing during homing and auto bed leveling
M140 S50 ; set final bed temp
G4 S10 ; allow partial nozzle warmup
G28 ; home all axis
G1 Z50 F240
G1 X2 Y10 F3000
M104 S210 ; set final nozzle temp
M190 S50 ; wait for bed temp to stabilize
M109 S210 ; wait for nozzle temp to stabilize
G1 Z0.28 F240
G92 E0
G1 Y140 E10 F1500 ; prime the nozzle
G1 X2.3 F5000
G92 E0
G1 Y10 E10 F1200 ; prime the nozzle
G92 E0
G21 ; set units to millimeters
G90 ; use absolute coordinates
M83 ; use relative distances for extrusion
; Filament gcode
M107
;LAYER_CHANGE
;Z:0.4
;HEIGHT:0.4
;BEFORE_LAYER_CHANGE
G92 E0
;0.4


G1 E-5 F3600
G1 Z.4 F9000
;AFTER_LAYER_CHANGE
;0.4
G1 X15.702 Y24.084
G1 E5 F2400
;TYPE:Skirt/Brim
;WIDTH:0.42
G1 F1200
G1 X18.7 Y22.13 E.19892
G1 X30.161 Y15.698 E.7303
G1 X33.95 Y13.882 E.23352
G1 X46.152 Y9.001 E.7303
G1 X50.27 Y7.66 E.24067
G1 X62.881 Y4.449 E.72315
G1 X67.139 Y3.657 E.24067
G1 X80.061 Y2.12 E.72315
G1 X82.892 Y1.951 E.15762
G1 X84.386 Y1.891 E.08305
G1 X97.398 Y2.053 E.72315
G1 X101.715 Y2.39 E.24067
G1 X114.595 Y4.249 E.72315
G1 X116.037 Y4.536 E.08172
G1 X118.832 Y5.147 E.15896
G1 X131.359 Y8.671 E.72315
G1 X134.039 Y9.599 E.15762
G1 X135.442 Y10.115 E.08305
G1 X147.401 Y15.244 E.72315
G1 X151.149 Y17.145 E.23352
G1 X162.449 Y23.854 E.7303
G1 X166.02 Y26.305 E.24067
G1 X176.244 Y34.355 E.72315
G1 X179.465 Y37.251 E.24067
G1 X188.551 Y46.567 E.72315
G1 X189.536 Y47.69 E.08306
G1 X191.365 Y49.858 E.15762
G1 X199.158 Y60.28 E.72315
G1 X201.519 Y63.911 E.24067
G1 X207.944 Y75.375 E.7303
G1 X209.752 Y79.168 E.23352
G1 X214.581 Y91.252 E.72315
G1 X215.922 Y95.37 E.24067
G1 X219.161 Y108.106 E.7303
G1 X219.925 Y112.239 E.23352
G1 X221.463 Y125.161 E.72315
G1 X221.559 Y126.628 E.08172
G1 X221.692 Y129.485 E.15896
G1 X221.53 Y142.498 E.72315
G1 X221.328 Y145.327 E.15762
G1 X221.193 Y146.815 E.08306
G1 X219.333 Y159.695 E.72315
G1 X218.759 Y162.497 E.15896
G1 X218.436 Y163.932 E.08172
G1 X214.911 Y176.458 E.72315
G1 X213.976 Y179.162 E.15896
G1 X213.468 Y180.542 E.08171
G1 X208.339 Y192.501 E.72315
G1 X206.438 Y196.249 E.23352
G1 X199.728 Y207.549 E.7303
G1 X197.354 Y211.016 E.23352
G1 X189.145 Y221.443 E.73745
G1 X186.421 Y224.472 E.22637
G1 X185.258 Y225.16 E.07512
G1 X184.191 Y225.171 E.05928
G1 X163.516 Y220.535 E1.17747
G1 X162.357 Y219.889 E.07372
G1 X5.258 Y59.139 E12.49059
G1 X4.631 Y57.93 E.07565
G1 X.801 Y37.125 E1.17557
G1 X.952 Y35.782 E.07512
G1 X1.561 Y34.944 E.05757
G1 X4.758 Y32.217 E.23352
G1 X15.18 Y24.424 E.72315
G1 X15.651 Y24.117 E.03127
G1 E-3.5 F3600
;WIPE_START
G1 F7200
G1 X18.165 Y22.479 E-1.425
;WIPE_END
G1 E-.075 F3600
G1 X49.917 Y33.87 F9000
G1 E5 F2400
;TYPE:Perimeter
;WIDTH:0.42
G1 F1200
G1 X49.873 Y33.89 E.0027
G1 X49.693 Y34.061 E.01375
G1 X49.616 Y34.318 E.01492
G1 X49.541 Y38.058 E.20787
G1 X49.635 Y39.894 E.10216
G1 X49.779 Y41.218 E.07403
G1 X48.158 Y41.922 E.09821
G1 X47.289 Y40.912 E.07403
G1 X46.037 Y39.615 E.10016
G1 X43.228 Y37.091 E.20987
G1 X43.169 Y37.046 E.00413
G1 X42.906 Y36.963 E.0153
G1 X42.673 Y37.014 E.01329
G1 X40.875 Y37.906 E.11155
G1 X40.72 Y38.112 E.01431
G1 X40.685 Y38.336 E.01256
G1 X40.954 Y42.103 E.20987
G1 X41.21 Y43.887 E.10016
G1 X41.474 Y45.192 E.07403
G1 X39.924 Y46.041 E.09821
G1 X38.967 Y45.114 E.07403
G1 X37.574 Y43.914 E.10216
G1 X34.575 Y41.678 E.20787
G1 X34.513 Y41.639 E.00406
G1 X34.267 Y41.579 E.01407
G1 X34.015 Y41.652 E.01459
G1 X32.31 Y42.7 E.11126
G1 X32.179 Y42.897 E.01312
G1 X32.156 Y43.149 E.01404
G1 X32.759 Y46.84 E.20787
G1 X33.184 Y48.629 E.10216
G1 X33.565 Y49.905 E.07403
G1 X32.099 Y50.891 E.09821
G1 X31.061 Y50.056 E.07403
G1 X29.595 Y49.007 E.10016
G1 X26.299 Y46.995 E.21461
G1 X26.077 Y46.961 E.01245
G1 X25.816 Y47.057 E.01548
G1 X24.216 Y48.253 E.111
G1 X24.097 Y48.479 E.01417
G1 X24.1 Y48.718 E.01328
G1 X25.036 Y52.339 E.20787
G1 X25.622 Y54.082 E.10216
G1 X26.118 Y55.318 E.07403
G1 X24.747 Y56.433 E.09821
G1 X23.638 Y55.696 E.07403
G1 X22.083 Y54.784 E.10016
G1 X18.623 Y53.082 E.21425
G1 X18.355 Y53.074 E.01489
G1 X18.141 Y53.187 E.01345
G1 X17.431 Y53.82 E.05284
G1 X16.654 Y54.527 E.05841
G1 X16.558 Y54.762 E.01409
G1 X16.584 Y54.996 E.01308
G1 X17.859 Y58.551 E.20987
G1 X18.587 Y60.2 E.10016
G1 X19.192 Y61.383 E.07385
G1 X19.093 Y61.478 E.00762
G1 X14.369 Y56.642 E.37569
G1 X14.209 Y56.533 E.01074
G1 X13.984 Y56.492 E.01274
G1 X7.536 Y56.83 E.35878
G1 X7.166 Y49.779 E.39238
G1 X8.63 Y48.379 E.11257
G1 X8.729 Y48.247 E.00914
G1 X8.784 Y47.989 E.01469
G1 X8.702 Y47.741 E.01448
G1 X7.815 Y46.392 E.08973
G1 X7.083 Y45.108 E.08215
G1 X5.77 Y42.369 E.16881
G1 X4.663 Y39.52 E.16981
G1 X3.838 Y36.911 E.1521
G1 X6.248 Y34.852 E.17614
G1 X8.696 Y36.072 E.15199
G1 X11.338 Y37.607 E.16981
G1 X13.841 Y39.329 E.16881
G1 X14.996 Y40.251 E.08214
G1 X16.191 Y41.337 E.08973
G1 X16.37 Y41.442 E.01154
G1 X16.606 Y41.462 E.01314
G1 X16.833 Y41.364 E.01373
G1 X18.111 Y40.384 E.08951
G1 X19.912 Y39.055 E.12441
G1 X20.645 Y38.488 E.05147
G1 X20.742 Y38.236 E.01503
G1 X20.695 Y37.969 E.01504
G1 X19.991 Y36.516 E.08971
G1 X19.433 Y35.148 E.08215
G1 X18.489 Y32.26 E.16881
G1 X17.764 Y29.292 E.16981
G1 X17.286 Y26.599 E.15199
G1 X19.942 Y24.869 E.17614
G1 X22.212 Y26.399 E.1521
G1 X24.631 Y28.266 E.16981
G1 X26.887 Y30.3 E.16882
G1 X27.912 Y31.365 E.08214
G1 X28.955 Y32.598 E.08971
G1 X29.109 Y32.72 E.01092
G1 X29.362 Y32.775 E.01441
G1 X29.585 Y32.71 E.01292
G1 X32.235 Y31.201 E.16942
G1 X33.624 Y30.445 E.08791
G1 X33.758 Y30.338 E.00951
G1 X33.874 Y30.111 E.01416
G1 X33.86 Y29.847 E.01472
G1 X33.352 Y28.314 E.08973
G1 X32.978 Y26.884 E.08215
G1 X32.418 Y23.899 E.16881
G1 X32.087 Y20.861 E.16981
G1 X31.965 Y18.126 E.1521
G1 X34.826 Y16.762 E.17614
G1 X36.875 Y18.573 E.15199
G1 X39.029 Y20.74 E.16981
G1 X41.001 Y23.051 E.16881
G1 X41.878 Y24.241 E.08215
G1 X42.751 Y25.6 E.08973
G1 X42.894 Y25.745 E.01132
G1 X43.101 Y25.825 E.01233
G1 X43.364 Y25.792 E.01476
G1 X44.826 Y25.186 E.0879
G1 X47.664 Y24.073 E.16943
G1 X47.808 Y23.986 E.00934
G1 X47.957 Y23.764 E.01483
G1 X47.973 Y23.512 E.01406
G1 X47.67 Y21.926 E.08971
G1 X47.485 Y20.46 E.08214
G1 X47.32 Y17.426 E.16881
G1 X47.388 Y14.371 E.16981
G1 X47.624 Y11.647 E.15199
G1 X50.637 Y10.663 E.17614
G1 X52.433 Y12.729 E.1521
G1 X54.287 Y15.158 E.16981
G1 X55.94 Y17.707 E.16881
G1 X56.654 Y19.001 E.08215
G1 X57.342 Y20.461 E.08971
G1 X57.437 Y20.598 E.00923
G1 X57.647 Y20.726 E.01368
G1 X57.922 Y20.733 E.01532
G1 X60.872 Y19.961 E.16942
G1 X62.41 Y19.59 E.08791
G1 X62.593 Y19.504 E.01124
G1 X62.741 Y19.325 E.01295
G1 X62.792 Y19.074 E.01424
G1 X62.698 Y17.462 E.08973
G1 X62.707 Y15.984 E.08214
G1 X62.939 Y12.955 E.16881
G1 X63.405 Y9.935 E.16982
G1 X63.995 Y7.262 E.1521
G1 X67.112 Y6.684 E.17614
G1 X68.622 Y8.965 E.15199
G1 X70.143 Y11.615 E.16982
G1 X71.449 Y14.358 E.16881
G1 X71.988 Y15.734 E.08214
G1 X72.479 Y17.272 E.08971
G1 X72.58 Y17.449 E.01133
G1 X72.789 Y17.592 E.01406
G1 X73.019 Y17.617 E.01287
G1 X76.044 Y17.237 E.16942
G1 X77.617 Y17.07 E.08791
G1 X77.838 Y16.991 E.01301
G1 X77.986 Y16.841 E.01173
G1 X78.064 Y16.608 E.01369
G1 X78.181 Y14.997 E.08973
G1 X78.382 Y13.533 E.08214
G1 X79.008 Y10.56 E.16881
G1 X79.864 Y7.627 E.16981
G1 X80.798 Y5.056 E.15199
G1 X83.963 Y4.886 E.17614
G1 X85.163 Y7.346 E.1521
G1 X86.325 Y10.172 E.16982
G1 X87.262 Y13.062 E.16881
G1 X87.617 Y14.497 E.08214
G1 X87.903 Y16.086 E.08971
G1 X87.981 Y16.277 E.01145
G1 X88.163 Y16.44 E.01359
G1 X88.389 Y16.498 E.01298
G1 X91.442 Y16.516 E.16967
G1 X93.024 Y16.556 E.08791
G1 X93.195 Y16.53 E.00962
G1 X93.413 Y16.386 E.01451
G1 X93.527 Y16.156 E.01426
G1 X93.853 Y14.575 E.08973
G1 X94.244 Y13.149 E.08215
G1 X95.252 Y10.284 E.16881
G1 X96.484 Y7.487 E.16982
G1 X97.745 Y5.06 E.15199
G1 X100.905 Y5.305 E.17614
G1 X101.774 Y7.9 E.1521
G1 X102.557 Y10.854 E.16981
G1 X103.109 Y13.841 E.16881
G1 X103.273 Y15.31 E.08215
G1 X103.35 Y16.923 E.08973
G1 X103.401 Y17.121 E.01135
G1 X103.564 Y17.31 E.01384
G1 X103.786 Y17.396 E.01323
G1 X105.354 Y17.602 E.08791
G1 X108.368 Y18.057 E.16942
G1 X108.558 Y18.05 E.01053
G1 X108.766 Y17.945 E.01293
G1 X108.917 Y17.726 E.01478
G1 X109.447 Y16.201 E.08971
G1 X110.02 Y14.839 E.08215
G1 X111.394 Y12.129 E.16881
G1 X112.98 Y9.518 E.16981
G1 X114.548 Y7.274 E.1521
G1 X117.648 Y7.933 E.17614
G1 X118.171 Y10.618 E.15199
G1 X118.562 Y13.648 E.16981
G1 X118.719 Y16.682 E.16881
G1 X118.69 Y18.16 E.08215
G1 X118.556 Y19.769 E.08971
G1 X118.583 Y19.98 E.01181
G1 X118.72 Y20.183 E.01363
G1 X118.925 Y20.295 E.01299
G1 X120.481 Y20.712 E.0895
G1 X122.96 Y21.427 E.14339
G1 X123.551 Y21.567 E.03375
G1 X123.793 Y21.488 E.01415
G1 X123.97 Y21.292 E.01468
G1 X124.694 Y19.849 E.08971
G1 X125.44 Y18.573 E.08215
G1 X127.156 Y16.066 E.16881
G1 X129.07 Y13.684 E.16981
G1 X130.917 Y11.664 E.15211
G1 X133.905 Y12.722 E.17614
G1 X134.073 Y15.452 E.15199
G1 X134.064 Y18.508 E.16982
G1 X133.824 Y21.536 E.16881
G1 X133.603 Y22.998 E.08214
G1 X133.26 Y24.575 E.08972
G1 X133.259 Y24.786 E.01173
G1 X133.385 Y25.026 E.01506
G1 X133.558 Y25.145 E.01164
G1 X135.019 Y25.75 E.0879
G1 X137.016 Y26.622 E.12108
G1 X137.974 Y27.01 E.05744
G1 X138.234 Y26.961 E.01473
G1 X138.428 Y26.792 E.0143
G1 X139.335 Y25.456 E.08971
G1 X140.241 Y24.289 E.08214
G1 X142.27 Y22.027 E.16881
G1 X144.478 Y19.915 E.16981
G1 X146.571 Y18.155 E.15199
G1 X149.397 Y19.59 E.17614
G1 X149.207 Y22.321 E.1521
G1 X148.8 Y25.35 E.16982
G1 X148.167 Y28.32 E.16881
G1 X147.756 Y29.741 E.08214
G1 X147.21 Y31.26 E.08971
G1 X147.182 Y31.401 E.008
G1 X147.242 Y31.67 E.01532
G1 X147.429 Y31.862 E.01488
G1 X150.06 Y33.402 E.16942
G1 X151.312 Y34.167 E.08151
G1 X151.575 Y34.291 E.01617
G1 X151.844 Y34.27 E.01503
G1 X152.046 Y34.133 E.01354
G1 X153.119 Y32.926 E.08973
G1 X154.17 Y31.887 E.08214
G1 X156.476 Y29.91 E.16881
G1 X158.941 Y28.104 E.16981
G1 X161.246 Y26.632 E.15199
G1 X163.861 Y28.424 E.17614
G1 X163.316 Y31.106 E.1521
G1 X162.517 Y34.056 E.16981
G1 X161.501 Y36.919 E.16881
G1 X160.909 Y38.273 E.08214
G1 X160.169 Y39.708 E.08972
G1 X160.115 Y39.905 E.01132
G1 X160.157 Y40.142 E.01341
G1 X160.31 Y40.336 E.0137
G1 X161.565 Y41.299 E.08791
G1 X163.585 Y42.911 E.14364
G1 X164.092 Y43.28 E.03487
G1 X164.358 Y43.3 E.0148
G1 X164.588 Y43.187 E.01423
G1 X165.81 Y42.132 E.08972
G1 X166.987 Y41.238 E.08214
G1 X169.532 Y39.579 E.16881
G1 X172.211 Y38.11 E.16981
G1 X174.689 Y36.952 E.15199
G1 X177.047 Y39.07 E.17614
G1 X176.157 Y41.658 E.1521
G1 X174.98 Y44.478 E.16981
G1 X173.599 Y47.184 E.16881
G1 X172.835 Y48.45 E.08215
G1 X171.915 Y49.776 E.08971
G1 X171.835 Y49.963 E.01133
G1 X171.852 Y50.223 E.01447
G1 X171.97 Y50.414 E.01245
G1 X175.335 Y53.828 E.26638
G1 X175.599 Y53.883 E.01499
G1 X175.841 Y53.802 E.01424
G1 X177.19 Y52.915 E.08973
G1 X178.475 Y52.183 E.08215
G1 X181.214 Y50.87 E.16881
G1 X184.062 Y49.763 E.16981
G1 X186.672 Y48.938 E.1521
G1 X188.731 Y51.348 E.17614
G1 X187.511 Y53.796 E.15199
G1 X185.976 Y56.438 E.16981
G1 X184.254 Y58.94 E.16881
G1 X183.331 Y60.096 E.08214
G1 X182.245 Y61.29 E.08973
G1 X182.138 Y61.477 E.01195
G1 X182.122 Y61.71 E.01301
G1 X182.218 Y61.933 E.01346
G1 X183.198 Y63.211 E.08951
G1 X184.55 Y65.043 E.12652
G1 X185.101 Y65.749 E.04979
G1 X185.356 Y65.843 E.01512
G1 X185.613 Y65.795 E.01453
G1 X187.066 Y65.091 E.08971
G1 X188.435 Y64.533 E.08214
G1 X191.322 Y63.589 E.16881
G1 X194.291 Y62.863 E.16981
G1 X196.984 Y62.386 E.15199
G1 X198.713 Y65.042 E.17614
G1 X197.184 Y67.312 E.15211
G1 X195.317 Y69.731 E.16981
G1 X193.282 Y71.987 E.16881
G1 X192.217 Y73.012 E.08214
G1 X190.985 Y74.055 E.08972
G1 X190.859 Y74.215 E.01132
G1 X190.809 Y74.475 E.01472
G1 X190.873 Y74.685 E.01221
G1 X192.381 Y77.335 E.16942
G1 X193.138 Y78.724 E.08791
G1 X193.282 Y78.889 E.01216
G1 X193.463 Y78.972 E.01107
G1 X193.736 Y78.96 E.01518
G1 X195.268 Y78.452 E.08973
G1 X196.698 Y78.077 E.08215
G1 X199.684 Y77.518 E.16881
G1 X202.722 Y77.187 E.16981
G1 X205.454 Y77.065 E.15199
G1 X206.822 Y79.924 E.17614
G1 X205.009 Y81.975 E.1521
G1 X202.842 Y84.129 E.16982
G1 X200.531 Y86.101 E.16881
G1 X199.341 Y86.978 E.08215
G1 X197.983 Y87.851 E.08971
G1 X197.868 Y87.953 E.0086
G1 X197.761 Y88.184 E.01413
G1 X197.79 Y88.461 E.01548
G1 X198.94 Y91.285 E.16943
G1 X199.508 Y92.761 E.0879
G1 X199.595 Y92.907 E.00943
G1 X199.812 Y93.054 E.01455
G1 X200.07 Y93.073 E.01441
G1 X201.656 Y92.77 E.08973
G1 X203.123 Y92.585 E.08214
G1 X206.156 Y92.42 E.16881
G1 X209.211 Y92.488 E.16981
G1 X211.938 Y92.724 E.1521
G1 X212.918 Y95.738 E.17614
G1 X210.854 Y97.533 E.15199
G1 X208.425 Y99.387 E.16981
G1 X205.876 Y101.04 E.16881
G1 X204.582 Y101.754 E.08215
G1 X203.121 Y102.442 E.08972
G1 X202.956 Y102.567 E.01148
G1 X202.852 Y102.762 E.0123
G1 X202.851 Y103.025 E.01462
G1 X203.267 Y104.581 E.08951
G1 X203.803 Y106.743 E.12378
G1 X204.058 Y107.662 E.053
G1 X204.254 Y107.839 E.01469
G1 X204.509 Y107.892 E.01448
G1 X206.121 Y107.798 E.08972
G1 X207.599 Y107.806 E.08214
G1 X210.628 Y108.039 E.16881
G1 X213.648 Y108.505 E.16982
G1 X216.321 Y109.095 E.1521
G1 X216.898 Y112.211 E.17614
G1 X214.618 Y113.722 E.15199
G1 X211.967 Y115.242 E.16982
G1 X209.225 Y116.548 E.16881
G1 X207.848 Y117.087 E.08214
G1 X206.311 Y117.579 E.08972
G1 X206.13 Y117.682 E.01156
G1 X205.995 Y117.877 E.01314
G1 X205.966 Y118.122 E.01373
G1 X206.176 Y119.719 E.08951
G1 X206.426 Y121.944 E.12441
G1 X206.551 Y122.861 E.05147
G1 X206.721 Y123.072 E.01503
G1 X206.975 Y123.164 E.01504
G1 X208.585 Y123.281 E.08971
G1 X210.05 Y123.482 E.08214
G1 X213.022 Y124.108 E.16881
G1 X215.956 Y124.964 E.16981
G1 X218.527 Y125.897 E.15199
G1 X218.658 Y128.158 E.12586
G1 X218.696 Y129.062 E.05028
G1 X216.237 Y130.263 E.1521
G1 X213.41 Y131.425 E.16981
G1 X210.521 Y132.362 E.16881
G1 X209.086 Y132.716 E.08215
G1 X207.497 Y133.003 E.08971
G1 X207.314 Y133.075 E.01092
G1 X207.14 Y133.268 E.01441
G1 X207.085 Y133.493 E.01292
G1 X207.066 Y136.542 E.16942
G1 X207.027 Y138.124 E.08791
G1 X207.052 Y138.293 E.00951
G1 X207.191 Y138.507 E.01416
G1 X207.427 Y138.627 E.01472
G1 X209.008 Y138.953 E.08973
G1 X210.434 Y139.344 E.08215
G1 X213.299 Y140.352 E.16881
G1 X216.096 Y141.584 E.16982
G1 X218.525 Y142.846 E.1521
G1 X218.463 Y143.759 E.05087
G1 X218.276 Y146.006 E.12527
G1 X215.683 Y146.874 E.15199
G1 X212.729 Y147.657 E.16981
G1 X209.742 Y148.209 E.16881
G1 X208.272 Y148.373 E.08214
G1 X206.66 Y148.45 E.08973
G1 X206.462 Y148.501 E.01132
G1 X206.29 Y148.641 E.01233
G1 X206.187 Y148.885 E.01476
G1 X205.98 Y150.454 E.08791
G1 X205.525 Y153.468 E.16942
G1 X205.528 Y153.636 E.00934
G1 X205.646 Y153.876 E.01483
G1 X205.856 Y154.017 E.01406
G1 X207.381 Y154.547 E.08971
G1 X208.744 Y155.12 E.08215
G1 X211.453 Y156.494 E.16881
G1 X214.065 Y158.08 E.16981
G1 X216.307 Y159.647 E.15199
G1 X215.851 Y161.854 E.12527
G1 X215.652 Y162.748 E.05087
G1 X212.965 Y163.271 E.1521
G1 X209.934 Y163.661 E.16981
G1 X206.901 Y163.818 E.16881
G1 X205.423 Y163.79 E.08215
G1 X203.814 Y163.656 E.08971
G1 X203.648 Y163.669 E.00923
G1 X203.432 Y163.787 E.01368
G1 X203.289 Y164.022 E.01532
G1 X202.482 Y166.963 E.16943
G1 X202.035 Y168.48 E.0879
G1 X202.018 Y168.681 E.01124
G1 X202.098 Y168.9 E.01294
G1 X202.29 Y169.069 E.01424
G1 X203.733 Y169.794 E.08973
G1 X205.009 Y170.54 E.08214
G1 X207.516 Y172.256 E.16881
G1 X209.899 Y174.17 E.16981
G1 X211.917 Y176.015 E.15199
G1 X210.862 Y179.005 E.17614
G1 X208.13 Y179.173 E.1521
G1 X205.075 Y179.164 E.16981
G1 X202.046 Y178.924 E.16881
G1 X200.585 Y178.702 E.08214
G1 X199.007 Y178.359 E.08973
G1 X198.803 Y178.358 E.01133
G1 X198.575 Y178.468 E.01412
G1 X198.438 Y178.657 E.01297
G1 X197.832 Y180.119 E.08791
G1 X196.613 Y182.913 E.16942
G1 X196.571 Y183.141 E.01284
G1 X196.627 Y183.344 E.01173
G1 X196.79 Y183.528 E.01369
G1 X198.126 Y184.435 E.08971
G1 X199.294 Y185.341 E.08214
