; generated by PrusaSlicer 2.5.0+win64 on 2023-02-08 at 00:59:45 UTC


;
;

;
;
; 

; external perimeters extrusion width = 0.45mm
; perimeters extrusion width = 0.45mm
; infill extrusion width = 0.45mm
; solid infill extrusion width = 0.45mm
; top infill extrusion width = 0.40mm
; first layer extrusion width = 0.42mm

M107
;TYPE:Custom
G90 ; use absolute coordinates
M83 ; extruder relative mode
M104 S120 ; set temporary nozzle temp to prevent oozing during homing and auto bed leveling
M140 S50 ; set final bed temp
G4 S10 ; allow partial nozzle warmup
G28 ; home all axis
G1 Z50 F240
G1 X2 Y10 F3000
M104 S210 ; set final nozzle temp
M190 S50 ; wait for bed temp to stabilize
M109 S210 ; wait for nozzle temp to stabilize
G1 Z0.28 F240
G92 E0
G1 Y140 E10 F1500 ; prime the nozzle
G1 X2.3 F5000
G92 E0
G1 Y10 E10 F1200 ; prime the nozzle
G92 E0
G21 ; set units to millimeters
G90 ; use absolute coordinates
M83 ; use relative distances for extrusion
; Filament gcode
M107
;LAYER_CHANGE
;Z:0.4
;HEIGHT:0.4
;BEFORE_LAYER_CHANGE
G92 E0
;0.4


G1 E-5 F3600
G1 Z.4 F9000
;AFTER_LAYER_CHANGE
;0.4
G1 X91.304 Y89.538
G1 E5 F2400
;TYPE:Skirt/Brim
;WIDTH:0.42
G1 F1200
G1 X166.301 Y13.062 E5.95236
G1 X173.67 Y5.689 E.57926
G1 X174.671 Y5.097 E.06465
G1 X187.41 Y1.407 E.73698
G1 X188.761 Y1.423 E.07512
G1 X189.783 Y2.076 E.06739
G1 X192.498 Y5.113 E.22637
G1 X200.675 Y15.565 E.73745
G1 X203.038 Y19.04 E.23352
G1 X209.649 Y30.248 E.72315
G1 X211.601 Y34.115 E.24067
G1 X216.693 Y46.09 E.72315
G1 X217.648 Y48.761 E.15762
G1 X218.124 Y50.178 E.08306
G1 X221.609 Y62.716 E.72315
G1 X222.494 Y66.955 E.24067
G1 X224.313 Y79.84 E.72315
G1 X224.636 Y84.159 E.24067
G1 X224.758 Y97.172 E.72315
G1 X224.618 Y100.005 E.15762
G1 X224.515 Y101.496 E.08306
G1 X222.937 Y114.413 E.72315
G1 X222.132 Y118.668 E.24067
G1 X218.882 Y131.269 E.72315
G1 X217.573 Y135.262 E.23352
G1 X212.661 Y147.451 E.7303
G1 X212.03 Y148.806 E.08306
G1 X210.782 Y151.353 E.15762
G1 X204.381 Y162.683 E.72315
G1 X202.009 Y166.307 E.24067
G1 X194.184 Y176.704 E.72315
G1 X191.359 Y179.987 E.24067
G1 X182.244 Y189.274 E.72315
G1 X181.142 Y190.284 E.08306
G1 X179.014 Y192.16 E.15762
G1 X168.765 Y200.178 E.72315
G1 X165.187 Y202.618 E.24067
G1 X153.978 Y209.229 E.72315
G1 X150.229 Y211.128 E.23352
G1 X138.137 Y216.273 E.7303
G1 X136.732 Y216.785 E.08305
G1 X134.049 Y217.704 E.15762
G1 X121.511 Y221.189 E.72315
G1 X117.272 Y222.074 E.24067
G1 X104.386 Y223.893 E.72315
G1 X100.196 Y224.212 E.23352
G1 X87.055 Y224.338 E.7303
G1 X85.562 Y224.273 E.08306
G1 X82.731 Y224.095 E.15762
G1 X69.814 Y222.518 E.72315
G1 X65.558 Y221.712 E.24067
G1 X52.958 Y218.462 E.72315
G1 X48.965 Y217.153 E.23352
G1 X36.775 Y212.241 E.7303
G1 X35.421 Y211.61 E.08305
G1 X32.873 Y210.362 E.15762
G1 X21.543 Y203.961 E.72315
G1 X17.92 Y201.589 E.24067
G1 X7.522 Y193.764 E.72315
G1 X4.334 Y191.026 E.23352
G1 X3.62 Y189.878 E.07512
G1 X3.621 Y188.666 E.06739
G1 X7.072 Y175.861 E.73698
G1 X7.658 Y174.834 E.06568
G1 X91.262 Y89.581 E6.63551
G1 E-3.5 F3600
;WIPE_START
G1 F7200
G1 X93.363 Y87.439 E-1.425
;WIPE_END
G1 E-.075 F3600
G1 X28.885 Y179.145 F9000
G1 E5 F2400
;TYPE:Perimeter
;WIDTH:0.42
G1 F1200
G1 X29.093 Y179.198 E.01192
G1 X29.338 Y179.125 E.0142
G1 X32.53 Y177.176 E.20787
G1 X34.028 Y176.109 E.10216
G1 X35.066 Y175.275 E.07403
G1 X36.532 Y176.263 E.09821
G1 X36.149 Y177.539 E.07403
G1 X35.728 Y179.291 E.10016
G1 X35.113 Y183.017 E.20987
G1 X35.107 Y183.077 E.00334
G1 X35.165 Y183.335 E.01468
G1 X35.347 Y183.527 E.01468
G1 X37.058 Y184.559 E.11106
G1 X37.323 Y184.582 E.01479
G1 X37.53 Y184.491 E.01255
G1 X40.561 Y182.238 E.20987
G1 X41.926 Y181.061 E.10016
G1 X42.885 Y180.136 E.07403
G1 X44.434 Y180.987 E.09821
G1 X44.168 Y182.292 E.07403
G1 X43.91 Y184.076 E.10016
G1 X43.635 Y187.842 E.20987
G1 X43.644 Y187.976 E.00746
G1 X43.744 Y188.192 E.01323
G1 X43.914 Y188.329 E.01211
G1 X45.727 Y189.205 E.1119
G1 X45.977 Y189.2 E.01385
G1 X46.177 Y189.09 E.01267
G1 X48.99 Y186.57 E.20987
G1 X50.243 Y185.275 E.10016
G1 X51.113 Y184.266 E.07403
G1 X52.733 Y184.972 E.09821
G1 X52.587 Y186.296 E.07403
G1 X52.491 Y188.132 E.10216
G1 X52.561 Y191.872 E.20787
G1 X52.582 Y192.006 E.00755
G1 X52.691 Y192.2 E.01232
G1 X52.881 Y192.33 E.01279
G1 X54.779 Y193.04 E.1126
G1 X54.997 Y193.018 E.01218
G1 X55.206 Y192.884 E.0138
G1 X57.754 Y190.146 E.20786
G1 X58.908 Y188.714 E.10216
G1 X59.683 Y187.631 E.07403
G1 X61.361 Y188.187 E.09821
G1 X61.336 Y189.519 E.07403
G1 X61.404 Y191.32 E.10016
G1 X61.829 Y195.141 E.21365
G1 X61.96 Y195.373 E.01482
G1 X62.179 Y195.501 E.01411
G1 X64.076 Y196.031 E.10945
G1 X64.336 Y195.998 E.01457
G1 X64.542 Y195.841 E.01436
G1 X66.831 Y192.882 E.20787
G1 X67.85 Y191.352 E.10216
G1 X68.523 Y190.203 E.07403
G1 X70.244 Y190.603 E.09821
G1 X70.341 Y191.932 E.07403
G1 X70.573 Y193.72 E.10016
G1 X71.325 Y197.421 E.20987
G1 X71.345 Y197.491 E.00408
G1 X71.494 Y197.705 E.0145
G1 X71.725 Y197.813 E.01415
G1 X73.702 Y198.168 E.11161
G1 X73.917 Y198.112 E.01237
G1 X74.109 Y197.937 E.01444
G1 X76.137 Y194.751 E.20987
G1 X76.994 Y193.165 E.10016
G1 X77.561 Y191.96 E.07403
G1 X79.311 Y192.202 E.09821
G1 X79.528 Y193.517 E.07403
G1 X79.921 Y195.276 E.10016
G1 X81.007 Y198.893 E.20987
G1 X81.033 Y198.961 E.00406
G1 X81.188 Y199.15 E.01357
G1 X81.441 Y199.248 E.01509
G1 X83.402 Y199.425 E.10941
G1 X83.649 Y199.347 E.01439
G1 X83.826 Y199.154 E.01458
G1 X85.557 Y195.797 E.20987
G1 X86.266 Y194.14 E.10016
G1 X86.72 Y192.888 E.07403
G1 X88.486 Y192.97 E.09821
G1 X88.821 Y194.259 E.07403
G1 X89.385 Y196.009 E.10216
G1 X90.783 Y199.479 E.20787
G1 X90.839 Y199.581 E.00648
G1 X91.016 Y199.736 E.01308
G1 X91.246 Y199.793 E.01318
G1 X93.244 Y199.786 E.11101
G1 X93.479 Y199.672 E.0145
G1 X93.614 Y199.482 E.01296
G1 X95.02 Y196.016 E.20787
G1 X95.588 Y194.267 E.10216
G1 X95.927 Y192.979 E.07403
G1 X97.692 Y192.9 E.09821
G1 X98.143 Y194.154 E.07403
G1 X98.849 Y195.812 E.10016
G1 X100.612 Y199.238 E.21409
G1 X100.814 Y199.402 E.01445
G1 X101.063 Y199.443 E.01403
G1 X103.033 Y199.26 E.10996
G1 X103.269 Y199.125 E.0151
G1 X103.391 Y198.919 E.01333
G1 X104.476 Y195.339 E.20786
G1 X104.883 Y193.546 E.10216
G1 X105.103 Y192.232 E.07403
G1 X106.854 Y191.994 E.09821
G1 X107.417 Y193.201 E.07403
G1 X108.271 Y194.788 E.10016
G1 X110.292 Y197.978 E.20986
G1 X110.336 Y198.037 E.00407
G1 X110.56 Y198.187 E.01498
G1 X110.806 Y198.203 E.01368
G1 X112.748 Y197.842 E.10976
G1 X112.971 Y197.689 E.01503
G1 X113.077 Y197.469 E.01359
G1 X113.838 Y193.77 E.20987
G1 X114.074 Y191.983 E.10016
G1 X114.173 Y190.654 E.07403
G1 X115.895 Y190.258 E.09821
G1 X116.566 Y191.408 E.07403
G1 X117.561 Y192.912 E.10016
G1 X119.864 Y195.905 E.20987
G1 X119.918 Y195.965 E.00453
G1 X120.151 Y196.088 E.01463
G1 X120.395 Y196.082 E.01358
G1 X122.311 Y195.539 E.11064
G1 X122.504 Y195.375 E.01407
G1 X122.591 Y195.144 E.0137
G1 X123.012 Y191.391 E.20987
G1 X123.085 Y189.59 E.10016
G1 X123.063 Y188.258 E.07403
G1 X124.742 Y187.707 E.09821
G1 X125.514 Y188.792 E.07403
G1 X126.665 Y190.226 E.10216
G1 X129.207 Y192.97 E.20787
G1 X129.268 Y193.026 E.0046
G1 X129.49 Y193.123 E.01348
G1 X129.753 Y193.098 E.01466
G1 X131.624 Y192.375 E.11146
G1 X131.797 Y192.185 E.01429
G1 X131.853 Y191.964 E.01266
G1 X131.932 Y188.224 E.20787
G1 X131.84 Y186.388 E.10216
G1 X131.697 Y185.064 E.07403
G1 X133.319 Y184.362 E.09821
G1 X134.187 Y185.372 E.07403
G1 X135.437 Y186.67 E.10016
G1 X138.245 Y189.197 E.20987
G1 X138.356 Y189.273 E.00747
G1 X138.567 Y189.325 E.01211
G1 X138.8 Y189.275 E.01323
G1 X140.586 Y188.394 E.11068
G1 X140.751 Y188.184 E.01485
G1 X140.789 Y187.955 E.01287
G1 X140.527 Y184.223 E.20787
G1 X140.268 Y182.403 E.10216
G1 X140.006 Y181.097 E.07403
G1 X141.557 Y180.251 E.09821
G1 X142.513 Y181.178 E.07403
G1 X143.877 Y182.357 E.10016
G1 X146.902 Y184.618 E.20987
G1 X146.966 Y184.659 E.0042
G1 X147.23 Y184.717 E.01507
G1 X147.462 Y184.645 E.01345
G1 X149.14 Y183.622 E.1092
G1 X149.294 Y183.414 E.01442
G1 X149.322 Y183.15 E.01475
G1 X148.715 Y179.422 E.20987
G1 X148.299 Y177.668 E.10016
G1 X147.919 Y176.392 E.07403
G1 X149.387 Y175.407 E.09821
G1 X150.424 Y176.244 E.07403
G1 X151.888 Y177.294 E.10016
G1 X155.107 Y179.271 E.20987
G1 X155.214 Y179.32 E.0066
G1 X155.44 Y179.34 E.01256
G1 X155.667 Y179.247 E.01363
G1 X157.266 Y178.054 E.11091
G1 X157.389 Y177.815 E.01494
G1 X157.384 Y177.589 E.01256
G1 X156.44 Y173.932 E.20987
G1 X155.867 Y172.223 E.10016
G1 X155.372 Y170.986 E.07403
G1 X156.744 Y169.872 E.09821
G1 X157.852 Y170.611 E.07403
G1 X159.438 Y171.541 E.10216
G1 X162.791 Y173.2 E.20787
G1 X162.918 Y173.242 E.00746
G1 X163.146 Y173.234 E.01264
G1 X163.347 Y173.125 E.0127
G1 X164.845 Y171.773 E.11211
G1 X164.932 Y171.542 E.01373
G1 X164.906 Y171.317 E.01258
G1 X163.647 Y167.795 E.20787
G1 X162.907 Y166.112 E.10216
G1 X162.302 Y164.925 E.07403
G1 X163.567 Y163.691 E.09821
G1 X164.738 Y164.326 E.07403
G1 X166.369 Y165.094 E.10016
G1 X169.892 Y166.455 E.20987
G1 X170.023 Y166.486 E.00747
G1 X170.258 Y166.453 E.01323
G1 X170.438 Y166.33 E.0121
G1 X171.774 Y164.899 E.10877
G1 X171.87 Y164.658 E.01442
G1 X171.827 Y164.388 E.01517
G1 X170.253 Y160.995 E.20787
G1 X169.363 Y159.386 E.10216
G1 X168.652 Y158.259 E.07403
G1 X169.8 Y156.915 E.09821
G1 X171.024 Y157.441 E.07403
G1 X172.718 Y158.057 E.10016
G1 X176.35 Y159.092 E.20987
G1 X176.415 Y159.106 E.00371
G1 X176.662 Y159.08 E.01378
G1 X176.883 Y158.918 E.01522
G1 X178.096 Y157.348 E.11028
G1 X178.156 Y157.116 E.01327
G1 X178.089 Y156.858 E.01484
G1 X176.194 Y153.591 E.20987
G1 X175.18 Y152.101 E.10016
G1 X174.37 Y151.043 E.07403
G1 X175.391 Y149.601 E.09821
G1 X176.658 Y150.013 E.07403
G1 X178.4 Y150.473 E.10016
G1 X182.185 Y151.181 E.214
G1 X182.453 Y151.116 E.0153
G1 X182.626 Y150.951 E.01329
G1 X183.7 Y149.255 E.11155
G1 X183.726 Y148.999 E.01431
G1 X183.64 Y148.79 E.01256
G1 X181.478 Y145.738 E.20787
G1 X180.311 Y144.317 E.10216
G1 X179.408 Y143.337 E.07403
G1 X180.293 Y141.808 E.09821
G1 X181.592 Y142.103 E.07403
G1 X183.37 Y142.403 E.10016
G1 X187.129 Y142.762 E.20987
G1 X187.202 Y142.764 E.00406
G1 X187.444 Y142.688 E.01407
G1 X187.622 Y142.495 E.01459
G1 X188.536 Y140.713 E.11126
G1 X188.545 Y140.477 E.01312
G1 X188.435 Y140.25 E.01404
G1 X185.979 Y137.381 E.20987
G1 X184.713 Y136.098 E.10016
G1 X183.724 Y135.205 E.07403
G1 X184.467 Y133.602 E.09821
G1 X185.787 Y133.778 E.07403
G1 X187.585 Y133.914 E.10016
G1 X191.361 Y133.931 E.20987
G1 X191.447 Y133.924 E.00476
G1 X191.654 Y133.838 E.01245
G1 X191.827 Y133.62 E.01548
G1 X192.575 Y131.765 E.11115
G1 X192.559 Y131.513 E.01402
G1 X192.433 Y131.31 E.01328
G1 X189.727 Y128.676 E.20987
G1 X188.349 Y127.514 E.10016
G1 X187.283 Y126.714 E.07403
G1 X187.877 Y125.05 E.09821
G1 X189.208 Y125.105 E.07403
G1 X191.01 Y125.077 E.10016
G1 X194.773 Y124.75 E.20987
G1 X194.851 Y124.737 E.00439
G1 X195.084 Y124.605 E.01489
G1 X195.208 Y124.398 E.01345
G1 X195.787 Y122.447 E.1131
G1 X195.74 Y122.222 E.01277
G1 X195.601 Y122.043 E.01255
G1 X192.667 Y119.666 E.20987
G1 X191.189 Y118.634 E.10016
G1 X190.055 Y117.935 E.07403
G1 X190.495 Y116.223 E.09821
G1 X191.826 Y116.157 E.07403
G1 X193.654 Y115.961 E.10216
G1 X197.335 Y115.298 E.20787
G1 X197.406 Y115.28 E.00406
G1 X197.631 Y115.126 E.01518
G1 X197.737 Y114.907 E.01348
G1 X198.134 Y112.999 E.1083
G1 X198.089 Y112.729 E.01523
G1 X197.914 Y112.527 E.01483
G1 X194.807 Y110.445 E.20787
G1 X193.21 Y109.533 E.10216
G1 X192.018 Y108.94 E.07403
G1 X192.3 Y107.195 E.09821
G1 X193.619 Y107.008 E.07403
G1 X195.386 Y106.655 E.10016
G1 X199.101 Y105.625 E.2142
G1 X199.288 Y105.479 E.01321
G1 X199.392 Y105.226 E.01518
G1 X199.61 Y103.337 E.10568
G1 X199.611 Y103.23 E.00594
G1 X199.538 Y103.015 E.01264
G1 X199.352 Y102.84 E.01419
G1 X196.036 Y101.033 E.20986
G1 X194.395 Y100.286 E.10016
G1 X193.154 Y99.803 E.07403
G1 X193.276 Y98.04 E.09821
G1 X194.573 Y97.734 E.07403
G1 X196.301 Y97.222 E.10016
G1 X199.835 Y95.892 E.20986
G1 X199.89 Y95.867 E.00335
G1 X200.084 Y95.688 E.01468
G1 X200.16 Y95.435 E.01468
G1 X200.195 Y93.419 E.11202
G1 X200.085 Y93.196 E.01384
G1 X199.903 Y93.062 E.01256
G1 X196.436 Y91.564 E.20987
G1 X194.735 Y90.969 E.10016
G1 X193.454 Y90.602 E.07403
G1 X193.416 Y88.835 E.09821
G1 X194.68 Y88.412 E.07403
G1 X196.354 Y87.745 E.10016
G1 X199.753 Y86.099 E.20987
G1 X199.865 Y86.024 E.00746
G1 X200.001 Y85.832 E.0131
G1 X200.034 Y85.614 E.01224
G1 X199.887 Y83.606 E.1119
G1 X199.758 Y83.393 E.01385
G1 X199.563 Y83.274 E.01267
G1 X195.974 Y82.098 E.20987
G1 X194.226 Y81.66 E.10016
G1 X192.917 Y81.411 E.07403
G1 X192.718 Y79.655 E.09821
G1 X193.938 Y79.119 E.07403
G1 X195.576 Y78.284 E.10216
G1 X198.78 Y76.354 E.20787
G1 X198.886 Y76.268 E.00755
G1 X198.998 Y76.078 E.01232
G1 X199.017 Y75.848 E.01279
G1 X198.683 Y73.85 E.1126
G1 X198.555 Y73.672 E.01218
G1 X198.334 Y73.558 E.0138
G1 X194.688 Y72.72 E.20787
G1 X192.872 Y72.436 E.10216
G1 X191.546 Y72.307 E.07403
G1 X191.189 Y70.576 E.09821
G1 X192.354 Y69.932 E.07403
G1 X193.88 Y68.972 E.10016
G1 X196.977 Y66.693 E.21365
G1 X197.112 Y66.464 E.01482
G1 X197.114 Y66.21 E.01411
G1 X196.624 Y64.303 E.10941
G1 X196.465 Y64.093 E.01462
G1 X196.226 Y63.994 E.01436
G1 X192.52 Y63.491 E.20787
G1 X190.685 Y63.374 E.10216
G1 X189.353 Y63.365 E.07403
G1 X188.84 Y61.674 E.09821
G1 X189.942 Y60.926 E.07403
G1 X191.374 Y59.832 E.10016
G1 X194.254 Y57.277 E.21393
G1 X194.364 Y57.041 E.0145
G1 X194.343 Y56.787 E.01415
G1 X193.938 Y55.643 E.06747
G1 X193.689 Y54.947 E.04108
G1 X193.508 Y54.741 E.01521
G1 X193.258 Y54.661 E.0146
G1 X189.485 Y54.497 E.20987
G1 X187.683 Y54.547 E.10016
G1 X186.356 Y54.66 E.07403
G1 X185.691 Y53.023 E.09821
G1 X186.721 Y52.178 E.07403
G1 X188.047 Y50.957 E.10016
G1 X190.637 Y48.209 E.20987
G1 X190.715 Y48.099 E.00747
G1 X190.773 Y47.873 E.01299
G1 X190.727 Y47.655 E.01236
G1 X189.9 Y45.869 E.10941
G1 X189.709 Y45.693 E.01439
G1 X189.453 Y45.637 E.01458
G1 X185.681 Y45.816 E.20987
G1 X183.891 Y46.031 E.10016
G1 X182.58 Y46.263 E.07403
G1 X181.768 Y44.693 E.09821
G1 X182.717 Y43.758 E.07403
G1 X183.927 Y42.422 E.10016
G1 X186.256 Y39.45 E.20987
G1 X186.317 Y39.35 E.00648
G1 X186.362 Y39.119 E.01308
G1 X186.296 Y38.891 E.01318
G1 X185.292 Y37.165 E.111
G1 X185.076 Y37.019 E.0145
G1 X184.844 Y36.996 E.01296
G1 X181.103 Y37.518 E.20987
G1 X179.34 Y37.894 E.10016
G1 X178.055 Y38.245 E.07403
G1 X177.105 Y36.755 E.09821
G1 X177.965 Y35.738 E.07403
G1 X179.069 Y34.268 E.10216
G1 X181.097 Y31.125 E.20787
G1 X181.134 Y31.058 E.00424
G1 X181.175 Y30.801 E.01445
G1 X181.086 Y30.565 E.01403
G1 X179.942 Y28.95 E.10996
G1 X179.707 Y28.813 E.0151
G1 X179.467 Y28.81 E.01333
G1 X175.825 Y29.661 E.20787
G1 X174.069 Y30.205 E.10216
G1 X172.821 Y30.671 E.07403
G1 X171.739 Y29.274 E.09821
G1 X172.502 Y28.183 E.07403
G1 X173.45 Y26.65 E.10016
G1 X175.232 Y23.237 E.21392
G1 X175.249 Y22.968 E.01498
G1 X175.14 Y22.747 E.01368
G1 X173.815 Y21.213 E.11263
G1 X173.573 Y21.124 E.01438
G1 X173.369 Y21.147 E.0114
G1 X169.819 Y22.325 E.20787
G1 X168.119 Y23.027 E.10216
G1 X166.919 Y23.605 E.07403
G1 X165.714 Y22.312 E.09821
G1 X166.376 Y21.156 E.07403
G1 X167.181 Y19.543 E.10016
G1 X168.621 Y16.052 E.20986
G1 X168.51 Y15.505 E.03104
G1 X168.385 Y15.381 E.00975
G1 X174.756 Y15.96 E.35548
G1 X174.951 Y15.904 E.01126
G1 X175.131 Y15.743 E.01342
G1 X175.216 Y15.507 E.01396
G1 X175.749 Y9.698 E.32418
G1 X175.799 Y8.669 E.05722
G1 X176.496 Y9.425 E.05713
G1 X176.833 Y9.582 E.02065
G1 X177.034 Y9.551 E.01131
G1 X177.145 Y9.494 E.00691
G1 X178.475 Y8.578 E.08975
G1 X179.767 Y7.805 E.0837
G1 X182.453 Y6.445 E.16727
G1 X185.276 Y5.277 E.16982
G1 X187.868 Y4.395 E.1521
G1 X189.978 Y6.76 E.17616
G1 X188.812 Y9.233 E.15194
G1 X187.335 Y11.908 E.16981
G1 X185.668 Y14.448 E.16881
G1 X184.771 Y15.623 E.08215
G1 X183.711 Y16.841 E.08971
G1 X183.606 Y17.036 E.01234
G1 X183.603 Y17.288 E.014
G1 X183.697 Y17.481 E.01192
G1 X186.672 Y21.243 E.26653
G1 X186.925 Y21.325 E.01477
G1 X187.177 Y21.271 E.0143
G1 X188.614 Y20.535 E.08972
G1 X189.97 Y19.948 E.08215
G1 X192.836 Y18.941 E.16881
G1 X195.788 Y18.151 E.16981
G1 X198.472 Y17.614 E.15211
G1 X200.256 Y20.234 E.17614
G1 X198.777 Y22.535 E.15199
G1 X196.964 Y24.994 E.16982
