;FLAVOR:Marlin
;TIME:5317
;Filament used: 10.0595m
;Layer height: 0.4
;MINX:5.556
;MINY:6.624
;MINZ:0.25
;MAXX:229.251
;MAXY:230.487
;MAXZ:9.85
;Generated with Cura_SteamEngine 4.8.0
M140 S50
M105
M190 S50
M104 S200
M105
M109 S200
M82 ;absolute extrusion mode
G28 ;home
G92 E0 ;Reset Extruder
G1 Z4.0 F3000 ;Move Z Axis up
G92 E0 ;Reset Extruder
G1 X1.1 Y20 Z0.28 F5000.0 ;Move to start position
G1 X1.1 Y200.0 Z0.28 F1500.0 E15 ;Draw the first line
G1 X1.4 Y200.0 Z0.28 F5000.0 ;Move to side a little
G1 X1.4 Y20 Z0.28 F1500.0 E30 ;Draw the second line
G92 E0 ;Reset Extruder
G1 Z2.0 F3000 ;Move Z Axis up
G92 E0
G92 E0
;LAYER_COUNT:25
;LAYER:0
M107
G0 F1400 X20.879 Y29.626 Z0.25
;TYPE:SKIRT
G1 F1200 X21.596 Y29.139 E0.03604
G1 X22.411 Y28.596 E0.07675
G1 X23.122 Y28.131 E0.11207
G1 X23.739 Y27.74 E0.14244
G1 X23.976 Y27.604 E0.1538
G1 X24.651 Y27.253 E0.18543
G1 X25.868 Y26.643 E0.24203
G1 X28.299 Y25.337 E0.35676
G1 X30.65 Y23.986 E0.46949
G1 X32.989 Y22.554 E0.58351
G1 X34.334 Y21.675 E0.65031
G1 X35.019 Y21.24 E0.68405
G1 X35.251 Y21.105 E0.69521
G1 X35.865 Y20.784 E0.72402
G1 X36.788 Y20.322 E0.76693
G1 X37.968 Y19.744 E0.82156
G1 X38.349 Y19.562 E0.83911
G1 X39.005 Y19.259 E0.86915
G1 X39.254 Y19.156 E0.88036
G1 X39.965 Y18.898 E0.9118
G1 X41.297 Y18.437 E0.9704
G1 X43.836 Y17.474 E1.0833
G1 X46.374 Y16.428 E1.19743
G1 X48.877 Y15.313 E1.31135
G1 X50.38 Y14.592 E1.38065
G1 X51.017 Y14.296 E1.40986
G1 X51.269 Y14.191 E1.42121
G1 X52.004 Y13.924 E1.45372
G1 X52.923 Y13.606 E1.49415
G1 X53.762 Y13.322 E1.53097
G1 X54.545 Y13.064 E1.56525
G1 X55.227 Y12.852 E1.59494
G1 X55.488 Y12.783 E1.60617
G1 X56.193 Y12.628 E1.63618
G1 X57.566 Y12.345 E1.69446
G1 X60.244 Y11.714 E1.80885
G1 X62.889 Y11.011 E1.92263
G1 X65.534 Y10.228 E2.03731
G1 X67.059 Y9.728 E2.10404
G1 X67.783 Y9.501 E2.13558
G1 X68.04 Y9.432 E2.14665
G1 X68.798 Y9.262 E2.17894
G1 X69.754 Y9.066 E2.21951
G1 X70.391 Y8.94 E2.24651
G1 X71.45 Y8.736 E2.29135
G1 X72.158 Y8.614 E2.32122
G1 X72.423 Y8.58 E2.33233
G1 X73.139 Y8.518 E2.3622
G1 X74.505 Y8.42 E2.41914
G1 X77.209 Y8.15 E2.53212
G1 X79.932 Y7.8 E2.64626
G1 X82.632 Y7.374 E2.7599
G1 X84.313 Y7.058 E2.83101
G1 X85.05 Y6.929 E2.86212
G1 X85.316 Y6.894 E2.87328
G1 X86.064 Y6.827 E2.9045
G1 X87.07 Y6.755 E2.94643
G1 X88.359 Y6.675 E3.00012
G1 X88.753 Y6.654 E3.01653
G1 X89.498 Y6.624 E3.04753
G1 X89.773 Y6.624 E3.05896
G1 X90.471 Y6.657 E3.08801
G1 X91.83 Y6.737 E3.14461
G1 X94.552 Y6.823 E3.25783
G1 X97.303 Y6.831 E3.37221
G1 X100.038 Y6.761 E3.48595
G1 X101.736 Y6.667 E3.55666
G1 X102.526 Y6.635 E3.58953
G1 X102.792 Y6.635 E3.60059
G1 X103.502 Y6.666 E3.63013
G1 X104.528 Y6.726 E3.67286
G1 X105.711 Y6.807 E3.72216
G1 X106.246 Y6.849 E3.74447
G1 X106.949 Y6.914 E3.77382
G1 X107.213 Y6.949 E3.78489
G1 X108.023 Y7.093 E3.8191
G1 X109.316 Y7.341 E3.87384
G1 X112.038 Y7.784 E3.98849
G1 X114.762 Y8.148 E4.10275
G1 X117.441 Y8.43 E4.21474
G1 X119.138 Y8.559 E4.2855
G1 X119.843 Y8.623 E4.31493
G1 X120.102 Y8.657 E4.32579
G1 X120.845 Y8.787 E4.35715
G1 X121.78 Y8.967 E4.39674
G1 X123.096 Y9.233 E4.45256
G1 X123.505 Y9.319 E4.46993
G1 X124.204 Y9.478 E4.49974
G1 X124.455 Y9.546 E4.51055
G1 X125.187 Y9.776 E4.54245
G1 X126.538 Y10.224 E4.60162
G1 X129.181 Y11.018 E4.71636
G1 X131.779 Y11.719 E4.82823
G1 X134.466 Y12.363 E4.94311
G1 X135.95 Y12.674 E5.00615
G1 X136.783 Y12.86 E5.04163
G1 X137.045 Y12.93 E5.05291
G1 X137.705 Y13.138 E5.08168
G1 X138.613 Y13.439 E5.12145
G1 X139.468 Y13.73 E5.159
G1 X140.265 Y14.008 E5.19409
G1 X140.995 Y14.278 E5.22645
G1 X141.243 Y14.382 E5.23763
G1 X141.959 Y14.718 E5.27051
G1 X143.079 Y15.262 E5.32228
G1 X145.566 Y16.384 E5.43571
G1 X148.134 Y17.458 E5.55144
G1 X150.677 Y18.436 E5.66471
G1 X152.165 Y18.958 E5.73027
G1 X153.008 Y19.266 E5.76759
G1 X153.256 Y19.369 E5.77875
G1 X153.883 Y19.66 E5.80749
G1 X154.693 Y20.052 E5.8449
G1 X155.455 Y20.429 E5.88025
G1 X156.365 Y20.888 E5.92262
G1 X156.967 Y21.204 E5.95089
G1 X157.2 Y21.339 E5.96208
G1 X157.886 Y21.776 E5.9959
G1 X158.975 Y22.495 E6.05015
G1 X161.275 Y23.92 E6.16264
G1 X163.63 Y25.288 E6.27587
G1 X166.055 Y26.608 E6.39066
G1 X167.482 Y27.33 E6.45715
G1 X168.239 Y27.725 E6.49265
G1 X168.473 Y27.86 E6.50388
G1 X169.136 Y28.281 E6.53653
G1 X169.8 Y28.718 E6.56958
G1 X170.978 Y29.508 E6.62855
G1 X171.392 Y29.793 E6.64945
G1 X171.963 Y30.197 E6.67853
G1 X172.174 Y30.36 E6.68961
G1 X172.718 Y30.817 E6.71915
G1 X173.799 Y31.752 E6.77857
G1 X175.892 Y33.462 E6.89094
G1 X178.063 Y35.136 E7.00491
G1 X180.282 Y36.749 E7.11897
G1 X181.506 Y37.584 E7.18057
G1 X182.257 Y38.111 E7.21871
G1 X182.472 Y38.275 E7.22995
G1 X183.06 Y38.768 E7.26186
G1 X183.774 Y39.387 E7.30114
G1 X184.385 Y39.923 E7.33494
G1 X185.131 Y40.589 E7.37651
G1 X185.621 Y41.043 E7.40428
G1 X185.806 Y41.229 E7.41519
G1 X186.306 Y41.775 E7.44597
G1 X187.24 Y42.826 E7.50443
G1 X189.121 Y44.825 E7.61854
G1 X191.061 Y46.772 E7.73281
G1 X193.048 Y48.658 E7.84671
G1 X194.253 Y49.736 E7.91393
G1 X194.794 Y50.232 E7.94445
G1 X194.985 Y50.424 E7.95571
G1 X195.534 Y51.02 E7.9894
G1 X196.165 Y51.73 E8.02889
G1 X196.596 Y52.224 E8.05614
G1 X197.29 Y53.028 E8.1003
G1 X197.74 Y53.568 E8.12952
G1 X197.905 Y53.785 E8.14086
G1 X198.386 Y54.474 E8.17579
G1 X199.064 Y55.477 E8.22613
G1 X200.659 Y57.695 E8.33971
G1 X202.337 Y59.898 E8.45484
G1 X204.04 Y62.007 E8.56754
G1 X205.093 Y63.233 E8.63473
G1 X205.655 Y63.902 E8.67106
G1 X205.825 Y64.123 E8.68265
G1 X206.265 Y64.751 E8.71453
G1 X206.798 Y65.539 E8.75408
G1 X207.222 Y66.174 E8.78582
G1 X207.744 Y66.97 E8.8254
G1 X208.135 Y67.588 E8.8558
G1 X208.269 Y67.821 E8.86698
G1 X208.61 Y68.476 E8.89768
G1 X209.215 Y69.685 E8.95389
G1 X210.503 Y72.085 E9.06713
G1 X211.892 Y74.507 E9.18321
G1 X213.285 Y76.782 E9.29411
G1 X214.159 Y78.12 E9.36056
G1 X214.635 Y78.869 E9.39745
G1 X214.77 Y79.103 E9.40868
G1 X215.103 Y79.741 E9.4386
G1 X215.274 Y80.079 E9.45435
G1 X215.58 Y80.693 E9.48287
G1 X216.182 Y81.926 E9.53992
G1 X216.313 Y82.198 E9.55247
G1 X216.612 Y82.845 E9.5821
G1 X216.714 Y83.093 E9.59325
G1 X216.969 Y83.794 E9.62427
G1 X217.438 Y85.143 E9.68364
G1 X218.404 Y87.692 E9.79697
G1 X219.455 Y90.243 E9.91168
G1 X220.558 Y92.72 E10.02441
G1 X221.263 Y94.189 E10.09215
G1 X221.577 Y94.864 E10.1231
G1 X221.681 Y95.115 E10.1344
G1 X221.927 Y95.787 E10.16415
G1 X222.186 Y96.53 E10.19686
G1 X222.527 Y97.533 E10.24091
G1 X222.8 Y98.362 E10.2772
G1 X223.025 Y99.086 E10.30872
G1 X223.093 Y99.342 E10.31973
G1 X223.249 Y100.047 E10.34975
G1 X223.535 Y101.433 E10.40858
G1 X224.172 Y104.134 E10.52396
G1 X224.871 Y106.761 E10.63698
G1 X225.646 Y109.38 E10.75053
G1 X226.131 Y110.858 E10.8152
G1 X226.374 Y111.63 E10.84885
G1 X226.445 Y111.891 E10.8601
G1 X226.608 Y112.623 E10.89128
G1 X226.706 Y113.089 E10.91107
G1 X226.937 Y114.243 E10.96
G1 X227.138 Y115.296 E11.00457
G1 X227.26 Y116.001 E11.03432
G1 X227.295 Y116.271 E11.04564
G1 X227.357 Y116.987 E11.07552
G1 X227.456 Y118.363 E11.13287
G1 X227.725 Y121.056 E11.24539
G1 X228.079 Y123.802 E11.3605
G1 X228.5 Y126.478 E11.47312
G1 X228.82 Y128.177 E11.545
G1 X228.946 Y128.896 E11.57535
G1 X228.981 Y129.165 E11.58663
G1 X229.043 Y129.865 E11.61585
G1 X229.102 Y130.665 E11.6492
G1 X229.175 Y131.781 E11.69569
G1 X229.221 Y132.6 E11.7298
G1 X229.251 Y133.338 E11.7605
G1 X229.251 Y133.61 E11.77181
G1 X229.22 Y134.288 E11.80003
G1 X229.136 Y135.709 E11.85921
G1 X229.051 Y138.507 E11.97559
G1 X229.045 Y141.226 E12.08864
G1 X229.117 Y143.97 E12.20276
G1 X229.207 Y145.598 E12.27054
G1 X229.239 Y146.344 E12.30159
G1 X229.239 Y146.615 E12.31286
G1 X229.206 Y147.403 E12.34565
G1 X229.159 Y148.206 E12.37909
G1 X229.091 Y149.22 E12.42134
G1 X229.031 Y150.028 E12.45502
G1 X228.963 Y150.784 E12.48658
G1 X228.927 Y151.053 E12.49787
G1 X228.806 Y151.739 E12.52683
G1 X228.527 Y153.194 E12.58842
G1 X228.087 Y155.905 E12.70261
G1 X227.728 Y158.6 E12.81564
G1 X227.439 Y161.349 E12.93056
G1 X227.32 Y162.931 E12.99652
G1 X227.254 Y163.68 E13.02778
G1 X227.218 Y163.951 E13.03914
G1 X227.093 Y164.661 E13.06912
G1 X226.945 Y165.438 E13.102
G1 X226.754 Y166.4 E13.14278
G1 X226.543 Y167.413 E13.1858
G1 X226.399 Y168.045 E13.21275
G1 X226.32 Y168.335 E13.22524
G1 X226.086 Y169.076 E13.25755
G1 X225.678 Y170.299 E13.31115
G1 X224.895 Y172.899 E13.42404
G1 X224.168 Y175.579 E13.53949
G1 X223.533 Y178.222 E13.6525
G1 X223.201 Y179.802 E13.71962
G1 X223.02 Y180.612 E13.75413
G1 X222.952 Y180.866 E13.76506
G1 X222.733 Y181.567 E13.79559
G1 X222.407 Y182.547 E13.83853
G1 X222.141 Y183.329 E13.87287
G1 X221.842 Y184.183 E13.91049
G1 X221.61 Y184.815 E13.93848
G1 X221.504 Y185.069 E13.94993
G1 X221.174 Y185.772 E13.98221
G1 X220.591 Y186.974 E14.03775
G1 X219.44 Y189.53 E14.1543
G1 X218.386 Y192.053 E14.26798
G1 X217.413 Y194.596 E14.38118
G1 X216.908 Y196.036 E14.44462
G1 X216.617 Y196.835 E14.47997
G1 X216.513 Y197.087 E14.49131
G1 X216.215 Y197.729 E14.52073
G1 X215.847 Y198.489 E14.55584
G1 X215.47 Y199.253 E14.59126
G1 X214.985 Y200.219 E14.6362
G1 X214.656 Y200.843 E14.66553
G1 X214.521 Y201.074 E14.67665
G1 X214.109 Y201.718 E14.70844
G1 X213.392 Y202.806 E14.76261
G1 X211.939 Y205.151 E14.8773
G1 X210.56 Y207.527 E14.99152
G1 X209.248 Y209.938 E15.10563
G1 X208.523 Y211.372 E15.17244
G1 X208.148 Y212.091 E15.20615
G1 X208.011 Y212.328 E15.21753
G1 X207.604 Y212.967 E15.24903
G1 X207.039 Y213.825 E15.29174
G1 X206.339 Y214.866 E15.3439
G1 X206.094 Y215.224 E15.36193
G1 X205.681 Y215.808 E15.39167
G1 X205.517 Y216.02 E15.40281
G1 X205.048 Y216.577 E15.43309
G1 X204.177 Y217.583 E15.48841
G1 X202.433 Y219.715 E15.60293
G1 X200.798 Y221.83 E15.71407
G1 X199.151 Y224.093 E15.83043
G1 X198.258 Y225.401 E15.89628
G1 X197.755 Y226.116 E15.93262
G1 X197.594 Y226.326 E15.94363
G1 X197.13 Y226.881 E15.9737
G1 X196.599 Y227.496 E16.00748
G1 X195.643 Y228.582 E16.06763
G1 X195.321 Y228.941 E16.08768
G1 X194.847 Y229.456 E16.11678
G1 X194.476 Y229.8 E16.13782
G1 X194.056 Y230.081 E16.15883
G1 X193.596 Y230.292 E16.17987
G1 X193.11 Y230.429 E16.20086
G1 X192.607 Y230.487 E16.22191
G1 X192.102 Y230.465 E16.24293
G1 X191.531 Y230.341 E16.26722
G1 X190.705 Y230.081 E16.30322
G1 X188.038 Y229.281 E16.41898
G1 X185.399 Y228.57 E16.53261
G1 X182.733 Y227.931 E16.64659
G1 X180.012 Y227.36 E16.76218
G1 X177.369 Y226.884 E16.87383
G1 X174.663 Y226.474 E16.98762
G1 X172.716 Y226.228 E17.06921
G1 X171.403 Y226.074 E17.12417
G1 X170.907 Y225.976 E17.14519
G1 X170.433 Y225.801 E17.1662
G1 X169.992 Y225.554 E17.18721
G1 X169.596 Y225.24 E17.20822
G1 X169.254 Y224.867 E17.22926
G1 X168.975 Y224.446 E17.25026
G1 X168.766 Y223.985 E17.27131
G1 X168.595 Y223.253 E17.30256
G1 X168.29 Y220.533 E17.41635
G1 X167.906 Y217.806 E17.53085
G1 X167.452 Y215.127 E17.64381
G1 X166.912 Y212.413 E17.75886
G1 X166.43 Y210.274 E17.85002
G1 X166.213 Y209.36 E17.88908
G1 X166.136 Y208.861 E17.91007
G1 X166.138 Y208.355 E17.9311
G1 X166.22 Y207.856 E17.95213
G1 X166.379 Y207.376 E17.97315
G1 X166.612 Y206.928 E17.99414
G1 X166.947 Y206.483 E18.0173
G1 X169.117 Y204.069 E18.15225
G1 X170.926 Y201.949 E18.26812
G1 X172.817 Y199.595 E18.39366
G1 X174.707 Y197.082 E18.52438
G1 X176.275 Y194.861 E18.63742
G1 X178.124 Y192.061 E18.77692
G1 X179.549 Y189.748 E18.88987
G1 X180.913 Y187.391 E19.00308
G1 X182.694 Y184.06 E19.16012
G1 X183.884 Y181.644 E19.27209
G1 X185.026 Y179.152 E19.38606
G1 X186.101 Y176.619 E19.50046
G1 X186.654 Y175.23 E19.56262
G1 X186.681 Y175.139 E19.56656
G1 X187.349 Y173.399 E19.64405
G1 X188.249 Y170.84 E19.75683
G1 X189.098 Y168.185 E19.87272
G1 X189.564 Y166.604 E19.94124
G1 X190.291 Y163.915 E20.05705
G1 X190.924 Y161.282 E20.16964
G1 X191.431 Y158.901 E20.27085
G1 X191.924 Y156.232 E20.38369
G1 X192.347 Y153.521 E20.49777
G1 X192.832 Y149.511 E20.6657
G1 X193.061 Y146.826 E20.77773
G1 X193.219 Y144.076 E20.89225
G1 X193.299 Y141.334 E21.0063
G1 X193.311 Y139.853 E21.06787
G1 X193.271 Y137.08 E21.18317
G1 X193.156 Y134.358 E21.29644
G1 X192.909 Y131.026 E21.43535
G1 X192.626 Y128.335 E21.54785
G1 X192.258 Y125.584 E21.66324
G1 X191.877 Y123.219 E21.76283
G1 X191.221 Y119.806 E21.90733
G1 X190.617 Y117.129 E22.02142
G1 X190.273 Y115.741 E22.08087
G1 X189.547 Y113.063 E22.19623
G1 X188.761 Y110.458 E22.30936
G1 X187.547 Y106.871 E22.4668
G1 X186.584 Y104.313 E22.58043
G1 X185.547 Y101.775 E22.69442
G1 X184.446 Y99.283 E22.80768
G1 X183.634 Y97.559 E22.88691
G1 X182.398 Y95.088 E23.00178
G1 X181.111 Y92.69 E23.11493
G1 X179.822 Y90.438 E23.22281
G1 X178.393 Y88.088 E23.33715
G1 X176.916 Y85.808 E23.4501
G1 X175.344 Y83.527 E23.56527
G1 X174.146 Y81.877 E23.65004
G1 X172.465 Y79.673 E23.76529
G1 X170.75 Y77.561 E23.8784
G1 X169.246 Y75.8 E23.97468
G1 X167.89 Y74.282 E24.0593
G1 X165.984 Y72.254 E24.17501
G1 X163.62 Y69.89 E24.314
G1 X161.604 Y67.996 E24.42901
G1 X159.583 Y66.202 E24.54136
G1 X157.855 Y64.745 E24.63533
G1 X155.702 Y63.023 E24.74995
G1 X153.518 Y61.374 E24.86372
G1 X151.29 Y59.79 E24.97738
G1 X149.023 Y58.272 E25.09081
G1 X146.707 Y56.813 E25.20461
G1 X144.369 Y55.43 E25.31754
G1 X141.862 Y54.044 E25.43664
G1 X139.452 Y52.798 E25.54944
G1 X136.985 Y51.611 E25.66326
G1 X134.312 Y50.418 E25.78495
G1 X131.764 Y49.367 E25.89955
G1 X129.244 Y48.414 E26.01156
G1 X126.733 Y47.552 E26.12193
G1 X126.232 Y47.381 E26.14394
G1 X124.151 Y46.72 E26.23472
G1 X121.547 Y45.974 E26.34734
G1 X118.862 Y45.285 E26.46258
G1 X116.179 Y44.675 E26.57697
G1 X115.918 Y44.622 E26.58805
G1 X113.241 Y44.102 E26.70142
G1 X110.544 Y43.655 E26.81508
G1 X108.306 Y43.344 E26.90902
G1 X105.589 Y43.037 E27.0227
G1 X102.841 Y42.804 E27.13736
G1 X100.103 Y42.65 E27.25137
G1 X98.653 Y42.6 E27.31169
G1 X95.895 Y42.564 E27.42636
G1 X92.86 Y42.615 E27.55256
G1 X89.042 Y42.813 E27.71151
G1 X86.346 Y43.045 E27.82401
G1 X84.393 Y43.259 E27.90569
G1 X83.143 Y43.427 E27.95813
G1 X83.057 Y43.432 E27.96171
G1 X82.452 Y43.521 E27.98713
G1 X81.677 Y43.625 E28.01964
G1 X80.986 Y43.738 E28.04875
G1 X80.395 Y43.825 E28.07359
G1 X79.7 Y43.948 E28.10293
G1 X78.98 Y44.066 E28.13327
G1 X78.353 Y44.186 E28.15981
G1 X77.725 Y44.297 E28.18632
G1 X76.949 Y44.456 E28.21925
G1 X76.329 Y44.575 E28.2455
G1 X75.871 Y44.679 E28.26503
G1 X75.056 Y44.847 E28.29962
G1 X73.046 Y45.325 E28.38552
G1 X72.482 Y45.453 E28.40957
G1 X72.424 Y45.474 E28.41213
G1 X71.88 Y45.604 E28.43538
G1 X69.247 Y46.317 E28.54879
G1 X66.625 Y47.108 E28.66266
G1 X63.144 Y48.284 E28.81542
G1 X60.583 Y49.243 E28.92911
G1 X58.083 Y50.26 E29.04132
G1 X55.556 Y51.373 E29.15612
G1 X53.12 Y52.528 E29.2682
G1 X50.632 Y53.795 E29.38428
G1 X47.923 Y55.278 E29.51268
G1 X45.511 Y56.696 E29.62901
G1 X43.224 Y58.128 E29.74119
G1 X42.016 Y58.943 E29.80177
G1 X41.874 Y59.023 E29.80855
G1 X40.651 Y59.865 E29.87028
G1 X40.005 Y60.301 E29.90268
G1 X39.71 Y60.512 E29.91776
G1 X39.114 Y60.947 E29.94844
G1 X37.807 Y61.894 E30.01554
G1 X37.525 Y62.106 E30.03021
G1 X35.341 Y63.798 E30.14507
G1 X34.796 Y64.243 E30.17432
G1 X33.22 Y65.537 E30.2591
G1 X31.191 Y67.301 E30.37088
G1 X29.146 Y69.181 E30.48637
G1 X28.36 Y69.942 E30.53185
G1 X28.13 Y70.158 E30.54497
G1 X27.238 Y71.017 E30.59646
G1 X26.847 Y71.338 E30.61749
G1 X26.411 Y71.593 E30.63849
G1 X25.939 Y71.776 E30.65954
G1 X25.445 Y71.883 E30.68055
G1 X24.94 Y71.911 E30.70158
G1 X24.438 Y71.859 E30.72256
G1 X23.715 Y71.635 E30.75403
G1 X22.392 Y71.045 E30.81426
G1 X21.921 Y70.832 E30.83575
G1 X19.411 Y69.766 E30.94912
G1 X16.865 Y68.768 E31.06281
G1 X13.072 Y67.432 E31.23
G1 X11.832 Y67.023 E31.28429
G1 X11.499 Y66.892 E31.29917
G1 X11.057 Y66.647 E31.32018
G1 X10.658 Y66.336 E31.34121
G1 X10.314 Y65.965 E31.36224
G1 X10.033 Y65.545 E31.38325
G1 X9.821 Y65.086 E31.40427
