;FLAVOR:Marlin
;TIME:1509
;Filament used: 3.84541m
;Layer height: 0.4
;MINX:20.441
;MINY:135.403
;MINZ:0.25
;MAXX:100.757
;MAXY:215.456
;MAXZ:6.65
;Generated with Cura_SteamEngine 4.8.0
M140 S60
M105
M190 S60
M104 S210
M105
M109 S210
M82 ;absolute extrusion mode
G28 ;home
G92 E0 ;Reset Extruder
G1 Z4.0 F3000 ;Move Z Axis up
G92 E0 ;Reset Extruder
G1 X1.1 Y20 Z0.28 F5000.0 ;Move to start position
G1 X1.1 Y200.0 Z0.28 F1500.0 E15 ;Draw the first line
G1 X1.4 Y200.0 Z0.28 F5000.0 ;Move to side a little
G1 X1.4 Y20 Z0.28 F1500.0 E30 ;Draw the second line
G92 E0 ;Reset Extruder
G1 Z2.0 F3000 ;Move Z Axis up
G92 E0
G92 E0
G1 F4200 E-5
;LAYER_COUNT:17
;LAYER:0
M107
G0 F2400 X47.645 Y137.418 Z0.25
;TYPE:SKIRT
G1 F4200 E0
G1 F1800 X48.304 Y137.2 E0.02886
G1 X48.594 Y137.11 E0.04148
G1 X49.111 Y136.96 E0.06386
G1 X49.367 Y136.897 E0.07482
G1 X50.244 Y136.72 E0.11202
G1 X51.372 Y136.509 E0.15973
G1 X54.943 Y135.718 E0.31179
G1 X55.575 Y135.591 E0.33859
G1 X56.32 Y135.5 E0.3698
G1 X56.906 Y135.444 E0.39427
G1 X57.605 Y135.403 E0.42338
G1 X58.522 Y135.413 E0.46151
G1 X59.657 Y135.441 E0.50871
G1 X63.365 Y135.408 E0.66288
G1 X64.117 Y135.428 E0.69416
G1 X64.231 Y135.437 E0.69891
G1 X64.936 Y135.506 E0.72836
G1 X65.163 Y135.533 E0.73786
G1 X65.751 Y135.613 E0.76254
G1 X66.014 Y135.66 E0.77364
G1 X66.732 Y135.82 E0.80423
G1 X68.137 Y136.152 E0.86425
G1 X71.58 Y136.85 E1.0103
G1 X72.294 Y137.015 E1.04077
G1 X72.398 Y137.045 E1.04527
G1 X73.021 Y137.241 E1.07242
G1 X73.422 Y137.376 E1.09001
G1 X73.9 Y137.547 E1.11112
G1 X74.158 Y137.652 E1.1227
G1 X75.035 Y138.056 E1.16285
G1 X75.953 Y138.492 E1.2051
G1 X79.439 Y140.008 E1.36314
G1 X80.075 Y140.312 E1.39245
G1 X80.184 Y140.371 E1.3976
G1 X80.808 Y140.727 E1.42747
G1 X81.006 Y140.845 E1.43705
G1 X81.508 Y141.156 E1.4616
G1 X81.731 Y141.307 E1.4728
G1 X82.309 Y141.737 E1.50275
G1 X83.343 Y142.526 E1.55682
G1 X86.547 Y144.806 E1.72032
G1 X87.078 Y145.239 E1.7488
G1 X87.546 Y145.654 E1.77481
G1 X87.738 Y145.831 E1.78566
G1 X88.151 Y146.225 E1.80939
G1 X88.381 Y146.464 E1.82319
G1 X88.788 Y146.925 E1.84875
G1 X89.695 Y147.981 E1.90663
G1 X92.226 Y150.742 E2.06235
G1 X92.68 Y151.277 E2.09152
G1 X92.749 Y151.367 E2.09623
G1 X93.141 Y151.898 E2.12368
G1 X93.309 Y152.135 E2.13575
G1 X93.623 Y152.594 E2.15887
G1 X93.769 Y152.829 E2.17038
G1 X94.127 Y153.464 E2.20068
G1 X94.855 Y154.792 E2.26365
G1 X96.617 Y157.781 E2.4079
G1 X96.987 Y158.45 E2.43968
G1 X97.247 Y159.011 E2.46539
G1 X97.47 Y159.524 E2.48865
G1 X97.746 Y160.228 E2.52008
G1 X97.986 Y160.993 E2.55342
G1 X98.333 Y162.157 E2.60392
G1 X99.397 Y165.361 E2.74428
G1 X99.578 Y165.875 E2.76693
G1 X99.735 Y166.438 E2.79123
G1 X99.762 Y166.549 E2.79598
G1 X99.887 Y167.116 E2.82012
G1 X99.949 Y167.42 E2.83302
G1 X100.056 Y168 E2.85754
G1 X100.094 Y168.273 E2.869
G1 X100.152 Y168.878 E2.89427
G1 X100.278 Y170.415 E2.95838
G1 X100.694 Y174.03 E3.10967
G1 X100.75 Y174.748 E3.13961
G1 X100.753 Y174.867 E3.14456
G1 X100.757 Y175.441 E3.16842
G1 X100.754 Y175.829 E3.18456
G1 X100.738 Y176.374 E3.20722
G1 X100.718 Y176.647 E3.2186
G1 X100.613 Y177.553 E3.25652
G1 X100.471 Y178.638 E3.30202
G1 X100.112 Y182.362 E3.45756
G1 X99.997 Y183.2 E3.49273
G1 X99.863 Y183.854 E3.52048
G1 X99.795 Y184.165 E3.53372
G1 X99.664 Y184.7 E3.55662
G1 X99.591 Y184.952 E3.56753
G1 X99.381 Y185.582 E3.59514
G1 X98.885 Y186.995 E3.6574
G1 X97.835 Y190.33 E3.80276
G1 X97.674 Y190.836 E3.82483
G1 X97.521 Y191.223 E3.84214
G1 X97.264 Y191.81 E3.86878
G1 X97.11 Y192.146 E3.88414
G1 X96.879 Y192.625 E3.90625
G1 X96.751 Y192.865 E3.91756
G1 X96.323 Y193.588 E3.95249
G1 X95.71 Y194.592 E4.0014
G1 X93.831 Y197.917 E4.16018
G1 X93.474 Y198.491 E4.18829
G1 X93.038 Y199.102 E4.21949
G1 X92.875 Y199.323 E4.23091
G1 X92.514 Y199.79 E4.25545
G1 X92.341 Y199.995 E4.2666
G1 X91.859 Y200.521 E4.29626
G1 X90.931 Y201.503 E4.35244
G1 X88.407 Y204.361 E4.51096
G1 X88.057 Y204.728 E4.53205
G1 X87.508 Y205.24 E4.56326
G1 X87.157 Y205.549 E4.5827
G1 X86.744 Y205.899 E4.6052
G1 X86.533 Y206.063 E4.61632
G1 X85.969 Y206.465 E4.64511
G1 X84.863 Y207.228 E4.70097
G1 X81.713 Y209.564 E4.86402
G1 X81.289 Y209.846 E4.88519
G1 X80.749 Y210.166 E4.91128
G1 X80.289 Y210.426 E4.93325
G1 X79.847 Y210.664 E4.95412
G1 X79.606 Y210.78 E4.96524
G1 X78.936 Y211.072 E4.99563
G1 X77.766 Y211.559 E5.04832
G1 X74.304 Y213.136 E5.20648
G1 X73.669 Y213.4 E5.23507
G1 X73.553 Y213.441 E5.24019
G1 X72.901 Y213.657 E5.26874
G1 X72.61 Y213.748 E5.28142
G1 X72.085 Y213.9 E5.30414
G1 X71.831 Y213.962 E5.31501
G1 X70.954 Y214.139 E5.35221
G1 X69.826 Y214.35 E5.39992
G1 X66.255 Y215.141 E5.55198
G1 X65.633 Y215.266 E5.57836
G1 X64.87 Y215.359 E5.61031
G1 X64.307 Y215.413 E5.63383
G1 X63.579 Y215.456 E5.66415
G1 X62.767 Y215.447 E5.69791
G1 X61.647 Y215.418 E5.74449
G1 X57.87 Y215.45 E5.90152
G1 X57.111 Y215.434 E5.93309
G1 X56.98 Y215.423 E5.93855
G1 X56.044 Y215.328 E5.97767
G1 X55.443 Y215.246 E6.00289
G1 X55.182 Y215.199 E6.01391
G1 X54.522 Y215.052 E6.04202
G1 X53.057 Y214.705 E6.10462
G1 X49.632 Y214.012 E6.2499
G1 X49.136 Y213.908 E6.27097
G1 X48.8 Y213.814 E6.28547
G1 X48.177 Y213.618 E6.31262
G1 X47.296 Y213.311 E6.35141
G1 X47.042 Y213.207 E6.36282
G1 X46.163 Y212.803 E6.40304
G1 X45.234 Y212.362 E6.4458
G1 X41.652 Y210.806 E6.60816
G1 X41.121 Y210.545 E6.63276
G1 X41.011 Y210.485 E6.63797
G1 X40.412 Y210.145 E6.66661
G1 X40.169 Y210 E6.67837
G1 X39.72 Y209.723 E6.70031
G1 X39.496 Y209.572 E6.71154
G1 X38.882 Y209.117 E6.74331
G1 X37.789 Y208.284 E6.80044
G1 X34.655 Y206.056 E6.96031
G1 X34.138 Y205.637 E6.98798
G1 X33.735 Y205.279 E7.01039
G1 X33.039 Y204.627 E7.05004
G1 X32.855 Y204.435 E7.06109
G1 X32.269 Y203.771 E7.09791
G1 X31.466 Y202.836 E7.14915
G1 X28.943 Y200.087 E7.30428
G1 X28.537 Y199.607 E7.33042
G1 X28.409 Y199.437 E7.33927
G1 X28.077 Y198.987 E7.36252
G1 X27.863 Y198.686 E7.37787
G1 X27.569 Y198.254 E7.3996
G1 X27.427 Y198.027 E7.41073
G1 X27.064 Y197.383 E7.44146
G1 X26.404 Y196.175 E7.49869
G1 X24.427 Y192.826 E7.66038
G1 X24.109 Y192.194 E7.68979
G1 X23.767 Y191.43 E7.72459
G1 X23.548 Y190.898 E7.74851
G1 X23.456 Y190.643 E7.75978
G1 X23.196 Y189.817 E7.79579
G1 X22.865 Y188.708 E7.8439
G1 X22.012 Y186.119 E7.95723
G1 X21.908 Y185.832 E7.96992
G1 X21.625 Y185 E8.00646
G1 X21.548 Y184.734 E8.01797
G1 X21.365 Y183.988 E8.04991
G1 X21.256 Y183.473 E8.07179
G1 X21.142 Y182.854 E8.09796
G1 X21.104 Y182.585 E8.10926
G1 X21.046 Y181.981 E8.13448
G1 X20.92 Y180.444 E8.1986
G1 X20.509 Y176.868 E8.34825
G1 X20.451 Y176.2 E8.37613
G1 X20.447 Y176.074 E8.38137
G1 X20.441 Y175.373 E8.41051
G1 X20.445 Y174.999 E8.42606
G1 X20.462 Y174.472 E8.44799
G1 X20.481 Y174.21 E8.45891
G1 X20.582 Y173.333 E8.49561
G1 X20.724 Y172.245 E8.54123
G1 X21.102 Y168.325 E8.70496
G1 X21.175 Y167.802 E8.72691
G1 X21.226 Y167.532 E8.73834
G1 X21.335 Y167.001 E8.76087
G1 X21.409 Y166.667 E8.77509
G1 X21.537 Y166.148 E8.79732
G1 X21.609 Y165.901 E8.80802
G1 X21.836 Y165.22 E8.83786
G1 X22.353 Y163.742 E8.90296
G1 X23.394 Y160.423 E9.04757
G1 X23.616 Y159.785 E9.07566
G1 X23.667 Y159.662 E9.0812
G1 X23.941 Y159.034 E9.10968
G1 X24.314 Y158.241 E9.14612
G1 X24.443 Y158.001 E9.15744
G1 X24.913 Y157.208 E9.19577
G1 X25.485 Y156.271 E9.24141
G1 X27.393 Y152.901 E9.40242
G1 X27.708 Y152.39 E9.42737
G1 X27.834 Y152.211 E9.43647
G1 X28.18 Y151.729 E9.46114
G1 X28.319 Y151.544 E9.47076
G1 X28.681 Y151.073 E9.49546
G1 X28.857 Y150.863 E9.50685
G1 X29.257 Y150.427 E9.53145
G1 X30.318 Y149.302 E9.59574
G1 X32.753 Y146.544 E9.7487
G1 X33.156 Y146.117 E9.77311
G1 X33.728 Y145.586 E9.80556
G1 X34.032 Y145.318 E9.82241
G1 X34.458 Y144.957 E9.84562
G1 X34.671 Y144.791 E9.85685
G1 X35.215 Y144.404 E9.88461
G1 X36.373 Y143.604 E9.94312
G1 X39.303 Y141.435 E10.09468
G1 X39.885 Y141.029 E10.12419
G1 X39.995 Y140.961 E10.12956
G1 X40.536 Y140.643 E10.15565
G1 X40.896 Y140.44 E10.17284
G1 X41.348 Y140.196 E10.19419
G1 X41.598 Y140.075 E10.20574
G1 X42.349 Y139.75 E10.23976
G1 X43.538 Y139.254 E10.29332
G1 X46.813 Y137.761 E10.44296
G1 X47.528 Y137.46 E10.47521
G1 X47.645 Y137.418 E10.48038
G1 F4200 E5.48038
;MESH:30-10 gear.stl
G0 F2400 X49.121 Y140.949
G0 X66.38 Y172.646
G0 X66.731 Y173.539
G0 X66.944 Y174.474
G0 X67.016 Y175.43
G0 X66.944 Y176.385
G0 X66.753 Y177.226
G0 X65.568 Y180.04
;TYPE:WALL-INNER
G1 F4200 E10.48038
G1 F1500 X66.209 Y179.233 E10.52323
G1 X66.705 Y178.37 E10.56461
G1 X67.076 Y177.427 E10.60674
G1 X67.302 Y176.44 E10.64884
G1 X67.377 Y175.43 E10.69095
G1 X67.302 Y174.419 E10.73309
G1 X67.076 Y173.432 E10.77519
G1 X66.705 Y172.489 E10.81732
G1 X66.19 Y171.599 E10.86007
G1 X65.568 Y170.82 E10.90152
G1 X64.825 Y170.129 E10.9437
G1 X63.987 Y169.56 E10.98581
G1 X63.961 Y169.548 E10.987
G1 X63.076 Y169.121 E11.02786
G1 X62.107 Y168.821 E11.07003
G1 X61.106 Y168.671 E11.11211
G1 X60.093 Y168.671 E11.15423
G1 X59.091 Y168.821 E11.19635
G1 X58.122 Y169.121 E11.23852
G1 X57.211 Y169.56 E11.28056
G1 X56.374 Y170.129 E11.32264
G1 X55.631 Y170.82 E11.36483
G1 X54.99 Y171.624 E11.40758
G1 X54.492 Y172.489 E11.44907
G1 X54.123 Y173.432 E11.49117
G1 X53.897 Y174.419 E11.53327
G1 X53.821 Y175.43 E11.57542
G1 X53.897 Y176.44 E11.61753
G1 X54.123 Y177.427 E11.65963
G1 X54.493 Y178.37 E11.70174
G1 X55.009 Y179.26 E11.74451
G1 X55.631 Y180.04 E11.78599
G1 X56.374 Y180.73 E11.82815
G1 X57.211 Y181.299 E11.87023
G1 X57.237 Y181.311 E11.87142
G1 X58.122 Y181.738 E11.91227
G1 X59.091 Y182.038 E11.95444
G1 X60.093 Y182.188 E11.99656
G1 X61.106 Y182.188 E12.03868
G1 X62.107 Y182.038 E12.08076
G1 X63.076 Y181.738 E12.12293
G1 X63.987 Y181.299 E12.16498
G1 X64.825 Y180.73 E12.20709
G1 X65.568 Y180.04 E12.24925
G0 F2400 X65.274 Y179.767
G1 F1500 X65.877 Y179.008 E12.28955
G1 X66.344 Y178.196 E12.32849
G1 X66.693 Y177.309 E12.36812
G1 X66.905 Y176.38 E12.40774
G1 X66.976 Y175.43 E12.44734
G1 X66.905 Y174.479 E12.48699
G1 X66.693 Y173.55 E12.52661
G1 X66.344 Y172.663 E12.56624
G1 X65.859 Y171.825 E12.60649
G1 X65.274 Y171.093 E12.64545
G1 X64.575 Y170.443 E12.68513
G1 X63.787 Y169.907 E12.72475
G1 X62.929 Y169.494 E12.76434
G1 X62.018 Y169.212 E12.80399
G1 X61.076 Y169.071 E12.84359
G1 X60.123 Y169.071 E12.88321
G1 X59.18 Y169.212 E12.92285
G1 X58.269 Y169.494 E12.9625
G1 X57.411 Y169.907 E13.00209
G1 X56.624 Y170.443 E13.04168
G1 X55.925 Y171.093 E13.08136
G1 X55.322 Y171.85 E13.1216
G1 X54.854 Y172.663 E13.1606
G1 X54.506 Y173.55 E13.20021
G1 X54.294 Y174.479 E13.23983
G1 X54.222 Y175.43 E13.27948
G1 X54.294 Y176.38 E13.31909
G1 X54.506 Y177.309 E13.35871
G1 X54.854 Y178.196 E13.39832
G1 X55.34 Y179.034 E13.4386
G1 X55.925 Y179.767 E13.47759
G1 X56.624 Y180.416 E13.51724
G1 X57.411 Y180.952 E13.55683
G1 X58.269 Y181.365 E13.59642
G1 X59.18 Y181.647 E13.63607
G1 X60.123 Y181.788 E13.67571
G1 X61.076 Y181.788 E13.71533
G1 X62.018 Y181.647 E13.75493
G1 X62.929 Y181.365 E13.79458
G1 X63.787 Y180.952 E13.83417
G1 X64.575 Y180.416 E13.87379
G1 X65.274 Y179.767 E13.91344
G0 F2400 X64.98 Y179.494
;TYPE:WALL-OUTER
G1 F1500 X65.545 Y178.783 E13.9512
G1 X65.983 Y178.022 E13.98771
G1 X66.31 Y177.191 E14.02483
G1 X66.508 Y176.32 E14.06197
G1 X66.575 Y175.43 E14.09908
G1 X66.508 Y174.539 E14.13622
G1 X66.31 Y173.668 E14.17336
G1 X65.983 Y172.837 E14.21049
G1 X65.528 Y172.051 E14.24825
G1 X64.98 Y171.366 E14.28472
G1 X64.325 Y170.757 E14.3219
G1 X63.587 Y170.254 E14.35903
G1 X62.782 Y169.867 E14.39617
G1 X61.929 Y169.603 E14.43329
G1 X61.046 Y169.471 E14.47041
G1 X60.153 Y169.471 E14.50754
G1 X59.269 Y169.603 E14.5447
G1 X58.416 Y169.867 E14.58182
G1 X57.612 Y170.254 E14.61892
G1 X56.874 Y170.757 E14.65605
G1 X56.219 Y171.366 E14.69323
G1 X55.654 Y172.076 E14.73096
G1 X55.215 Y172.837 E14.76748
G1 X54.889 Y173.668 E14.80459
G1 X54.691 Y174.539 E14.84173
G1 X54.623 Y175.43 E14.87888
G1 X54.691 Y176.32 E14.91599
G1 X54.889 Y177.191 E14.95313
G1 X55.215 Y178.022 E14.99024
G1 X55.671 Y178.808 E15.02802
G1 X56.219 Y179.494 E15.06452
G1 X56.874 Y180.102 E15.10168
G1 X57.612 Y180.605 E15.13881
G1 X58.416 Y180.992 E15.1759
G1 X59.269 Y181.256 E15.21303
G1 X60.153 Y181.388 E15.25019
G1 X61.046 Y181.388 E15.28731
G1 X61.929 Y181.256 E15.32443
G1 X62.782 Y180.992 E15.36156
G1 X63.587 Y180.605 E15.39869
G1 X64.325 Y180.102 E15.43582
G1 X64.98 Y179.494 E15.47298
G0 F2400 X65.104 Y179.338
G0 X65.447 Y179.611
G1 F4200 E10.47298
G0 F2400 X65.494 Y179.65
G0 X84.816 Y202.01
;TYPE:WALL-INNER
G1 F4200 E15.47298
G1 F1500 X84.505 Y202.291 E15.4904
G1 X84.012 Y202.08 E15.5127
G1 X83.036 Y201.568 E15.55852
G1 X82.151 Y200.985 E15.60258
G1 X81.758 Y200.669 E15.62355
G1 X81.459 Y200.371 E15.6411
G1 X80.637 Y199.327 E15.69634
G1 X80.393 Y199.016 E15.71278
G1 X78.996 Y200.084 E15.78588
G1 X78.337 Y200.562 E15.81973
G1 X76.913 Y201.544 E15.89165
G1 X77.874 Y202.978 E15.96341
G1 X78.241 Y203.814 E16.00137
G1 X78.528 Y204.863 E16.04659
G1 X78.714 Y205.942 E16.09211
G1 X78.761 Y206.466 E16.11398
G1 X78.398 Y206.676 E16.13142
G1 X77.979 Y206.381 E16.15272
G1 X77.109 Y205.658 E16.19975
G1 X76.364 Y204.906 E16.24376
G1 X75.817 Y204.159 E16.28225
G1 X75.059 Y202.617 E16.35369
G1 X73.451 Y203.377 E16.42763
G1 X72.732 Y203.698 E16.46037
G1 X71.128 Y204.364 E16.53258
G1 X71.769 Y205.964 E16.60424
G1 X71.956 Y206.871 E16.64274
G1 X72.017 Y207.939 E16.68721
G1 X71.974 Y209.027 E16.73248
G1 X71.909 Y209.564 E16.75497
G1 X71.512 Y209.691 E16.7723
G1 X71.128 Y209.278 E16.79575
G1 X70.461 Y208.428 E16.84067
G1 X69.889 Y207.534 E16.88479
G1 X69.511 Y206.697 E16.92297
G1 X69.092 Y205.029 E16.99448
G1 X67.372 Y205.437 E17.06797
G1 X66.586 Y205.604 E17.10138
G1 X64.883 Y205.92 E17.17339
G1 X65.173 Y207.61 E17.24468
G1 X65.174 Y208.518 E17.28243
G1 X65.012 Y209.585 E17.3273
G1 X64.734 Y210.681 E17.37431
G1 X64.567 Y211.167 E17.39567
G1 X64.151 Y211.213 E17.41307
G1 X63.87 Y210.741 E17.43591
G1 X63.386 Y209.76 E17.48139
G1 X63.01 Y208.765 E17.52561
G1 X62.816 Y207.872 E17.5636
G1 X62.752 Y206.145 E17.63545
G1 X60.972 Y206.19 E17.70948
G1 X60.196 Y206.189 E17.74174
G1 X58.448 Y206.145 E17.81444
G1 X58.382 Y207.874 E17.88638
G1 X58.314 Y208.302 E17.90439
G1 X58.182 Y208.782 E17.92509
G1 X57.812 Y209.763 E17.96868
G1 X57.324 Y210.753 E18.01457
G1 X57.049 Y211.213 E18.03685
G1 X56.633 Y211.167 E18.05425
G1 X56.454 Y210.637 E18.07751
G1 X56.183 Y209.569 E18.12332
G1 X56.027 Y208.538 E18.16667
G1 X56.025 Y207.605 E18.20546
G1 X56.316 Y205.921 E18.27651
G1 X54.573 Y205.596 E18.35022
G1 X53.81 Y205.433 E18.38266
G1 X52.109 Y205.027 E18.45537
G1 X51.683 Y206.712 E18.52763
G1 X51.317 Y207.522 E18.56458
G1 X50.731 Y208.437 E18.60975
G1 X50.051 Y209.298 E18.65537
G1 X49.686 Y209.692 E18.6777
G1 X49.289 Y209.565 E18.69503
G1 X49.224 Y209.009 E18.7183
G1 X49.182 Y207.907 E18.76415
G1 X49.245 Y206.86 E18.80776
G1 X49.433 Y205.956 E18.84614
G1 X50.071 Y204.364 E18.91745
G1 X48.446 Y203.69 E18.99059
G1 X47.731 Y203.371 E19.02314
G1 X46.141 Y202.617 E19.0963
G1 X45.378 Y204.167 E19.16813
G1 X44.841 Y204.899 E19.20587
G1 X44.07 Y205.677 E19.25141
G1 X43.232 Y206.372 E19.29667
G1 X42.801 Y206.675 E19.31858
G1 X42.437 Y206.464 E19.33607
G1 X42.482 Y205.95 E19.35752
G1 X42.668 Y204.867 E19.4032
G1 X42.961 Y203.802 E19.44913
G1 X43.326 Y202.976 E19.48667
G1 X44.285 Y201.544 E19.55832
G1 X42.84 Y200.547 E19.63131
G1 X42.173 Y200.062 E19.6656
G1 X40.805 Y199.014 E19.73725
G1 X39.74 Y200.369 E19.8089
G1 X39.047 Y200.986 E19.84747
G1 X38.17 Y201.563 E19.89112
G1 X37.214 Y202.066 E19.93603
G1 X36.692 Y202.29 E19.95965
G1 X36.381 Y202.011 E19.97702
G1 X36.522 Y201.55 E19.99706
G1 X36.935 Y200.509 E20.04362
G1 X36.957 Y200.461 E20.04582
G1 X37.44 Y199.528 E20.0895
G1 X37.975 Y198.782 E20.12766
