;FLAVOR:Marlin
;TIME:4653
;Filament used: 9.98125m
;Layer height: 0.4
;MINX:8.339
;MINY:6.605
;MINZ:0.25
;MAXX:232.037
;MAXY:230.469
;MAXZ:9.85
;Generated with Cura_SteamEngine 4.8.0
M140 S50
M105
M190 S50
M104 S200
M105
M109 S200
M82 ;absolute extrusion mode
G28 ;home
G92 E0 ;Reset Extruder
G1 Z4.0 F3000 ;Move Z Axis up
G92 E0 ;Reset Extruder
G1 X1.1 Y20 Z0.28 F5000.0 ;Move to start position
G1 X1.1 Y200.0 Z0.28 F1500.0 E15 ;Draw the first line
G1 X1.4 Y200.0 Z0.28 F5000.0 ;Move to side a little
G1 X1.4 Y20 Z0.28 F1500.0 E30 ;Draw the second line
G92 E0 ;Reset Extruder
G1 Z2.0 F3000 ;Move Z Axis up
G92 E0
G92 E0
;LAYER_COUNT:25
;LAYER:0
M107
G0 F2100 X31.519 Y21.835 Z0.25
;TYPE:SKIRT
G1 F1800 X31.91 Y21.283 E0.02812
G1 X32.073 Y21.072 E0.03921
G1 X32.602 Y20.444 E0.07335
G1 X33.441 Y19.475 E0.12664
G1 X35.182 Y17.345 E0.24101
G1 X36.833 Y15.203 E0.35345
G1 X38.468 Y12.957 E0.46895
G1 X39.337 Y11.684 E0.53303
G1 X39.826 Y10.988 E0.56839
G1 X39.988 Y10.777 E0.57945
G1 X40.503 Y10.16 E0.61286
G1 X41.111 Y9.46 E0.65141
G1 X41.638 Y8.858 E0.68467
G1 X42.307 Y8.109 E0.72643
G1 X42.745 Y7.634 E0.75329
G1 X43.117 Y7.29 E0.77436
G1 X43.537 Y7.01 E0.79534
G1 X43.996 Y6.799 E0.81634
G1 X44.483 Y6.663 E0.83737
G1 X44.986 Y6.605 E0.85842
G1 X45.491 Y6.627 E0.87943
G1 X46.059 Y6.751 E0.9036
G1 X46.763 Y6.973 E0.93429
G1 X48.279 Y7.474 E1.00067
G1 X50.922 Y8.306 E1.11587
G1 X53.527 Y9.046 E1.22846
G1 X56.219 Y9.729 E1.34393
G1 X57.959 Y10.127 E1.41814
G1 X58.552 Y10.258 E1.44338
G1 X59.035 Y10.406 E1.46439
G1 X59.49 Y10.628 E1.48544
G1 X59.903 Y10.919 E1.50644
G1 X60.211 Y11.209 E1.52403
G1 X62.124 Y13.276 E1.64112
G1 X64.005 Y15.195 E1.75284
G1 X66.774 Y17.839 E1.91201
G1 X67.614 Y18.611 E1.95944
G1 X68.134 Y19.116 E1.98958
G1 X72.397 Y23.38 E2.24026
G1 X72.857 Y23.852 E2.26766
G1 X73.18 Y24.24 E2.28865
G1 X73.438 Y24.675 E2.30968
G1 X73.624 Y25.145 E2.33069
G1 X73.734 Y25.639 E2.35173
G1 X73.764 Y26.143 E2.37272
G1 X73.715 Y26.647 E2.39377
G1 X73.588 Y27.136 E2.41478
G1 X73.384 Y27.599 E2.43581
G1 X73.111 Y28.024 E2.45682
G1 X72.881 Y28.293 E2.47153
G1 X71.498 Y29.744 E2.55487
G1 X70.868 Y30.393 E2.59247
G1 X69.004 Y32.422 E2.70702
G1 X66.666 Y35.14 E2.85608
G1 X64.943 Y37.279 E2.97027
G1 X63.293 Y39.45 E3.08364
G1 X61.562 Y41.873 E3.20744
G1 X60.059 Y44.111 E3.31952
G1 X58.137 Y47.183 E3.47018
G1 X56.773 Y49.532 E3.58311
G1 X55.455 Y51.954 E3.69775
G1 X53.9 Y55.045 E3.8416
G1 X52.74 Y57.546 E3.95622
G1 X51.674 Y60.021 E4.06826
G1 X50.637 Y62.629 E4.18494
G1 X50.14 Y63.972 E4.24448
G1 X49.236 Y66.572 E4.35892
G1 X48.404 Y69.198 E4.47345
G1 X47.65 Y71.84 E4.58768
G1 X47.187 Y73.623 E4.66426
G1 X46.582 Y76.175 E4.7733
G1 X46.032 Y78.839 E4.8864
G1 X45.554 Y81.526 E4.99986
G1 X45.192 Y83.929 E5.10089
G1 X44.851 Y86.687 E5.21643
G1 X44.679 Y88.414 E5.28859
G1 X44.494 Y90.757 E5.3863
G1 X44.332 Y94.022 E5.52221
G1 X44.279 Y96.728 E5.63473
G1 X44.31 Y99.712 E5.7588
G1 X44.348 Y100.666 E5.7985
G1 X44.418 Y102.455 E5.87293
G1 X44.438 Y102.792 E5.88697
G1 X44.499 Y103.649 E5.92269
G1 X44.604 Y105.199 E5.98728
G1 X44.626 Y105.463 E5.99829
G1 X44.899 Y108.215 E6.11327
G1 X44.965 Y108.767 E6.13638
G1 X44.974 Y108.806 E6.13804
G1 X45.249 Y110.953 E6.22803
G1 X45.671 Y113.638 E6.34103
G1 X46.447 Y117.659 E6.51129
G1 X47.045 Y120.272 E6.62274
G1 X47.741 Y122.959 E6.73814
G1 X48.8 Y126.546 E6.89363
G1 X49.658 Y129.14 E7.00722
G1 X50.594 Y131.713 E7.12105
G1 X51.262 Y133.39 E7.1961
G1 X51.305 Y133.528 E7.20211
G1 X51.6 Y134.238 E7.23408
G1 X51.802 Y134.745 E7.25677
G1 X51.845 Y134.823 E7.26047
G1 X52.295 Y135.907 E7.30927
G1 X53.429 Y138.424 E7.42404
G1 X54.619 Y140.881 E7.53754
G1 X55.852 Y143.257 E7.64883
G1 X57.175 Y145.64 E7.76215
G1 X58.584 Y148.017 E7.87703
G1 X60.636 Y151.228 E8.03546
G1 X62.175 Y153.467 E8.14842
G1 X63.804 Y155.7 E8.26333
G1 X65.584 Y157.995 E8.38408
G1 X67.357 Y160.147 E8.50001
G1 X69.155 Y162.209 E8.61375
G1 X70.274 Y163.434 E8.68273
G1 X72.795 Y166.051 E8.8338
G1 X74.737 Y167.938 E8.94638
G1 X76.791 Y169.825 E9.06234
G1 X77.855 Y170.76 E9.12123
G1 X79.945 Y172.521 E9.23486
G1 X82.129 Y174.258 E9.35087
G1 X84.043 Y175.696 E9.4504
G1 X86.289 Y177.295 E9.56503
G1 X88.579 Y178.829 E9.67962
G1 X90.885 Y180.282 E9.79294
G1 X91.497 Y180.643 E9.82248
G1 X91.578 Y180.7 E9.8266
G1 X92.495 Y181.233 E9.87069
G1 X93.255 Y181.682 E9.90739
G1 X93.311 Y181.707 E9.90994
G1 X93.895 Y182.046 E9.93802
G1 X96.291 Y183.349 E10.05141
G1 X98.985 Y184.712 E10.17693
G1 X100.448 Y185.409 E10.24431
G1 X102.967 Y186.541 E10.35912
G1 X105.454 Y187.577 E10.47113
G1 X108.033 Y188.567 E10.58598
G1 X110.601 Y189.468 E10.69913
G1 X111.609 Y189.791 E10.74314
G1 X113.238 Y190.311 E10.81423
G1 X113.47 Y190.38 E10.82429
G1 X114.1 Y190.561 E10.85154
G1 X114.721 Y190.74 E10.87841
G1 X115.858 Y191.069 E10.92762
G1 X116.069 Y191.126 E10.93671
G1 X116.681 Y191.285 E10.963
G1 X117.231 Y191.429 E10.98664
G1 X117.973 Y191.622 E11.01851
G1 X118.022 Y191.629 E11.02057
G1 X118.734 Y191.811 E11.05112
G1 X119.26 Y191.931 E11.07355
G1 X119.596 Y192.014 E11.08794
G1 X120.461 Y192.201 E11.12473
G1 X121.465 Y192.43 E11.16755
G1 X122.291 Y192.599 E11.2026
G1 X123.25 Y192.779 E11.24317
G1 X124.132 Y192.953 E11.28054
G1 X124.963 Y193.101 E11.31564
G1 X125.939 Y193.256 E11.35672
G1 X126.736 Y193.39 E11.39032
G1 X126.813 Y193.395 E11.39353
G1 X127.673 Y193.532 E11.42974
G1 X130.369 Y193.883 E11.54277
G1 X133.122 Y194.162 E11.65781
G1 X134.804 Y194.288 E11.72794
G1 X135.412 Y194.333 E11.75328
G1 X135.462 Y194.331 E11.75536
G1 X137.55 Y194.446 E11.8423
G1 X140.297 Y194.521 E11.95655
G1 X144.021 Y194.498 E12.11138
G1 X146.758 Y194.391 E12.22526
G1 X150.445 Y194.124 E12.37895
G1 X153.114 Y193.843 E12.49053
G1 X155.875 Y193.474 E12.60634
G1 X158.519 Y193.044 E12.71771
G1 X161.277 Y192.514 E12.83447
G1 X163.759 Y191.968 E12.94013
G1 X166.523 Y191.276 E13.05859
G1 X167.178 Y191.092 E13.08687
G1 X167.674 Y190.965 E13.10816
G1 X168.307 Y190.786 E13.13551
G1 X168.968 Y190.587 E13.16421
G1 X169.627 Y190.389 E13.19282
G1 X170.957 Y189.988 E13.25057
G1 X173.556 Y189.125 E13.36442
G1 X176.129 Y188.188 E13.47827
G1 X178.64 Y187.194 E13.59055
G1 X180.518 Y186.396 E13.67538
G1 X180.576 Y186.364 E13.67813
G1 X181.196 Y186.099 E13.70617
G1 X183.637 Y184.969 E13.818
G1 X186.086 Y183.752 E13.9317
G1 X188.537 Y182.447 E14.04714
G1 X190.881 Y181.113 E14.15927
G1 X192.579 Y180.091 E14.24166
G1 X194.907 Y178.613 E14.35631
G1 X197.165 Y177.087 E14.46961
G1 X199.971 Y175.058 E14.61358
G1 X203.203 Y172.527 E14.78425
G1 X205.286 Y170.771 E14.89752
G1 X207.146 Y169.103 E15.00139
G1 X207.213 Y169.052 E15.00489
G1 X208.186 Y168.172 E15.05943
G1 X208.586 Y167.863 E15.08044
G1 X209.03 Y167.622 E15.10145
G1 X209.507 Y167.453 E15.12249
G1 X210.004 Y167.362 E15.14349
G1 X210.51 Y167.35 E15.16454
G1 X211.011 Y167.418 E15.18556
G1 X211.484 Y167.56 E15.20609
G1 X212.922 Y168.115 E15.27017
G1 X215.52 Y169.071 E15.38526
G1 X218.405 Y170.036 E15.51174
G1 X218.87 Y170.234 E15.53275
G1 X219.299 Y170.503 E15.5538
G1 X219.608 Y170.764 E15.57062
G1 X220.077 Y171.215 E15.59767
G1 X220.354 Y171.501 E15.61423
G1 X220.943 Y172.141 E15.65039
G1 X221.697 Y172.987 E15.6975
G1 X223.565 Y174.964 E15.81058
G1 X225.49 Y176.888 E15.92374
G1 X226.453 Y177.789 E15.97856
G1 X226.593 Y177.943 E15.98722
G1 X227.477 Y178.783 E16.03792
G1 X227.815 Y179.159 E16.05894
G1 X228.089 Y179.584 E16.07996
G1 X228.293 Y180.046 E16.10096
G1 X228.395 Y180.406 E16.11651
G1 X228.599 Y181.321 E16.15549
G1 X229.242 Y184.034 E16.27141
G1 X229.944 Y186.67 E16.38482
G1 X230.718 Y189.277 E16.49788
G1 X231.18 Y190.717 E16.56075
G1 X231.69 Y192.267 E16.62859
G1 X231.889 Y192.899 E16.65614
G1 X232.003 Y193.392 E16.67718
G1 X232.037 Y193.896 E16.69818
G1 X231.991 Y194.4 E16.71922
G1 X231.867 Y194.89 E16.74024
G1 X231.667 Y195.354 E16.76124
G1 X231.396 Y195.781 E16.78227
G1 X231.005 Y196.213 E16.80649
G1 X230.443 Y196.731 E16.83827
G1 X229.865 Y197.246 E16.87045
G1 X229.181 Y197.844 E16.90823
G1 X228.669 Y198.289 E16.93643
G1 X228.416 Y198.504 E16.95023
G1 X227.865 Y198.965 E16.9801
G1 X227.637 Y199.14 E16.99205
G1 X227.002 Y199.58 E17.02417
G1 X225.927 Y200.308 E17.07815
G1 X223.678 Y201.926 E17.19333
G1 X221.493 Y203.592 E17.30757
G1 X219.392 Y205.294 E17.41998
G1 X218.217 Y206.304 E17.4844
G1 X217.526 Y206.883 E17.52188
G1 X217.305 Y207.052 E17.53345
G1 X216.711 Y207.468 E17.5636
G1 X215.846 Y208.053 E17.60701
G1 X215.273 Y208.434 E17.63562
G1 X214.465 Y208.965 E17.67582
G1 X213.848 Y209.355 E17.70617
G1 X213.614 Y209.489 E17.71738
G1 X212.939 Y209.84 E17.74901
G1 X211.722 Y210.45 E17.8056
G1 X209.291 Y211.756 E17.92033
G1 X206.94 Y213.107 E18.03307
G1 X204.601 Y214.539 E18.14709
G1 X203.256 Y215.418 E18.21389
G1 X202.571 Y215.853 E18.24763
G1 X202.341 Y215.987 E18.25869
G1 X201.679 Y216.333 E18.28975
G1 X200.802 Y216.77 E18.33049
G1 X199.661 Y217.33 E18.38333
G1 X199.241 Y217.531 E18.40269
G1 X198.585 Y217.834 E18.43273
G1 X198.336 Y217.937 E18.44393
G1 X197.625 Y218.195 E18.47538
G1 X196.293 Y218.656 E18.53398
G1 X193.754 Y219.619 E18.64688
G1 X191.216 Y220.665 E18.761
G1 X188.713 Y221.78 E18.87492
G1 X187.21 Y222.501 E18.94423
G1 X186.573 Y222.797 E18.97343
G1 X186.321 Y222.902 E18.98478
G1 X185.585 Y223.169 E19.01733
G1 X184.674 Y223.484 E19.05741
G1 X183.532 Y223.869 E19.10751
G1 X183.045 Y224.029 E19.12882
G1 X182.363 Y224.241 E19.15852
G1 X182.102 Y224.31 E19.16974
G1 X181.397 Y224.465 E19.19975
G1 X180.024 Y224.748 E19.25803
G1 X177.346 Y225.379 E19.37242
G1 X174.701 Y226.082 E19.48621
G1 X172.056 Y226.865 E19.60089
G1 X170.533 Y227.365 E19.66753
G1 X169.807 Y227.593 E19.69917
G1 X169.546 Y227.663 E19.7104
G1 X168.772 Y227.836 E19.74338
G1 X168.449 Y227.904 E19.7571
G1 X167.846 Y228.026 E19.78268
G1 X167.232 Y228.148 E19.8087
G1 X166.14 Y228.357 E19.85493
G1 X165.431 Y228.479 E19.88484
G1 X165.164 Y228.513 E19.89603
G1 X164.392 Y228.58 E19.92825
G1 X163.009 Y228.68 E19.98589
G1 X160.298 Y228.955 E20.09918
G1 X157.573 Y229.307 E20.21342
G1 X154.869 Y229.736 E20.32724
G1 X153.243 Y230.042 E20.39603
G1 X152.522 Y230.167 E20.42645
G1 X152.261 Y230.201 E20.4374
G1 X151.537 Y230.266 E20.46762
G1 X150.697 Y230.326 E20.50263
G1 X149.79 Y230.386 E20.54042
G1 X148.844 Y230.44 E20.57981
G1 X148.092 Y230.469 E20.6111
G1 X147.825 Y230.468 E20.6222
G1 X146.959 Y230.428 E20.65825
G1 X145.755 Y230.357 E20.70839
G1 X143.034 Y230.272 E20.82157
G1 X140.282 Y230.263 E20.93599
G1 X137.542 Y230.333 E21.04994
G1 X135.853 Y230.426 E21.12027
G1 X135.089 Y230.458 E21.15206
G1 X134.823 Y230.458 E21.16312
G1 X134.088 Y230.427 E21.1937
G1 X133.062 Y230.367 E21.23643
G1 X131.879 Y230.286 E21.28573
G1 X131.344 Y230.244 E21.30804
G1 X130.641 Y230.179 E21.33739
G1 X130.378 Y230.144 E21.34842
G1 X129.602 Y230.006 E21.38119
G1 X128.359 Y229.766 E21.43382
G1 X125.643 Y229.322 E21.54824
G1 X122.941 Y228.957 E21.6616
G1 X120.231 Y228.67 E21.77489
G1 X118.622 Y228.548 E21.84198
G1 X117.754 Y228.471 E21.87821
G1 X117.487 Y228.436 E21.88941
G1 X116.757 Y228.309 E21.92021
G1 X115.758 Y228.116 E21.96251
G1 X114.473 Y227.856 E22.01702
G1 X114.086 Y227.775 E22.03346
G1 X113.386 Y227.616 E22.0633
G1 X113.134 Y227.547 E22.07416
G1 X112.398 Y227.315 E22.10625
G1 X111.089 Y226.881 E22.16358
G1 X108.425 Y226.08 E22.27924
G1 X105.835 Y225.381 E22.39077
G1 X103.132 Y224.732 E22.50634
G1 X101.664 Y224.425 E22.56869
G1 X100.836 Y224.241 E22.60396
G1 X100.572 Y224.17 E22.61532
G1 X99.803 Y223.928 E22.64884
G1 X98.993 Y223.66 E22.68431
G1 X97.653 Y223.201 E22.7432
G1 X97.281 Y223.069 E22.75961
G1 X96.595 Y222.815 E22.79002
G1 X96.347 Y222.711 E22.80121
G1 X95.631 Y222.375 E22.83409
G1 X94.511 Y221.831 E22.88585
G1 X92.024 Y220.709 E22.99929
G1 X89.456 Y219.635 E23.11501
G1 X86.913 Y218.657 E23.22829
G1 X85.425 Y218.135 E23.29385
G1 X84.582 Y217.827 E23.33116
G1 X84.334 Y217.724 E23.34233
G1 X83.707 Y217.433 E23.37106
G1 X82.896 Y217.041 E23.40851
G1 X82.064 Y216.629 E23.44711
G1 X81.217 Y216.201 E23.48657
G1 X80.587 Y215.868 E23.51619
G1 X80.358 Y215.735 E23.5272
G1 X79.666 Y215.292 E23.56136
G1 X78.6 Y214.59 E23.61443
G1 X76.263 Y213.144 E23.72869
G1 X73.917 Y211.781 E23.84149
G1 X71.485 Y210.459 E23.95657
G1 X70.115 Y209.767 E24.02038
G1 X69.354 Y209.37 E24.05607
G1 X69.127 Y209.24 E24.06694
G1 X68.518 Y208.855 E24.0969
G1 X68.102 Y208.582 E24.11759
G1 X67.67 Y208.296 E24.13913
G1 X66.956 Y207.817 E24.17487
G1 X66.197 Y207.3 E24.21305
G1 X65.625 Y206.895 E24.24219
G1 X65.416 Y206.733 E24.25318
G1 X64.838 Y206.247 E24.28458
G1 X63.767 Y205.321 E24.34344
G1 X61.617 Y203.568 E24.45878
G1 X59.44 Y201.892 E24.573
G1 X57.252 Y200.304 E24.6854
G1 X55.972 Y199.431 E24.74982
G1 X55.331 Y198.981 E24.78238
G1 X55.117 Y198.817 E24.79359
G1 X54.519 Y198.316 E24.82602
G1 X53.807 Y197.699 E24.86519
G1 X53.156 Y197.127 E24.90122
G1 X52.463 Y196.508 E24.93985
G1 X51.982 Y196.064 E24.96707
G1 X51.792 Y195.874 E24.97824
G1 X51.273 Y195.307 E25.01019
G1 X50.32 Y194.235 E25.06983
G1 X48.437 Y192.236 E25.184
G1 X46.496 Y190.29 E25.29827
G1 X44.51 Y188.405 E25.41211
G1 X43.311 Y187.334 E25.47895
G1 X42.793 Y186.859 E25.50817
G1 X42.605 Y186.67 E25.51925
G1 X42.109 Y186.132 E25.54968
G1 X41.488 Y185.434 E25.58852
G1 X40.838 Y184.69 E25.62959
G1 X40.287 Y184.05 E25.6647
G1 X39.842 Y183.518 E25.69354
G1 X39.67 Y183.292 E25.70535
G1 X39.228 Y182.656 E25.73755
G1 X38.5 Y181.581 E25.79152
G1 X36.882 Y179.332 E25.90671
G1 X35.216 Y177.147 E26.02095
G1 X33.515 Y175.049 E26.13324
G1 X32.427 Y173.78 E26.20273
G1 X31.916 Y173.167 E26.23591
G1 X31.753 Y172.954 E26.24706
G1 X31.34 Y172.363 E26.27704
G1 X30.815 Y171.589 E26.31592
G1 X30.294 Y170.807 E26.35499
G1 X29.844 Y170.119 E26.38917
G1 X29.453 Y169.501 E26.41957
G1 X29.318 Y169.266 E26.43084
G1 X28.968 Y168.593 E26.46238
G1 X28.351 Y167.362 E26.51962
G1 X27.052 Y164.945 E26.6337
G1 X25.701 Y162.594 E26.74644
G1 X24.269 Y160.255 E26.86046
G1 X23.39 Y158.91 E26.92726
G1 X22.955 Y158.225 E26.961
G1 X22.821 Y157.995 E26.97206
G1 X22.475 Y157.333 E27.00312
G1 X22.037 Y156.456 E27.04387
G1 X21.459 Y155.276 E27.0985
G1 X21.277 Y154.895 E27.11606
G1 X20.973 Y154.237 E27.14619
G1 X20.87 Y153.987 E27.15743
G1 X20.613 Y153.279 E27.18875
G1 X20.152 Y151.947 E27.24735
G1 X19.189 Y149.408 E27.36025
G1 X18.138 Y146.857 E27.47495
G1 X17.035 Y144.38 E27.58768
G1 X16.306 Y142.861 E27.65773
G1 X16.005 Y142.212 E27.68747
G1 X15.903 Y141.966 E27.69855
G1 X15.646 Y141.263 E27.72967
G1 X15.338 Y140.373 E27.76882
G1 X15.063 Y139.562 E27.80442
G1 X14.78 Y138.7 E27.84214
G1 X14.562 Y137.999 E27.87266
G1 X14.493 Y137.737 E27.88393
G1 X14.346 Y137.07 E27.91232
G1 X14.063 Y135.693 E27.97077
G1 X13.435 Y133.02 E28.08493
G1 X12.739 Y130.397 E28.19775
G1 X11.964 Y127.771 E28.31158
G1 X11.441 Y126.178 E28.38129
G1 X11.216 Y125.463 E28.41245
G1 X11.145 Y125.2 E28.42378
G1 X10.969 Y124.411 E28.45739
G1 X10.8 Y123.592 E28.49216
G1 X10.638 Y122.774 E28.52683
G1 X10.449 Y121.78 E28.56889
G1 X10.329 Y121.077 E28.59854
G1 X10.295 Y120.819 E28.60936
G1 X10.23 Y120.073 E28.64049
G1 X10.131 Y118.693 E28.69801
G1 X9.858 Y115.984 E28.81121
G1 X9.504 Y113.249 E28.92587
G1 X9.077 Y110.551 E29.03943
G1 X8.76 Y108.862 E29.11088
G1 X8.64 Y108.167 E29.1402
G1 X8.606 Y107.907 E29.15111
G1 X8.543 Y107.202 E29.18053
G1 X8.482 Y106.351 E29.216
G1 X8.422 Y105.442 E29.25388
G1 X8.366 Y104.451 E29.29514
G1 X8.339 Y103.746 E29.32448
G1 X8.34 Y103.48 E29.33554
G1 X8.379 Y102.617 E29.37145
G1 X8.455 Y101.318 E29.42555
G1 X8.537 Y98.643 E29.53682
G1 X8.544 Y95.889 E29.65131
G1 X8.473 Y93.149 E29.76527
G1 X8.382 Y91.505 E29.83372
G1 X8.35 Y90.718 E29.86647
G1 X8.35 Y90.45 E29.87761
